## ###\   ###\ #####\  ######\##\  ##\##\###\   ##\ #####\ 
## ####\ ####\##\\\##\##\\\\\\##\  ##\##\####\  ##\##\\\##\
## ##\####\##\#######\##\     #######\##\##\##\ ##\#######\
## ##\\##\\##\##\\\##\##\     ##\\\##\##\##\\##\##\##\\\##\
## ##\ \\\ ##\##\  ##\\######\##\  ##\##\##\ \####\##\  ##\
## \\\     \\\\\\  \\\ \\\\\\\\\\  \\\\\\\\\  \\\\\\\\  \\\
## 
## Program name: strange_attractor
## Created: 02/03/2021 14:57:53
## 
## DISCLAIMER: WORKING WITH ROBOTS CAN BE DANGEROUS!
## When using robots in a real-time interactive environment, please make sure:
##     - You have been adequately trained to use that particular machine,
##     - you are in good physical and mental condition,
##     - you are operating the robot under the utmost security measures,
##     - you are following the facility's and facility staff's security protocols,
##     - and the robot has the appropriate guarding in place, including, but not reduced to:
##         e -stops, physical barriers, light curtains, etc.
## The Machina software framework and its generated code is provided as is;
## use at your own risk. This product is not intended for any use that may
## involve potential risks of death (including lifesaving equipment),
## personal injury, or severe property or environmental damage.
## Machina is in a very early stage of development. You are using this software
## at your own risk, no warranties are provided herewith, and unexpected
## results / bugs may arise during its use. Always test and simulate your
## applications thoroughly before running them on a real device.
## The author/s shall not be liable for any injuries, damages or losses
## consequence of using this software in any way whatsoever.
## 
## 
## Copyright(c) 2021 Jose Luis Garcia del Castillo y Lopez
## https://github.com/RobotExMachina
## 
## MIT License
## 
## Permission is hereby granted, free of charge, to any person obtaining a copy
## of this software and associated documentation files(the "Software"), to deal
## in the Software without restriction, including without limitation the rights
## to use, copy, modify, merge, publish, distribute, sublicense, and / or sell
## copies of the Software, and to permit persons to whom the Software is
## furnished to do so, subject to the following conditions:
## 
## The above copyright notice and this permission notice shall be included in all
## copies or substantial portions of the Software.
## 
## THE SOFTWARE IS PROVIDED "AS IS", WITHOUT WARRANTY OF ANY KIND, EXPRESS OR
## IMPLIED, INCLUDING BUT NOT LIMITED TO THE WARRANTIES OF MERCHANTABILITY,
## FITNESS FOR A PARTICULAR PURPOSE AND NONINFRINGEMENT. IN NO EVENT SHALL THE
## AUTHORS OR COPYRIGHT HOLDERS BE LIABLE FOR ANY CLAIM, DAMAGES OR OTHER
## LIABILITY, WHETHER IN AN ACTION OF CONTRACT, TORT OR OTHERWISE, ARISING FROM,
## OUT OF OR IN CONNECTION WITH THE SOFTWARE OR THE USE OR OTHER DEALINGS IN THE
## SOFTWARE.


def strange_attractor():

  movej([0,-1.570796,-1.570796,-1.570796,1.570796,0], a=0.523599, v=0.349066, r=0.005)  # [Set joint rotations to [0, -90, -90, -90, 90, 0] deg]
  # [Set motion type to 'Joint']
  # [Set motion speed to 25 mm/s or deg/s]
  movej(p[0.8999,-0.000142,-0.06,0,3.141593,0], a=0.523599, v=0.436332, r=0.005)  # [Transform: move to [899.9, -0.142, -60] mm and rotate to [[-1, 0, 0], [0, 1, 0], [0, 0, -1]]]
  movej(p[0.899933,-0.002507,-0.059997,0,3.141593,0], a=0.523599, v=0.436332, r=0.005)  # [Transform: move to [899.933, -2.507, -59.997] mm and rotate to [[-1, 0, 0], [0, 1, 0], [0, 0, -1]]]
  movej(p[0.899918,-0.004873,-0.059993,0,3.141593,0], a=0.523599, v=0.436332, r=0.005)  # [Transform: move to [899.918, -4.873, -59.993] mm and rotate to [[-1, 0, 0], [0, 1, 0], [0, 0, -1]]]
  movej(p[0.899886,-0.007238,-0.05999,0,3.141593,0], a=0.523599, v=0.436332, r=0.005)  # [Transform: move to [899.886, -7.238, -59.99] mm and rotate to [[-1, 0, 0], [0, 1, 0], [0, 0, -1]]]
  movej(p[0.89984,-0.009604,-0.059987,0,3.141593,0], a=0.523599, v=0.436332, r=0.005)  # [Transform: move to [899.84, -9.604, -59.987] mm and rotate to [[-1, 0, 0], [0, 1, 0], [0, 0, -1]]]
  movej(p[0.89978,-0.011969,-0.059983,0,3.141593,0], a=0.523599, v=0.436332, r=0.005)  # [Transform: move to [899.78, -11.969, -59.983] mm and rotate to [[-1, 0, 0], [0, 1, 0], [0, 0, -1]]]
  movej(p[0.899706,-0.014333,-0.05998,0,3.141593,0], a=0.523599, v=0.436332, r=0.005)  # [Transform: move to [899.706, -14.333, -59.98] mm and rotate to [[-1, 0, 0], [0, 1, 0], [0, 0, -1]]]
  movej(p[0.899617,-0.016697,-0.059977,0,3.141593,0], a=0.523599, v=0.436332, r=0.005)  # [Transform: move to [899.617, -16.697, -59.977] mm and rotate to [[-1, 0, 0], [0, 1, 0], [0, 0, -1]]]
  movej(p[0.899515,-0.019061,-0.059973,0,3.141593,0], a=0.523599, v=0.436332, r=0.005)  # [Transform: move to [899.515, -19.061, -59.973] mm and rotate to [[-1, 0, 0], [0, 1, 0], [0, 0, -1]]]
  movej(p[0.8994,-0.021424,-0.05997,0,3.141593,0], a=0.523599, v=0.436332, r=0.005)  # [Transform: move to [899.4, -21.424, -59.97] mm and rotate to [[-1, 0, 0], [0, 1, 0], [0, 0, -1]]]
  movej(p[0.89927,-0.023786,-0.059967,0,3.141593,0], a=0.523599, v=0.436332, r=0.005)  # [Transform: move to [899.27, -23.786, -59.967] mm and rotate to [[-1, 0, 0], [0, 1, 0], [0, 0, -1]]]
  movej(p[0.899127,-0.026147,-0.059963,0,3.141593,0], a=0.523599, v=0.436332, r=0.005)  # [Transform: move to [899.127, -26.147, -59.963] mm and rotate to [[-1, 0, 0], [0, 1, 0], [0, 0, -1]]]
  movej(p[0.89897,-0.028508,-0.05996,0,3.141593,0], a=0.523599, v=0.436332, r=0.005)  # [Transform: move to [898.97, -28.508, -59.96] mm and rotate to [[-1, 0, 0], [0, 1, 0], [0, 0, -1]]]
  movej(p[0.8988,-0.030867,-0.059957,0,3.141593,0], a=0.523599, v=0.436332, r=0.005)  # [Transform: move to [898.8, -30.867, -59.957] mm and rotate to [[-1, 0, 0], [0, 1, 0], [0, 0, -1]]]
  movej(p[0.898615,-0.033226,-0.059953,0,3.141593,0], a=0.523599, v=0.436332, r=0.005)  # [Transform: move to [898.615, -33.226, -59.953] mm and rotate to [[-1, 0, 0], [0, 1, 0], [0, 0, -1]]]
  movej(p[0.898418,-0.035583,-0.05995,0,3.141593,0], a=0.523599, v=0.436332, r=0.005)  # [Transform: move to [898.418, -35.583, -59.95] mm and rotate to [[-1, 0, 0], [0, 1, 0], [0, 0, -1]]]
  movej(p[0.898206,-0.037939,-0.059947,0,3.141593,0], a=0.523599, v=0.436332, r=0.005)  # [Transform: move to [898.206, -37.939, -59.947] mm and rotate to [[-1, 0, 0], [0, 1, 0], [0, 0, -1]]]
  movej(p[0.897981,-0.040294,-0.059943,0,3.141593,0], a=0.523599, v=0.436332, r=0.005)  # [Transform: move to [897.981, -40.294, -59.943] mm and rotate to [[-1, 0, 0], [0, 1, 0], [0, 0, -1]]]
  movej(p[0.897742,-0.042648,-0.05994,0,3.141593,0], a=0.523599, v=0.436332, r=0.005)  # [Transform: move to [897.742, -42.648, -59.94] mm and rotate to [[-1, 0, 0], [0, 1, 0], [0, 0, -1]]]
  movej(p[0.897489,-0.045,-0.059937,0,3.141593,0], a=0.523599, v=0.436332, r=0.005)  # [Transform: move to [897.489, -45, -59.937] mm and rotate to [[-1, 0, 0], [0, 1, 0], [0, 0, -1]]]
  movej(p[0.897223,-0.047351,-0.059933,0,3.141593,0], a=0.523599, v=0.436332, r=0.005)  # [Transform: move to [897.223, -47.351, -59.933] mm and rotate to [[-1, 0, 0], [0, 1, 0], [0, 0, -1]]]
  movej(p[0.896943,-0.0497,-0.05993,0,3.141593,0], a=0.523599, v=0.436332, r=0.005)  # [Transform: move to [896.943, -49.7, -59.93] mm and rotate to [[-1, 0, 0], [0, 1, 0], [0, 0, -1]]]
  movej(p[0.89665,-0.052048,-0.059927,0,3.141593,0], a=0.523599, v=0.436332, r=0.005)  # [Transform: move to [896.65, -52.048, -59.927] mm and rotate to [[-1, 0, 0], [0, 1, 0], [0, 0, -1]]]
  movej(p[0.896343,-0.054393,-0.059923,0,3.141593,0], a=0.523599, v=0.436332, r=0.005)  # [Transform: move to [896.343, -54.393, -59.923] mm and rotate to [[-1, 0, 0], [0, 1, 0], [0, 0, -1]]]
  movej(p[0.896022,-0.056737,-0.05992,0,3.141593,0], a=0.523599, v=0.436332, r=0.005)  # [Transform: move to [896.022, -56.737, -59.92] mm and rotate to [[-1, 0, 0], [0, 1, 0], [0, 0, -1]]]
  movej(p[0.895687,-0.059079,-0.059917,0,3.141593,0], a=0.523599, v=0.436332, r=0.005)  # [Transform: move to [895.687, -59.079, -59.917] mm and rotate to [[-1, 0, 0], [0, 1, 0], [0, 0, -1]]]
  movej(p[0.895339,-0.061419,-0.059913,0,3.141593,0], a=0.523599, v=0.436332, r=0.005)  # [Transform: move to [895.339, -61.419, -59.913] mm and rotate to [[-1, 0, 0], [0, 1, 0], [0, 0, -1]]]
  movej(p[0.894977,-0.063757,-0.05991,0,3.141593,0], a=0.523599, v=0.436332, r=0.005)  # [Transform: move to [894.977, -63.757, -59.91] mm and rotate to [[-1, 0, 0], [0, 1, 0], [0, 0, -1]]]
  movej(p[0.894602,-0.066093,-0.059907,0,3.141593,0], a=0.523599, v=0.436332, r=0.005)  # [Transform: move to [894.602, -66.093, -59.907] mm and rotate to [[-1, 0, 0], [0, 1, 0], [0, 0, -1]]]
  movej(p[0.894212,-0.068426,-0.059903,0,3.141593,0], a=0.523599, v=0.436332, r=0.005)  # [Transform: move to [894.212, -68.426, -59.903] mm and rotate to [[-1, 0, 0], [0, 1, 0], [0, 0, -1]]]
  movej(p[0.893809,-0.070757,-0.0599,0,3.141593,0], a=0.523599, v=0.436332, r=0.005)  # [Transform: move to [893.809, -70.757, -59.9] mm and rotate to [[-1, 0, 0], [0, 1, 0], [0, 0, -1]]]
  movej(p[0.893393,-0.073086,-0.059897,0,3.141593,0], a=0.523599, v=0.436332, r=0.005)  # [Transform: move to [893.393, -73.086, -59.897] mm and rotate to [[-1, 0, 0], [0, 1, 0], [0, 0, -1]]]
  movej(p[0.892962,-0.075412,-0.059893,0,3.141593,0], a=0.523599, v=0.436332, r=0.005)  # [Transform: move to [892.962, -75.412, -59.893] mm and rotate to [[-1, 0, 0], [0, 1, 0], [0, 0, -1]]]
  movej(p[0.892518,-0.077736,-0.05989,0,3.141593,0], a=0.523599, v=0.436332, r=0.005)  # [Transform: move to [892.518, -77.736, -59.89] mm and rotate to [[-1, 0, 0], [0, 1, 0], [0, 0, -1]]]
  movej(p[0.89206,-0.080057,-0.059887,0,3.141593,0], a=0.523599, v=0.436332, r=0.005)  # [Transform: move to [892.06, -80.057, -59.887] mm and rotate to [[-1, 0, 0], [0, 1, 0], [0, 0, -1]]]
  movej(p[0.891589,-0.082375,-0.059883,0,3.141593,0], a=0.523599, v=0.436332, r=0.005)  # [Transform: move to [891.589, -82.375, -59.883] mm and rotate to [[-1, 0, 0], [0, 1, 0], [0, 0, -1]]]
  movej(p[0.891104,-0.084691,-0.05988,0,3.141593,0], a=0.523599, v=0.436332, r=0.005)  # [Transform: move to [891.104, -84.691, -59.88] mm and rotate to [[-1, 0, 0], [0, 1, 0], [0, 0, -1]]]
  movej(p[0.890605,-0.087003,-0.059877,0,3.141593,0], a=0.523599, v=0.436332, r=0.005)  # [Transform: move to [890.605, -87.003, -59.877] mm and rotate to [[-1, 0, 0], [0, 1, 0], [0, 0, -1]]]
  movej(p[0.890092,-0.089313,-0.059873,0,3.141593,0], a=0.523599, v=0.436332, r=0.005)  # [Transform: move to [890.092, -89.313, -59.873] mm and rotate to [[-1, 0, 0], [0, 1, 0], [0, 0, -1]]]
  movej(p[0.889565,-0.091619,-0.05987,0,3.141593,0], a=0.523599, v=0.436332, r=0.005)  # [Transform: move to [889.565, -91.619, -59.87] mm and rotate to [[-1, 0, 0], [0, 1, 0], [0, 0, -1]]]
  movej(p[0.889025,-0.093922,-0.059867,0,3.141593,0], a=0.523599, v=0.436332, r=0.005)  # [Transform: move to [889.025, -93.922, -59.867] mm and rotate to [[-1, 0, 0], [0, 1, 0], [0, 0, -1]]]
  movej(p[0.888471,-0.096222,-0.059863,0,3.141593,0], a=0.523599, v=0.436332, r=0.005)  # [Transform: move to [888.471, -96.222, -59.863] mm and rotate to [[-1, 0, 0], [0, 1, 0], [0, 0, -1]]]
  movej(p[0.887904,-0.098519,-0.05986,0,3.141593,0], a=0.523599, v=0.436332, r=0.005)  # [Transform: move to [887.904, -98.519, -59.86] mm and rotate to [[-1, 0, 0], [0, 1, 0], [0, 0, -1]]]
  movej(p[0.887322,-0.100812,-0.059857,0,3.141593,0], a=0.523599, v=0.436332, r=0.005)  # [Transform: move to [887.322, -100.812, -59.857] mm and rotate to [[-1, 0, 0], [0, 1, 0], [0, 0, -1]]]
  movej(p[0.886727,-0.103102,-0.059853,0,3.141593,0], a=0.523599, v=0.436332, r=0.005)  # [Transform: move to [886.727, -103.102, -59.853] mm and rotate to [[-1, 0, 0], [0, 1, 0], [0, 0, -1]]]
  movej(p[0.886118,-0.105387,-0.05985,0,3.141593,0], a=0.523599, v=0.436332, r=0.005)  # [Transform: move to [886.118, -105.387, -59.85] mm and rotate to [[-1, 0, 0], [0, 1, 0], [0, 0, -1]]]
  movej(p[0.885495,-0.10767,-0.059847,0,3.141593,0], a=0.523599, v=0.436332, r=0.005)  # [Transform: move to [885.495, -107.67, -59.847] mm and rotate to [[-1, 0, 0], [0, 1, 0], [0, 0, -1]]]
  movej(p[0.884858,-0.109948,-0.059843,0,3.141593,0], a=0.523599, v=0.436332, r=0.005)  # [Transform: move to [884.858, -109.948, -59.843] mm and rotate to [[-1, 0, 0], [0, 1, 0], [0, 0, -1]]]
  movej(p[0.884207,-0.112223,-0.05984,0,3.141593,0], a=0.523599, v=0.436332, r=0.005)  # [Transform: move to [884.207, -112.223, -59.84] mm and rotate to [[-1, 0, 0], [0, 1, 0], [0, 0, -1]]]
  movej(p[0.883543,-0.114493,-0.059837,0,3.141593,0], a=0.523599, v=0.436332, r=0.005)  # [Transform: move to [883.543, -114.493, -59.837] mm and rotate to [[-1, 0, 0], [0, 1, 0], [0, 0, -1]]]
  movej(p[0.882865,-0.11676,-0.059833,0,3.141593,0], a=0.523599, v=0.436332, r=0.005)  # [Transform: move to [882.865, -116.76, -59.833] mm and rotate to [[-1, 0, 0], [0, 1, 0], [0, 0, -1]]]
  movej(p[0.882173,-0.119022,-0.05983,0,3.141593,0], a=0.523599, v=0.436332, r=0.005)  # [Transform: move to [882.173, -119.022, -59.83] mm and rotate to [[-1, 0, 0], [0, 1, 0], [0, 0, -1]]]
  movej(p[0.881467,-0.12128,-0.059827,0,3.141593,0], a=0.523599, v=0.436332, r=0.005)  # [Transform: move to [881.467, -121.28, -59.827] mm and rotate to [[-1, 0, 0], [0, 1, 0], [0, 0, -1]]]
  movej(p[0.880747,-0.123533,-0.059823,0,3.141593,0], a=0.523599, v=0.436332, r=0.005)  # [Transform: move to [880.747, -123.533, -59.823] mm and rotate to [[-1, 0, 0], [0, 1, 0], [0, 0, -1]]]
  movej(p[0.880013,-0.125782,-0.05982,0,3.141593,0], a=0.523599, v=0.436332, r=0.005)  # [Transform: move to [880.013, -125.782, -59.82] mm and rotate to [[-1, 0, 0], [0, 1, 0], [0, 0, -1]]]
  movej(p[0.879266,-0.128027,-0.059817,0,3.141593,0], a=0.523599, v=0.436332, r=0.005)  # [Transform: move to [879.266, -128.027, -59.817] mm and rotate to [[-1, 0, 0], [0, 1, 0], [0, 0, -1]]]
  movej(p[0.878504,-0.130267,-0.059813,0,3.141593,0], a=0.523599, v=0.436332, r=0.005)  # [Transform: move to [878.504, -130.267, -59.813] mm and rotate to [[-1, 0, 0], [0, 1, 0], [0, 0, -1]]]
  movej(p[0.877729,-0.132502,-0.05981,0,3.141593,0], a=0.523599, v=0.436332, r=0.005)  # [Transform: move to [877.729, -132.502, -59.81] mm and rotate to [[-1, 0, 0], [0, 1, 0], [0, 0, -1]]]
  movej(p[0.87694,-0.134732,-0.059807,0,3.141593,0], a=0.523599, v=0.436332, r=0.005)  # [Transform: move to [876.94, -134.732, -59.807] mm and rotate to [[-1, 0, 0], [0, 1, 0], [0, 0, -1]]]
  movej(p[0.876137,-0.136957,-0.059803,0,3.141593,0], a=0.523599, v=0.436332, r=0.005)  # [Transform: move to [876.137, -136.957, -59.803] mm and rotate to [[-1, 0, 0], [0, 1, 0], [0, 0, -1]]]
  movej(p[0.875319,-0.139177,-0.0598,0,3.141593,0], a=0.523599, v=0.436332, r=0.005)  # [Transform: move to [875.319, -139.177, -59.8] mm and rotate to [[-1, 0, 0], [0, 1, 0], [0, 0, -1]]]
  movej(p[0.874488,-0.141392,-0.059797,0,3.141593,0], a=0.523599, v=0.436332, r=0.005)  # [Transform: move to [874.488, -141.392, -59.797] mm and rotate to [[-1, 0, 0], [0, 1, 0], [0, 0, -1]]]
  movej(p[0.873643,-0.143602,-0.059793,0,3.141593,0], a=0.523599, v=0.436332, r=0.005)  # [Transform: move to [873.643, -143.602, -59.793] mm and rotate to [[-1, 0, 0], [0, 1, 0], [0, 0, -1]]]
  movej(p[0.872784,-0.145806,-0.05979,0,3.141593,0], a=0.523599, v=0.436332, r=0.005)  # [Transform: move to [872.784, -145.806, -59.79] mm and rotate to [[-1, 0, 0], [0, 1, 0], [0, 0, -1]]]
  movej(p[0.871911,-0.148005,-0.059787,0,3.141593,0], a=0.523599, v=0.436332, r=0.005)  # [Transform: move to [871.911, -148.005, -59.787] mm and rotate to [[-1, 0, 0], [0, 1, 0], [0, 0, -1]]]
  movej(p[0.871024,-0.150198,-0.059783,0,3.141593,0], a=0.523599, v=0.436332, r=0.005)  # [Transform: move to [871.024, -150.198, -59.783] mm and rotate to [[-1, 0, 0], [0, 1, 0], [0, 0, -1]]]
  movej(p[0.870123,-0.152385,-0.05978,0,3.141593,0], a=0.523599, v=0.436332, r=0.005)  # [Transform: move to [870.123, -152.385, -59.78] mm and rotate to [[-1, 0, 0], [0, 1, 0], [0, 0, -1]]]
  movej(p[0.869208,-0.154567,-0.059777,0,3.141593,0], a=0.523599, v=0.436332, r=0.005)  # [Transform: move to [869.208, -154.567, -59.777] mm and rotate to [[-1, 0, 0], [0, 1, 0], [0, 0, -1]]]
  movej(p[0.868279,-0.156743,-0.059773,0,3.141593,0], a=0.523599, v=0.436332, r=0.005)  # [Transform: move to [868.279, -156.743, -59.773] mm and rotate to [[-1, 0, 0], [0, 1, 0], [0, 0, -1]]]
  movej(p[0.867336,-0.158912,-0.05977,0,3.141593,0], a=0.523599, v=0.436332, r=0.005)  # [Transform: move to [867.336, -158.912, -59.77] mm and rotate to [[-1, 0, 0], [0, 1, 0], [0, 0, -1]]]
  movej(p[0.866378,-0.161076,-0.059767,0,3.141593,0], a=0.523599, v=0.436332, r=0.005)  # [Transform: move to [866.378, -161.076, -59.767] mm and rotate to [[-1, 0, 0], [0, 1, 0], [0, 0, -1]]]
  movej(p[0.865407,-0.163233,-0.059763,0,3.141593,0], a=0.523599, v=0.436332, r=0.005)  # [Transform: move to [865.407, -163.233, -59.763] mm and rotate to [[-1, 0, 0], [0, 1, 0], [0, 0, -1]]]
  movej(p[0.864421,-0.165383,-0.05976,0,3.141593,0], a=0.523599, v=0.436332, r=0.005)  # [Transform: move to [864.421, -165.383, -59.76] mm and rotate to [[-1, 0, 0], [0, 1, 0], [0, 0, -1]]]
  movej(p[0.863422,-0.167528,-0.059757,0,3.141593,0], a=0.523599, v=0.436332, r=0.005)  # [Transform: move to [863.422, -167.528, -59.757] mm and rotate to [[-1, 0, 0], [0, 1, 0], [0, 0, -1]]]
  movej(p[0.862408,-0.169665,-0.059753,0,3.141593,0], a=0.523599, v=0.436332, r=0.005)  # [Transform: move to [862.408, -169.665, -59.753] mm and rotate to [[-1, 0, 0], [0, 1, 0], [0, 0, -1]]]
  movej(p[0.86138,-0.171796,-0.05975,0,3.141593,0], a=0.523599, v=0.436332, r=0.005)  # [Transform: move to [861.38, -171.796, -59.75] mm and rotate to [[-1, 0, 0], [0, 1, 0], [0, 0, -1]]]
  movej(p[0.860338,-0.17392,-0.059747,0,3.141593,0], a=0.523599, v=0.436332, r=0.005)  # [Transform: move to [860.338, -173.92, -59.747] mm and rotate to [[-1, 0, 0], [0, 1, 0], [0, 0, -1]]]
  movej(p[0.859282,-0.176037,-0.059743,0,3.141593,0], a=0.523599, v=0.436332, r=0.005)  # [Transform: move to [859.282, -176.037, -59.743] mm and rotate to [[-1, 0, 0], [0, 1, 0], [0, 0, -1]]]
  movej(p[0.858211,-0.178146,-0.05974,0,3.141593,0], a=0.523599, v=0.436332, r=0.005)  # [Transform: move to [858.211, -178.146, -59.74] mm and rotate to [[-1, 0, 0], [0, 1, 0], [0, 0, -1]]]
  movej(p[0.857127,-0.180249,-0.059737,0,3.141593,0], a=0.523599, v=0.436332, r=0.005)  # [Transform: move to [857.127, -180.249, -59.737] mm and rotate to [[-1, 0, 0], [0, 1, 0], [0, 0, -1]]]
  movej(p[0.856028,-0.182344,-0.059733,0,3.141593,0], a=0.523599, v=0.436332, r=0.005)  # [Transform: move to [856.028, -182.344, -59.733] mm and rotate to [[-1, 0, 0], [0, 1, 0], [0, 0, -1]]]
  movej(p[0.854915,-0.184431,-0.05973,0,3.141593,0], a=0.523599, v=0.436332, r=0.005)  # [Transform: move to [854.915, -184.431, -59.73] mm and rotate to [[-1, 0, 0], [0, 1, 0], [0, 0, -1]]]
  movej(p[0.853787,-0.186511,-0.059727,0,3.141593,0], a=0.523599, v=0.436332, r=0.005)  # [Transform: move to [853.787, -186.511, -59.727] mm and rotate to [[-1, 0, 0], [0, 1, 0], [0, 0, -1]]]
  movej(p[0.852646,-0.188583,-0.059723,0,3.141593,0], a=0.523599, v=0.436332, r=0.005)  # [Transform: move to [852.646, -188.583, -59.723] mm and rotate to [[-1, 0, 0], [0, 1, 0], [0, 0, -1]]]
  movej(p[0.85149,-0.190647,-0.05972,0,3.141593,0], a=0.523599, v=0.436332, r=0.005)  # [Transform: move to [851.49, -190.647, -59.72] mm and rotate to [[-1, 0, 0], [0, 1, 0], [0, 0, -1]]]
  movej(p[0.850319,-0.192703,-0.059717,0,3.141593,0], a=0.523599, v=0.436332, r=0.005)  # [Transform: move to [850.319, -192.703, -59.717] mm and rotate to [[-1, 0, 0], [0, 1, 0], [0, 0, -1]]]
  movej(p[0.849135,-0.194751,-0.059713,0,3.141593,0], a=0.523599, v=0.436332, r=0.005)  # [Transform: move to [849.135, -194.751, -59.713] mm and rotate to [[-1, 0, 0], [0, 1, 0], [0, 0, -1]]]
  movej(p[0.847935,-0.19679,-0.05971,0,3.141593,0], a=0.523599, v=0.436332, r=0.005)  # [Transform: move to [847.935, -196.79, -59.71] mm and rotate to [[-1, 0, 0], [0, 1, 0], [0, 0, -1]]]
  movej(p[0.846722,-0.198821,-0.059707,0,3.141593,0], a=0.523599, v=0.436332, r=0.005)  # [Transform: move to [846.722, -198.821, -59.707] mm and rotate to [[-1, 0, 0], [0, 1, 0], [0, 0, -1]]]
  movej(p[0.845494,-0.200843,-0.059703,0,3.141593,0], a=0.523599, v=0.436332, r=0.005)  # [Transform: move to [845.494, -200.843, -59.703] mm and rotate to [[-1, 0, 0], [0, 1, 0], [0, 0, -1]]]
  movej(p[0.844252,-0.202856,-0.0597,0,3.141593,0], a=0.523599, v=0.436332, r=0.005)  # [Transform: move to [844.252, -202.856, -59.7] mm and rotate to [[-1, 0, 0], [0, 1, 0], [0, 0, -1]]]
  movej(p[0.842995,-0.204861,-0.059697,0,3.141593,0], a=0.523599, v=0.436332, r=0.005)  # [Transform: move to [842.995, -204.861, -59.697] mm and rotate to [[-1, 0, 0], [0, 1, 0], [0, 0, -1]]]
  movej(p[0.841724,-0.206856,-0.059693,0,3.141593,0], a=0.523599, v=0.436332, r=0.005)  # [Transform: move to [841.724, -206.856, -59.693] mm and rotate to [[-1, 0, 0], [0, 1, 0], [0, 0, -1]]]
  movej(p[0.840438,-0.208842,-0.05969,0,3.141593,0], a=0.523599, v=0.436332, r=0.005)  # [Transform: move to [840.438, -208.842, -59.69] mm and rotate to [[-1, 0, 0], [0, 1, 0], [0, 0, -1]]]
  movej(p[0.839138,-0.210818,-0.059687,0,3.141593,0], a=0.523599, v=0.436332, r=0.005)  # [Transform: move to [839.138, -210.818, -59.687] mm and rotate to [[-1, 0, 0], [0, 1, 0], [0, 0, -1]]]
  movej(p[0.837824,-0.212785,-0.059683,0,3.141593,0], a=0.523599, v=0.436332, r=0.005)  # [Transform: move to [837.824, -212.785, -59.683] mm and rotate to [[-1, 0, 0], [0, 1, 0], [0, 0, -1]]]
  movej(p[0.836494,-0.214742,-0.05968,0,3.141593,0], a=0.523599, v=0.436332, r=0.005)  # [Transform: move to [836.494, -214.742, -59.68] mm and rotate to [[-1, 0, 0], [0, 1, 0], [0, 0, -1]]]
  movej(p[0.835151,-0.216689,-0.059677,0,3.141593,0], a=0.523599, v=0.436332, r=0.005)  # [Transform: move to [835.151, -216.689, -59.677] mm and rotate to [[-1, 0, 0], [0, 1, 0], [0, 0, -1]]]
  movej(p[0.833792,-0.218626,-0.059673,0,3.141593,0], a=0.523599, v=0.436332, r=0.005)  # [Transform: move to [833.792, -218.626, -59.673] mm and rotate to [[-1, 0, 0], [0, 1, 0], [0, 0, -1]]]
  movej(p[0.832419,-0.220552,-0.05967,0,3.141593,0], a=0.523599, v=0.436332, r=0.005)  # [Transform: move to [832.419, -220.552, -59.67] mm and rotate to [[-1, 0, 0], [0, 1, 0], [0, 0, -1]]]
  movej(p[0.831032,-0.222469,-0.059667,0,3.141593,0], a=0.523599, v=0.436332, r=0.005)  # [Transform: move to [831.032, -222.469, -59.667] mm and rotate to [[-1, 0, 0], [0, 1, 0], [0, 0, -1]]]
  movej(p[0.82963,-0.224374,-0.059663,0,3.141593,0], a=0.523599, v=0.436332, r=0.005)  # [Transform: move to [829.63, -224.374, -59.663] mm and rotate to [[-1, 0, 0], [0, 1, 0], [0, 0, -1]]]
  movej(p[0.828213,-0.226268,-0.05966,0,3.141593,0], a=0.523599, v=0.436332, r=0.005)  # [Transform: move to [828.213, -226.268, -59.66] mm and rotate to [[-1, 0, 0], [0, 1, 0], [0, 0, -1]]]
  movej(p[0.826781,-0.228152,-0.059657,0,3.141593,0], a=0.523599, v=0.436332, r=0.005)  # [Transform: move to [826.781, -228.152, -59.657] mm and rotate to [[-1, 0, 0], [0, 1, 0], [0, 0, -1]]]
  movej(p[0.825335,-0.230024,-0.059653,0,3.141593,0], a=0.523599, v=0.436332, r=0.005)  # [Transform: move to [825.335, -230.024, -59.653] mm and rotate to [[-1, 0, 0], [0, 1, 0], [0, 0, -1]]]
  movej(p[0.823874,-0.231885,-0.05965,0,3.141593,0], a=0.523599, v=0.436332, r=0.005)  # [Transform: move to [823.874, -231.885, -59.65] mm and rotate to [[-1, 0, 0], [0, 1, 0], [0, 0, -1]]]
  movej(p[0.822398,-0.233734,-0.059647,0,3.141593,0], a=0.523599, v=0.436332, r=0.005)  # [Transform: move to [822.398, -233.734, -59.647] mm and rotate to [[-1, 0, 0], [0, 1, 0], [0, 0, -1]]]
  movej(p[0.820908,-0.235571,-0.059643,0,3.141593,0], a=0.523599, v=0.436332, r=0.005)  # [Transform: move to [820.908, -235.571, -59.643] mm and rotate to [[-1, 0, 0], [0, 1, 0], [0, 0, -1]]]
  movej(p[0.819403,-0.237396,-0.05964,0,3.141593,0], a=0.523599, v=0.436332, r=0.005)  # [Transform: move to [819.403, -237.396, -59.64] mm and rotate to [[-1, 0, 0], [0, 1, 0], [0, 0, -1]]]
  movej(p[0.817882,-0.239209,-0.059637,0,3.141593,0], a=0.523599, v=0.436332, r=0.005)  # [Transform: move to [817.882, -239.209, -59.637] mm and rotate to [[-1, 0, 0], [0, 1, 0], [0, 0, -1]]]
  movej(p[0.816347,-0.241009,-0.059633,0,3.141593,0], a=0.523599, v=0.436332, r=0.005)  # [Transform: move to [816.347, -241.009, -59.633] mm and rotate to [[-1, 0, 0], [0, 1, 0], [0, 0, -1]]]
  movej(p[0.814798,-0.242796,-0.05963,0,3.141593,0], a=0.523599, v=0.436332, r=0.005)  # [Transform: move to [814.798, -242.796, -59.63] mm and rotate to [[-1, 0, 0], [0, 1, 0], [0, 0, -1]]]
  movej(p[0.813233,-0.244571,-0.059627,0,3.141593,0], a=0.523599, v=0.436332, r=0.005)  # [Transform: move to [813.233, -244.571, -59.627] mm and rotate to [[-1, 0, 0], [0, 1, 0], [0, 0, -1]]]
  movej(p[0.811654,-0.246332,-0.059623,0,3.141593,0], a=0.523599, v=0.436332, r=0.005)  # [Transform: move to [811.654, -246.332, -59.623] mm and rotate to [[-1, 0, 0], [0, 1, 0], [0, 0, -1]]]
  movej(p[0.810059,-0.248079,-0.05962,0,3.141593,0], a=0.523599, v=0.436332, r=0.005)  # [Transform: move to [810.059, -248.079, -59.62] mm and rotate to [[-1, 0, 0], [0, 1, 0], [0, 0, -1]]]
  movej(p[0.80845,-0.249813,-0.059617,0,3.141593,0], a=0.523599, v=0.436332, r=0.005)  # [Transform: move to [808.45, -249.813, -59.617] mm and rotate to [[-1, 0, 0], [0, 1, 0], [0, 0, -1]]]
  movej(p[0.806825,-0.251533,-0.059613,0,3.141593,0], a=0.523599, v=0.436332, r=0.005)  # [Transform: move to [806.825, -251.533, -59.613] mm and rotate to [[-1, 0, 0], [0, 1, 0], [0, 0, -1]]]
  movej(p[0.805186,-0.253239,-0.05961,0,3.141593,0], a=0.523599, v=0.436332, r=0.005)  # [Transform: move to [805.186, -253.239, -59.61] mm and rotate to [[-1, 0, 0], [0, 1, 0], [0, 0, -1]]]
  movej(p[0.803532,-0.25493,-0.059607,0,3.141593,0], a=0.523599, v=0.436332, r=0.005)  # [Transform: move to [803.532, -254.93, -59.607] mm and rotate to [[-1, 0, 0], [0, 1, 0], [0, 0, -1]]]
  movej(p[0.801863,-0.256607,-0.059603,0,3.141593,0], a=0.523599, v=0.436332, r=0.005)  # [Transform: move to [801.863, -256.607, -59.603] mm and rotate to [[-1, 0, 0], [0, 1, 0], [0, 0, -1]]]
  movej(p[0.800179,-0.258268,-0.0596,0,3.141593,0], a=0.523599, v=0.436332, r=0.005)  # [Transform: move to [800.179, -258.268, -59.6] mm and rotate to [[-1, 0, 0], [0, 1, 0], [0, 0, -1]]]
  movej(p[0.79848,-0.259914,-0.059597,0,3.141593,0], a=0.523599, v=0.436332, r=0.005)  # [Transform: move to [798.48, -259.914, -59.597] mm and rotate to [[-1, 0, 0], [0, 1, 0], [0, 0, -1]]]
  movej(p[0.796765,-0.261545,-0.059593,0,3.141593,0], a=0.523599, v=0.436332, r=0.005)  # [Transform: move to [796.765, -261.545, -59.593] mm and rotate to [[-1, 0, 0], [0, 1, 0], [0, 0, -1]]]
  movej(p[0.795036,-0.263159,-0.05959,0,3.141593,0], a=0.523599, v=0.436332, r=0.005)  # [Transform: move to [795.036, -263.159, -59.59] mm and rotate to [[-1, 0, 0], [0, 1, 0], [0, 0, -1]]]
  movej(p[0.793292,-0.264757,-0.059587,0,3.141593,0], a=0.523599, v=0.436332, r=0.005)  # [Transform: move to [793.292, -264.757, -59.587] mm and rotate to [[-1, 0, 0], [0, 1, 0], [0, 0, -1]]]
  movej(p[0.791533,-0.266339,-0.059583,0,3.141593,0], a=0.523599, v=0.436332, r=0.005)  # [Transform: move to [791.533, -266.339, -59.583] mm and rotate to [[-1, 0, 0], [0, 1, 0], [0, 0, -1]]]
  movej(p[0.789758,-0.267904,-0.05958,0,3.141593,0], a=0.523599, v=0.436332, r=0.005)  # [Transform: move to [789.758, -267.904, -59.58] mm and rotate to [[-1, 0, 0], [0, 1, 0], [0, 0, -1]]]
  movej(p[0.787969,-0.269451,-0.059577,0,3.141593,0], a=0.523599, v=0.436332, r=0.005)  # [Transform: move to [787.969, -269.451, -59.577] mm and rotate to [[-1, 0, 0], [0, 1, 0], [0, 0, -1]]]
  movej(p[0.786165,-0.270981,-0.059573,0,3.141593,0], a=0.523599, v=0.436332, r=0.005)  # [Transform: move to [786.165, -270.981, -59.573] mm and rotate to [[-1, 0, 0], [0, 1, 0], [0, 0, -1]]]
  movej(p[0.784345,-0.272493,-0.05957,0,3.141593,0], a=0.523599, v=0.436332, r=0.005)  # [Transform: move to [784.345, -272.493, -59.57] mm and rotate to [[-1, 0, 0], [0, 1, 0], [0, 0, -1]]]
  movej(p[0.782511,-0.273987,-0.059567,0,3.141593,0], a=0.523599, v=0.436332, r=0.005)  # [Transform: move to [782.511, -273.987, -59.567] mm and rotate to [[-1, 0, 0], [0, 1, 0], [0, 0, -1]]]
  movej(p[0.780661,-0.275462,-0.059563,0,3.141593,0], a=0.523599, v=0.436332, r=0.005)  # [Transform: move to [780.661, -275.462, -59.563] mm and rotate to [[-1, 0, 0], [0, 1, 0], [0, 0, -1]]]
  movej(p[0.778797,-0.276918,-0.05956,0,3.141593,0], a=0.523599, v=0.436332, r=0.005)  # [Transform: move to [778.797, -276.918, -59.56] mm and rotate to [[-1, 0, 0], [0, 1, 0], [0, 0, -1]]]
  movej(p[0.776917,-0.278355,-0.059557,0,3.141593,0], a=0.523599, v=0.436332, r=0.005)  # [Transform: move to [776.917, -278.355, -59.557] mm and rotate to [[-1, 0, 0], [0, 1, 0], [0, 0, -1]]]
  movej(p[0.775023,-0.279772,-0.059553,0,3.141593,0], a=0.523599, v=0.436332, r=0.005)  # [Transform: move to [775.023, -279.772, -59.553] mm and rotate to [[-1, 0, 0], [0, 1, 0], [0, 0, -1]]]
  movej(p[0.773113,-0.281169,-0.05955,0,3.141593,0], a=0.523599, v=0.436332, r=0.005)  # [Transform: move to [773.113, -281.169, -59.55] mm and rotate to [[-1, 0, 0], [0, 1, 0], [0, 0, -1]]]
  movej(p[0.771189,-0.282545,-0.059547,0,3.141593,0], a=0.523599, v=0.436332, r=0.005)  # [Transform: move to [771.189, -282.545, -59.547] mm and rotate to [[-1, 0, 0], [0, 1, 0], [0, 0, -1]]]
  movej(p[0.76925,-0.2839,-0.059543,0,3.141593,0], a=0.523599, v=0.436332, r=0.005)  # [Transform: move to [769.25, -283.9, -59.543] mm and rotate to [[-1, 0, 0], [0, 1, 0], [0, 0, -1]]]
  movej(p[0.767296,-0.285234,-0.05954,0,3.141593,0], a=0.523599, v=0.436332, r=0.005)  # [Transform: move to [767.296, -285.234, -59.54] mm and rotate to [[-1, 0, 0], [0, 1, 0], [0, 0, -1]]]
  movej(p[0.765327,-0.286545,-0.059537,0,3.141593,0], a=0.523599, v=0.436332, r=0.005)  # [Transform: move to [765.327, -286.545, -59.537] mm and rotate to [[-1, 0, 0], [0, 1, 0], [0, 0, -1]]]
  movej(p[0.763343,-0.287834,-0.059533,0,3.141593,0], a=0.523599, v=0.436332, r=0.005)  # [Transform: move to [763.343, -287.834, -59.533] mm and rotate to [[-1, 0, 0], [0, 1, 0], [0, 0, -1]]]
  movej(p[0.761345,-0.2891,-0.05953,0,3.141593,0], a=0.523599, v=0.436332, r=0.005)  # [Transform: move to [761.345, -289.1, -59.53] mm and rotate to [[-1, 0, 0], [0, 1, 0], [0, 0, -1]]]
  movej(p[0.759332,-0.290343,-0.059527,0,3.141593,0], a=0.523599, v=0.436332, r=0.005)  # [Transform: move to [759.332, -290.343, -59.527] mm and rotate to [[-1, 0, 0], [0, 1, 0], [0, 0, -1]]]
  movej(p[0.757305,-0.291562,-0.059523,0,3.141593,0], a=0.523599, v=0.436332, r=0.005)  # [Transform: move to [757.305, -291.562, -59.523] mm and rotate to [[-1, 0, 0], [0, 1, 0], [0, 0, -1]]]
  movej(p[0.755263,-0.292757,-0.05952,0,3.141593,0], a=0.523599, v=0.436332, r=0.005)  # [Transform: move to [755.263, -292.757, -59.52] mm and rotate to [[-1, 0, 0], [0, 1, 0], [0, 0, -1]]]
  movej(p[0.753206,-0.293926,-0.059517,0,3.141593,0], a=0.523599, v=0.436332, r=0.005)  # [Transform: move to [753.206, -293.926, -59.517] mm and rotate to [[-1, 0, 0], [0, 1, 0], [0, 0, -1]]]
  movej(p[0.751136,-0.29507,-0.059513,0,3.141593,0], a=0.523599, v=0.436332, r=0.005)  # [Transform: move to [751.136, -295.07, -59.513] mm and rotate to [[-1, 0, 0], [0, 1, 0], [0, 0, -1]]]
  movej(p[0.749051,-0.296188,-0.05951,0,3.141593,0], a=0.523599, v=0.436332, r=0.005)  # [Transform: move to [749.051, -296.188, -59.51] mm and rotate to [[-1, 0, 0], [0, 1, 0], [0, 0, -1]]]
  movej(p[0.746952,-0.29728,-0.059507,0,3.141593,0], a=0.523599, v=0.436332, r=0.005)  # [Transform: move to [746.952, -297.28, -59.507] mm and rotate to [[-1, 0, 0], [0, 1, 0], [0, 0, -1]]]
  movej(p[0.744839,-0.298344,-0.059503,0,3.141593,0], a=0.523599, v=0.436332, r=0.005)  # [Transform: move to [744.839, -298.344, -59.503] mm and rotate to [[-1, 0, 0], [0, 1, 0], [0, 0, -1]]]
  movej(p[0.742712,-0.29938,-0.0595,0,3.141593,0], a=0.523599, v=0.436332, r=0.005)  # [Transform: move to [742.712, -299.38, -59.5] mm and rotate to [[-1, 0, 0], [0, 1, 0], [0, 0, -1]]]
  movej(p[0.740572,-0.300388,-0.059497,0,3.141593,0], a=0.523599, v=0.436332, r=0.005)  # [Transform: move to [740.572, -300.388, -59.497] mm and rotate to [[-1, 0, 0], [0, 1, 0], [0, 0, -1]]]
  movej(p[0.738418,-0.301366,-0.059493,0,3.141593,0], a=0.523599, v=0.436332, r=0.005)  # [Transform: move to [738.418, -301.366, -59.493] mm and rotate to [[-1, 0, 0], [0, 1, 0], [0, 0, -1]]]
  movej(p[0.736251,-0.302315,-0.05949,0,3.141593,0], a=0.523599, v=0.436332, r=0.005)  # [Transform: move to [736.251, -302.315, -59.49] mm and rotate to [[-1, 0, 0], [0, 1, 0], [0, 0, -1]]]
  movej(p[0.734071,-0.303233,-0.059487,0,3.141593,0], a=0.523599, v=0.436332, r=0.005)  # [Transform: move to [734.071, -303.233, -59.487] mm and rotate to [[-1, 0, 0], [0, 1, 0], [0, 0, -1]]]
  movej(p[0.731878,-0.30412,-0.059483,0,3.141593,0], a=0.523599, v=0.436332, r=0.005)  # [Transform: move to [731.878, -304.12, -59.483] mm and rotate to [[-1, 0, 0], [0, 1, 0], [0, 0, -1]]]
  movej(p[0.729672,-0.304976,-0.05948,0,3.141593,0], a=0.523599, v=0.436332, r=0.005)  # [Transform: move to [729.672, -304.976, -59.48] mm and rotate to [[-1, 0, 0], [0, 1, 0], [0, 0, -1]]]
  movej(p[0.727454,-0.305799,-0.059477,0,3.141593,0], a=0.523599, v=0.436332, r=0.005)  # [Transform: move to [727.454, -305.799, -59.477] mm and rotate to [[-1, 0, 0], [0, 1, 0], [0, 0, -1]]]
  movej(p[0.725224,-0.306588,-0.059473,0,3.141593,0], a=0.523599, v=0.436332, r=0.005)  # [Transform: move to [725.224, -306.588, -59.473] mm and rotate to [[-1, 0, 0], [0, 1, 0], [0, 0, -1]]]
  movej(p[0.722982,-0.307343,-0.05947,0,3.141593,0], a=0.523599, v=0.436332, r=0.005)  # [Transform: move to [722.982, -307.343, -59.47] mm and rotate to [[-1, 0, 0], [0, 1, 0], [0, 0, -1]]]
  movej(p[0.720729,-0.308064,-0.059467,0,3.141593,0], a=0.523599, v=0.436332, r=0.005)  # [Transform: move to [720.729, -308.064, -59.467] mm and rotate to [[-1, 0, 0], [0, 1, 0], [0, 0, -1]]]
  movej(p[0.718464,-0.308749,-0.059463,0,3.141593,0], a=0.523599, v=0.436332, r=0.005)  # [Transform: move to [718.464, -308.749, -59.463] mm and rotate to [[-1, 0, 0], [0, 1, 0], [0, 0, -1]]]
  movej(p[0.716189,-0.309397,-0.05946,0,3.141593,0], a=0.523599, v=0.436332, r=0.005)  # [Transform: move to [716.189, -309.397, -59.46] mm and rotate to [[-1, 0, 0], [0, 1, 0], [0, 0, -1]]]
  movej(p[0.713904,-0.310008,-0.059457,0,3.141593,0], a=0.523599, v=0.436332, r=0.005)  # [Transform: move to [713.904, -310.008, -59.457] mm and rotate to [[-1, 0, 0], [0, 1, 0], [0, 0, -1]]]
  movej(p[0.711608,-0.310581,-0.059453,0,3.141593,0], a=0.523599, v=0.436332, r=0.005)  # [Transform: move to [711.608, -310.581, -59.453] mm and rotate to [[-1, 0, 0], [0, 1, 0], [0, 0, -1]]]
  movej(p[0.709304,-0.311115,-0.05945,0,3.141593,0], a=0.523599, v=0.436332, r=0.005)  # [Transform: move to [709.304, -311.115, -59.45] mm and rotate to [[-1, 0, 0], [0, 1, 0], [0, 0, -1]]]
  movej(p[0.70699,-0.31161,-0.059447,0,3.141593,0], a=0.523599, v=0.436332, r=0.005)  # [Transform: move to [706.99, -311.61, -59.447] mm and rotate to [[-1, 0, 0], [0, 1, 0], [0, 0, -1]]]
  movej(p[0.704668,-0.312063,-0.059443,0,3.141593,0], a=0.523599, v=0.436332, r=0.005)  # [Transform: move to [704.668, -312.063, -59.443] mm and rotate to [[-1, 0, 0], [0, 1, 0], [0, 0, -1]]]
  movej(p[0.702339,-0.312476,-0.05944,0,3.141593,0], a=0.523599, v=0.436332, r=0.005)  # [Transform: move to [702.339, -312.476, -59.44] mm and rotate to [[-1, 0, 0], [0, 1, 0], [0, 0, -1]]]
  movej(p[0.700002,-0.312845,-0.059437,0,3.141593,0], a=0.523599, v=0.436332, r=0.005)  # [Transform: move to [700.002, -312.845, -59.437] mm and rotate to [[-1, 0, 0], [0, 1, 0], [0, 0, -1]]]
  movej(p[0.697659,-0.313172,-0.059433,0,3.141593,0], a=0.523599, v=0.436332, r=0.005)  # [Transform: move to [697.659, -313.172, -59.433] mm and rotate to [[-1, 0, 0], [0, 1, 0], [0, 0, -1]]]
  movej(p[0.695311,-0.313455,-0.05943,0,3.141593,0], a=0.523599, v=0.436332, r=0.005)  # [Transform: move to [695.311, -313.455, -59.43] mm and rotate to [[-1, 0, 0], [0, 1, 0], [0, 0, -1]]]
  movej(p[0.692957,-0.313692,-0.059427,0,3.141593,0], a=0.523599, v=0.436332, r=0.005)  # [Transform: move to [692.957, -313.692, -59.427] mm and rotate to [[-1, 0, 0], [0, 1, 0], [0, 0, -1]]]
  movej(p[0.690599,-0.313884,-0.059423,0,3.141593,0], a=0.523599, v=0.436332, r=0.005)  # [Transform: move to [690.599, -313.884, -59.423] mm and rotate to [[-1, 0, 0], [0, 1, 0], [0, 0, -1]]]
  movej(p[0.688238,-0.314029,-0.05942,0,3.141593,0], a=0.523599, v=0.436332, r=0.005)  # [Transform: move to [688.238, -314.029, -59.42] mm and rotate to [[-1, 0, 0], [0, 1, 0], [0, 0, -1]]]
  movej(p[0.685874,-0.314126,-0.059417,0,3.141593,0], a=0.523599, v=0.436332, r=0.005)  # [Transform: move to [685.874, -314.126, -59.417] mm and rotate to [[-1, 0, 0], [0, 1, 0], [0, 0, -1]]]
  movej(p[0.683509,-0.314175,-0.059413,0,3.141593,0], a=0.523599, v=0.436332, r=0.005)  # [Transform: move to [683.509, -314.175, -59.413] mm and rotate to [[-1, 0, 0], [0, 1, 0], [0, 0, -1]]]
  movej(p[0.681143,-0.314175,-0.05941,0,3.141593,0], a=0.523599, v=0.436332, r=0.005)  # [Transform: move to [681.143, -314.175, -59.41] mm and rotate to [[-1, 0, 0], [0, 1, 0], [0, 0, -1]]]
  movej(p[0.678778,-0.314125,-0.059407,0,3.141593,0], a=0.523599, v=0.436332, r=0.005)  # [Transform: move to [678.778, -314.125, -59.407] mm and rotate to [[-1, 0, 0], [0, 1, 0], [0, 0, -1]]]
  movej(p[0.676414,-0.314025,-0.059403,0,3.141593,0], a=0.523599, v=0.436332, r=0.005)  # [Transform: move to [676.414, -314.025, -59.403] mm and rotate to [[-1, 0, 0], [0, 1, 0], [0, 0, -1]]]
  movej(p[0.674054,-0.313873,-0.0594,0,3.141593,0], a=0.523599, v=0.436332, r=0.005)  # [Transform: move to [674.054, -313.873, -59.4] mm and rotate to [[-1, 0, 0], [0, 1, 0], [0, 0, -1]]]
  movej(p[0.671697,-0.313668,-0.059397,0,3.141593,0], a=0.523599, v=0.436332, r=0.005)  # [Transform: move to [671.697, -313.668, -59.397] mm and rotate to [[-1, 0, 0], [0, 1, 0], [0, 0, -1]]]
  movej(p[0.669345,-0.313411,-0.059393,0,3.141593,0], a=0.523599, v=0.436332, r=0.005)  # [Transform: move to [669.345, -313.411, -59.393] mm and rotate to [[-1, 0, 0], [0, 1, 0], [0, 0, -1]]]
  movej(p[0.667,-0.313101,-0.05939,0,3.141593,0], a=0.523599, v=0.436332, r=0.005)  # [Transform: move to [667, -313.101, -59.39] mm and rotate to [[-1, 0, 0], [0, 1, 0], [0, 0, -1]]]
  movej(p[0.664662,-0.312737,-0.059387,0,3.141593,0], a=0.523599, v=0.436332, r=0.005)  # [Transform: move to [664.662, -312.737, -59.387] mm and rotate to [[-1, 0, 0], [0, 1, 0], [0, 0, -1]]]
  movej(p[0.662334,-0.312319,-0.059383,0,3.141593,0], a=0.523599, v=0.436332, r=0.005)  # [Transform: move to [662.334, -312.319, -59.383] mm and rotate to [[-1, 0, 0], [0, 1, 0], [0, 0, -1]]]
  movej(p[0.660016,-0.311847,-0.05938,0,3.141593,0], a=0.523599, v=0.436332, r=0.005)  # [Transform: move to [660.016, -311.847, -59.38] mm and rotate to [[-1, 0, 0], [0, 1, 0], [0, 0, -1]]]
  movej(p[0.65771,-0.311319,-0.059377,0,3.141593,0], a=0.523599, v=0.436332, r=0.005)  # [Transform: move to [657.71, -311.319, -59.377] mm and rotate to [[-1, 0, 0], [0, 1, 0], [0, 0, -1]]]
  movej(p[0.655417,-0.310736,-0.059373,0,3.141593,0], a=0.523599, v=0.436332, r=0.005)  # [Transform: move to [655.417, -310.736, -59.373] mm and rotate to [[-1, 0, 0], [0, 1, 0], [0, 0, -1]]]
  movej(p[0.653139,-0.310098,-0.05937,0,3.141593,0], a=0.523599, v=0.436332, r=0.005)  # [Transform: move to [653.139, -310.098, -59.37] mm and rotate to [[-1, 0, 0], [0, 1, 0], [0, 0, -1]]]
  movej(p[0.650877,-0.309405,-0.059367,0,3.141593,0], a=0.523599, v=0.436332, r=0.005)  # [Transform: move to [650.877, -309.405, -59.367] mm and rotate to [[-1, 0, 0], [0, 1, 0], [0, 0, -1]]]
  movej(p[0.648633,-0.308657,-0.059363,0,3.141593,0], a=0.523599, v=0.436332, r=0.005)  # [Transform: move to [648.633, -308.657, -59.363] mm and rotate to [[-1, 0, 0], [0, 1, 0], [0, 0, -1]]]
  movej(p[0.646408,-0.307853,-0.05936,0,3.141593,0], a=0.523599, v=0.436332, r=0.005)  # [Transform: move to [646.408, -307.853, -59.36] mm and rotate to [[-1, 0, 0], [0, 1, 0], [0, 0, -1]]]
  movej(p[0.644204,-0.306994,-0.059357,0,3.141593,0], a=0.523599, v=0.436332, r=0.005)  # [Transform: move to [644.204, -306.994, -59.357] mm and rotate to [[-1, 0, 0], [0, 1, 0], [0, 0, -1]]]
  movej(p[0.642021,-0.306081,-0.059353,0,3.141593,0], a=0.523599, v=0.436332, r=0.005)  # [Transform: move to [642.021, -306.081, -59.353] mm and rotate to [[-1, 0, 0], [0, 1, 0], [0, 0, -1]]]
  movej(p[0.639863,-0.305114,-0.05935,0,3.141593,0], a=0.523599, v=0.436332, r=0.005)  # [Transform: move to [639.863, -305.114, -59.35] mm and rotate to [[-1, 0, 0], [0, 1, 0], [0, 0, -1]]]
  movej(p[0.637729,-0.304093,-0.059347,0,3.141593,0], a=0.523599, v=0.436332, r=0.005)  # [Transform: move to [637.729, -304.093, -59.347] mm and rotate to [[-1, 0, 0], [0, 1, 0], [0, 0, -1]]]
  movej(p[0.635621,-0.303019,-0.059343,0,3.141593,0], a=0.523599, v=0.436332, r=0.005)  # [Transform: move to [635.621, -303.019, -59.343] mm and rotate to [[-1, 0, 0], [0, 1, 0], [0, 0, -1]]]
  movej(p[0.63354,-0.301893,-0.05934,0,3.141593,0], a=0.523599, v=0.436332, r=0.005)  # [Transform: move to [633.54, -301.893, -59.34] mm and rotate to [[-1, 0, 0], [0, 1, 0], [0, 0, -1]]]
  movej(p[0.631489,-0.300715,-0.059337,0,3.141593,0], a=0.523599, v=0.436332, r=0.005)  # [Transform: move to [631.489, -300.715, -59.337] mm and rotate to [[-1, 0, 0], [0, 1, 0], [0, 0, -1]]]
  movej(p[0.629467,-0.299487,-0.059333,0,3.141593,0], a=0.523599, v=0.436332, r=0.005)  # [Transform: move to [629.467, -299.487, -59.333] mm and rotate to [[-1, 0, 0], [0, 1, 0], [0, 0, -1]]]
  movej(p[0.627476,-0.298209,-0.05933,0,3.141593,0], a=0.523599, v=0.436332, r=0.005)  # [Transform: move to [627.476, -298.209, -59.33] mm and rotate to [[-1, 0, 0], [0, 1, 0], [0, 0, -1]]]
  movej(p[0.625517,-0.296882,-0.059327,0,3.141593,0], a=0.523599, v=0.436332, r=0.005)  # [Transform: move to [625.517, -296.882, -59.327] mm and rotate to [[-1, 0, 0], [0, 1, 0], [0, 0, -1]]]
  movej(p[0.623592,-0.295508,-0.059323,0,3.141593,0], a=0.523599, v=0.436332, r=0.005)  # [Transform: move to [623.592, -295.508, -59.323] mm and rotate to [[-1, 0, 0], [0, 1, 0], [0, 0, -1]]]
  movej(p[0.6217,-0.294087,-0.05932,0,3.141593,0], a=0.523599, v=0.436332, r=0.005)  # [Transform: move to [621.7, -294.087, -59.32] mm and rotate to [[-1, 0, 0], [0, 1, 0], [0, 0, -1]]]
  movej(p[0.619843,-0.292622,-0.059317,0,3.141593,0], a=0.523599, v=0.436332, r=0.005)  # [Transform: move to [619.843, -292.622, -59.317] mm and rotate to [[-1, 0, 0], [0, 1, 0], [0, 0, -1]]]
  movej(p[0.618021,-0.291112,-0.059313,0,3.141593,0], a=0.523599, v=0.436332, r=0.005)  # [Transform: move to [618.021, -291.112, -59.313] mm and rotate to [[-1, 0, 0], [0, 1, 0], [0, 0, -1]]]
  movej(p[0.616236,-0.28956,-0.05931,0,3.141593,0], a=0.523599, v=0.436332, r=0.005)  # [Transform: move to [616.236, -289.56, -59.31] mm and rotate to [[-1, 0, 0], [0, 1, 0], [0, 0, -1]]]
  movej(p[0.614487,-0.287967,-0.059307,0,3.141593,0], a=0.523599, v=0.436332, r=0.005)  # [Transform: move to [614.487, -287.967, -59.307] mm and rotate to [[-1, 0, 0], [0, 1, 0], [0, 0, -1]]]
  movej(p[0.612776,-0.286334,-0.059303,0,3.141593,0], a=0.523599, v=0.436332, r=0.005)  # [Transform: move to [612.776, -286.334, -59.303] mm and rotate to [[-1, 0, 0], [0, 1, 0], [0, 0, -1]]]
  movej(p[0.611101,-0.284663,-0.0593,0,3.141593,0], a=0.523599, v=0.436332, r=0.005)  # [Transform: move to [611.101, -284.663, -59.3] mm and rotate to [[-1, 0, 0], [0, 1, 0], [0, 0, -1]]]
  movej(p[0.609465,-0.282954,-0.059297,0,3.141593,0], a=0.523599, v=0.436332, r=0.005)  # [Transform: move to [609.465, -282.954, -59.297] mm and rotate to [[-1, 0, 0], [0, 1, 0], [0, 0, -1]]]
  movej(p[0.607867,-0.28121,-0.059293,0,3.141593,0], a=0.523599, v=0.436332, r=0.005)  # [Transform: move to [607.867, -281.21, -59.293] mm and rotate to [[-1, 0, 0], [0, 1, 0], [0, 0, -1]]]
  movej(p[0.606307,-0.279432,-0.05929,0,3.141593,0], a=0.523599, v=0.436332, r=0.005)  # [Transform: move to [606.307, -279.432, -59.29] mm and rotate to [[-1, 0, 0], [0, 1, 0], [0, 0, -1]]]
  movej(p[0.604785,-0.27762,-0.059287,0,3.141593,0], a=0.523599, v=0.436332, r=0.005)  # [Transform: move to [604.785, -277.62, -59.287] mm and rotate to [[-1, 0, 0], [0, 1, 0], [0, 0, -1]]]
  movej(p[0.603302,-0.275777,-0.059283,0,3.141593,0], a=0.523599, v=0.436332, r=0.005)  # [Transform: move to [603.302, -275.777, -59.283] mm and rotate to [[-1, 0, 0], [0, 1, 0], [0, 0, -1]]]
  movej(p[0.601857,-0.273904,-0.05928,0,3.141593,0], a=0.523599, v=0.436332, r=0.005)  # [Transform: move to [601.857, -273.904, -59.28] mm and rotate to [[-1, 0, 0], [0, 1, 0], [0, 0, -1]]]
  movej(p[0.60045,-0.272002,-0.059277,0,3.141593,0], a=0.523599, v=0.436332, r=0.005)  # [Transform: move to [600.45, -272.002, -59.277] mm and rotate to [[-1, 0, 0], [0, 1, 0], [0, 0, -1]]]
  movej(p[0.599081,-0.270073,-0.059273,0,3.141593,0], a=0.523599, v=0.436332, r=0.005)  # [Transform: move to [599.081, -270.073, -59.273] mm and rotate to [[-1, 0, 0], [0, 1, 0], [0, 0, -1]]]
  movej(p[0.59775,-0.268117,-0.05927,0,3.141593,0], a=0.523599, v=0.436332, r=0.005)  # [Transform: move to [597.75, -268.117, -59.27] mm and rotate to [[-1, 0, 0], [0, 1, 0], [0, 0, -1]]]
  movej(p[0.596457,-0.266136,-0.059267,0,3.141593,0], a=0.523599, v=0.436332, r=0.005)  # [Transform: move to [596.457, -266.136, -59.267] mm and rotate to [[-1, 0, 0], [0, 1, 0], [0, 0, -1]]]
  movej(p[0.595201,-0.264132,-0.059263,0,3.141593,0], a=0.523599, v=0.436332, r=0.005)  # [Transform: move to [595.201, -264.132, -59.263] mm and rotate to [[-1, 0, 0], [0, 1, 0], [0, 0, -1]]]
  movej(p[0.593982,-0.262104,-0.05926,0,3.141593,0], a=0.523599, v=0.436332, r=0.005)  # [Transform: move to [593.982, -262.104, -59.26] mm and rotate to [[-1, 0, 0], [0, 1, 0], [0, 0, -1]]]
  movej(p[0.592799,-0.260056,-0.059257,0,3.141593,0], a=0.523599, v=0.436332, r=0.005)  # [Transform: move to [592.799, -260.056, -59.257] mm and rotate to [[-1, 0, 0], [0, 1, 0], [0, 0, -1]]]
  movej(p[0.591652,-0.257986,-0.059253,0,3.141593,0], a=0.523599, v=0.436332, r=0.005)  # [Transform: move to [591.652, -257.986, -59.253] mm and rotate to [[-1, 0, 0], [0, 1, 0], [0, 0, -1]]]
  movej(p[0.590542,-0.255898,-0.05925,0,3.141593,0], a=0.523599, v=0.436332, r=0.005)  # [Transform: move to [590.542, -255.898, -59.25] mm and rotate to [[-1, 0, 0], [0, 1, 0], [0, 0, -1]]]
  movej(p[0.589466,-0.253791,-0.059247,0,3.141593,0], a=0.523599, v=0.436332, r=0.005)  # [Transform: move to [589.466, -253.791, -59.247] mm and rotate to [[-1, 0, 0], [0, 1, 0], [0, 0, -1]]]
  movej(p[0.588425,-0.251666,-0.059243,0,3.141593,0], a=0.523599, v=0.436332, r=0.005)  # [Transform: move to [588.425, -251.666, -59.243] mm and rotate to [[-1, 0, 0], [0, 1, 0], [0, 0, -1]]]
  movej(p[0.587418,-0.249525,-0.05924,0,3.141593,0], a=0.523599, v=0.436332, r=0.005)  # [Transform: move to [587.418, -249.525, -59.24] mm and rotate to [[-1, 0, 0], [0, 1, 0], [0, 0, -1]]]
  movej(p[0.586446,-0.247369,-0.059237,0,3.141593,0], a=0.523599, v=0.436332, r=0.005)  # [Transform: move to [586.446, -247.369, -59.237] mm and rotate to [[-1, 0, 0], [0, 1, 0], [0, 0, -1]]]
  movej(p[0.585506,-0.245198,-0.059233,0,3.141593,0], a=0.523599, v=0.436332, r=0.005)  # [Transform: move to [585.506, -245.198, -59.233] mm and rotate to [[-1, 0, 0], [0, 1, 0], [0, 0, -1]]]
  movej(p[0.584599,-0.243013,-0.05923,0,3.141593,0], a=0.523599, v=0.436332, r=0.005)  # [Transform: move to [584.599, -243.013, -59.23] mm and rotate to [[-1, 0, 0], [0, 1, 0], [0, 0, -1]]]
  movej(p[0.583724,-0.240815,-0.059227,0,3.141593,0], a=0.523599, v=0.436332, r=0.005)  # [Transform: move to [583.724, -240.815, -59.227] mm and rotate to [[-1, 0, 0], [0, 1, 0], [0, 0, -1]]]
  movej(p[0.582881,-0.238604,-0.059223,0,3.141593,0], a=0.523599, v=0.436332, r=0.005)  # [Transform: move to [582.881, -238.604, -59.223] mm and rotate to [[-1, 0, 0], [0, 1, 0], [0, 0, -1]]]
  movej(p[0.582069,-0.236382,-0.05922,0,3.141593,0], a=0.523599, v=0.436332, r=0.005)  # [Transform: move to [582.069, -236.382, -59.22] mm and rotate to [[-1, 0, 0], [0, 1, 0], [0, 0, -1]]]
  movej(p[0.581287,-0.23415,-0.059217,0,3.141593,0], a=0.523599, v=0.436332, r=0.005)  # [Transform: move to [581.287, -234.15, -59.217] mm and rotate to [[-1, 0, 0], [0, 1, 0], [0, 0, -1]]]
  movej(p[0.580536,-0.231907,-0.059213,0,3.141593,0], a=0.523599, v=0.436332, r=0.005)  # [Transform: move to [580.536, -231.907, -59.213] mm and rotate to [[-1, 0, 0], [0, 1, 0], [0, 0, -1]]]
  movej(p[0.579813,-0.229654,-0.05921,0,3.141593,0], a=0.523599, v=0.436332, r=0.005)  # [Transform: move to [579.813, -229.654, -59.21] mm and rotate to [[-1, 0, 0], [0, 1, 0], [0, 0, -1]]]
  movej(p[0.57912,-0.227392,-0.059207,0,3.141593,0], a=0.523599, v=0.436332, r=0.005)  # [Transform: move to [579.12, -227.392, -59.207] mm and rotate to [[-1, 0, 0], [0, 1, 0], [0, 0, -1]]]
  movej(p[0.578455,-0.225122,-0.059203,0,3.141593,0], a=0.523599, v=0.436332, r=0.005)  # [Transform: move to [578.455, -225.122, -59.203] mm and rotate to [[-1, 0, 0], [0, 1, 0], [0, 0, -1]]]
  movej(p[0.577817,-0.222843,-0.0592,0,3.141593,0], a=0.523599, v=0.436332, r=0.005)  # [Transform: move to [577.817, -222.843, -59.2] mm and rotate to [[-1, 0, 0], [0, 1, 0], [0, 0, -1]]]
  movej(p[0.577207,-0.220558,-0.059197,0,3.141593,0], a=0.523599, v=0.436332, r=0.005)  # [Transform: move to [577.207, -220.558, -59.197] mm and rotate to [[-1, 0, 0], [0, 1, 0], [0, 0, -1]]]
  movej(p[0.576624,-0.218265,-0.059193,0,3.141593,0], a=0.523599, v=0.436332, r=0.005)  # [Transform: move to [576.624, -218.265, -59.193] mm and rotate to [[-1, 0, 0], [0, 1, 0], [0, 0, -1]]]
  movej(p[0.576067,-0.215966,-0.05919,0,3.141593,0], a=0.523599, v=0.436332, r=0.005)  # [Transform: move to [576.067, -215.966, -59.19] mm and rotate to [[-1, 0, 0], [0, 1, 0], [0, 0, -1]]]
  movej(p[0.575535,-0.213661,-0.059187,0,3.141593,0], a=0.523599, v=0.436332, r=0.005)  # [Transform: move to [575.535, -213.661, -59.187] mm and rotate to [[-1, 0, 0], [0, 1, 0], [0, 0, -1]]]
  movej(p[0.575029,-0.21135,-0.059183,0,3.141593,0], a=0.523599, v=0.436332, r=0.005)  # [Transform: move to [575.029, -211.35, -59.183] mm and rotate to [[-1, 0, 0], [0, 1, 0], [0, 0, -1]]]
  movej(p[0.574547,-0.209034,-0.05918,0,3.141593,0], a=0.523599, v=0.436332, r=0.005)  # [Transform: move to [574.547, -209.034, -59.18] mm and rotate to [[-1, 0, 0], [0, 1, 0], [0, 0, -1]]]
  movej(p[0.574089,-0.206713,-0.059177,0,3.141593,0], a=0.523599, v=0.436332, r=0.005)  # [Transform: move to [574.089, -206.713, -59.177] mm and rotate to [[-1, 0, 0], [0, 1, 0], [0, 0, -1]]]
  movej(p[0.573655,-0.204387,-0.059173,0,3.141593,0], a=0.523599, v=0.436332, r=0.005)  # [Transform: move to [573.655, -204.387, -59.173] mm and rotate to [[-1, 0, 0], [0, 1, 0], [0, 0, -1]]]
  movej(p[0.573245,-0.202057,-0.05917,0,3.141593,0], a=0.523599, v=0.436332, r=0.005)  # [Transform: move to [573.245, -202.057, -59.17] mm and rotate to [[-1, 0, 0], [0, 1, 0], [0, 0, -1]]]
  movej(p[0.572857,-0.199724,-0.059167,0,3.141593,0], a=0.523599, v=0.436332, r=0.005)  # [Transform: move to [572.857, -199.724, -59.167] mm and rotate to [[-1, 0, 0], [0, 1, 0], [0, 0, -1]]]
  movej(p[0.572491,-0.197386,-0.059163,0,3.141593,0], a=0.523599, v=0.436332, r=0.005)  # [Transform: move to [572.491, -197.386, -59.163] mm and rotate to [[-1, 0, 0], [0, 1, 0], [0, 0, -1]]]
  movej(p[0.572147,-0.195046,-0.05916,0,3.141593,0], a=0.523599, v=0.436332, r=0.005)  # [Transform: move to [572.147, -195.046, -59.16] mm and rotate to [[-1, 0, 0], [0, 1, 0], [0, 0, -1]]]
  movej(p[0.571824,-0.192702,-0.059157,0,3.141593,0], a=0.523599, v=0.436332, r=0.005)  # [Transform: move to [571.824, -192.702, -59.157] mm and rotate to [[-1, 0, 0], [0, 1, 0], [0, 0, -1]]]
  movej(p[0.571523,-0.190356,-0.059153,0,3.141593,0], a=0.523599, v=0.436332, r=0.005)  # [Transform: move to [571.523, -190.356, -59.153] mm and rotate to [[-1, 0, 0], [0, 1, 0], [0, 0, -1]]]
  movej(p[0.571241,-0.188007,-0.05915,0,3.141593,0], a=0.523599, v=0.436332, r=0.005)  # [Transform: move to [571.241, -188.007, -59.15] mm and rotate to [[-1, 0, 0], [0, 1, 0], [0, 0, -1]]]
  movej(p[0.57098,-0.185655,-0.059147,0,3.141593,0], a=0.523599, v=0.436332, r=0.005)  # [Transform: move to [570.98, -185.655, -59.147] mm and rotate to [[-1, 0, 0], [0, 1, 0], [0, 0, -1]]]
  movej(p[0.570739,-0.183302,-0.059143,0,3.141593,0], a=0.523599, v=0.436332, r=0.005)  # [Transform: move to [570.739, -183.302, -59.143] mm and rotate to [[-1, 0, 0], [0, 1, 0], [0, 0, -1]]]
  movej(p[0.570517,-0.180947,-0.05914,0,3.141593,0], a=0.523599, v=0.436332, r=0.005)  # [Transform: move to [570.517, -180.947, -59.14] mm and rotate to [[-1, 0, 0], [0, 1, 0], [0, 0, -1]]]
  movej(p[0.570313,-0.17859,-0.059137,0,3.141593,0], a=0.523599, v=0.436332, r=0.005)  # [Transform: move to [570.313, -178.59, -59.137] mm and rotate to [[-1, 0, 0], [0, 1, 0], [0, 0, -1]]]
  movej(p[0.570129,-0.176231,-0.059133,0,3.141593,0], a=0.523599, v=0.436332, r=0.005)  # [Transform: move to [570.129, -176.231, -59.133] mm and rotate to [[-1, 0, 0], [0, 1, 0], [0, 0, -1]]]
  movej(p[0.569962,-0.173871,-0.05913,0,3.141593,0], a=0.523599, v=0.436332, r=0.005)  # [Transform: move to [569.962, -173.871, -59.13] mm and rotate to [[-1, 0, 0], [0, 1, 0], [0, 0, -1]]]
  movej(p[0.569813,-0.17151,-0.059127,0,3.141593,0], a=0.523599, v=0.436332, r=0.005)  # [Transform: move to [569.813, -171.51, -59.127] mm and rotate to [[-1, 0, 0], [0, 1, 0], [0, 0, -1]]]
  movej(p[0.569682,-0.169148,-0.059123,0,3.141593,0], a=0.523599, v=0.436332, r=0.005)  # [Transform: move to [569.682, -169.148, -59.123] mm and rotate to [[-1, 0, 0], [0, 1, 0], [0, 0, -1]]]
  movej(p[0.569567,-0.166785,-0.05912,0,3.141593,0], a=0.523599, v=0.436332, r=0.005)  # [Transform: move to [569.567, -166.785, -59.12] mm and rotate to [[-1, 0, 0], [0, 1, 0], [0, 0, -1]]]
  movej(p[0.569469,-0.164422,-0.059117,0,3.141593,0], a=0.523599, v=0.436332, r=0.005)  # [Transform: move to [569.469, -164.422, -59.117] mm and rotate to [[-1, 0, 0], [0, 1, 0], [0, 0, -1]]]
  movej(p[0.569388,-0.162057,-0.059113,0,3.141593,0], a=0.523599, v=0.436332, r=0.005)  # [Transform: move to [569.388, -162.057, -59.113] mm and rotate to [[-1, 0, 0], [0, 1, 0], [0, 0, -1]]]
  movej(p[0.569322,-0.159693,-0.05911,0,3.141593,0], a=0.523599, v=0.436332, r=0.005)  # [Transform: move to [569.322, -159.693, -59.11] mm and rotate to [[-1, 0, 0], [0, 1, 0], [0, 0, -1]]]
  movej(p[0.569272,-0.157327,-0.059107,0,3.141593,0], a=0.523599, v=0.436332, r=0.005)  # [Transform: move to [569.272, -157.327, -59.107] mm and rotate to [[-1, 0, 0], [0, 1, 0], [0, 0, -1]]]
  movej(p[0.569238,-0.154962,-0.059103,0,3.141593,0], a=0.523599, v=0.436332, r=0.005)  # [Transform: move to [569.238, -154.962, -59.103] mm and rotate to [[-1, 0, 0], [0, 1, 0], [0, 0, -1]]]
  movej(p[0.569219,-0.152596,-0.0591,0,3.141593,0], a=0.523599, v=0.436332, r=0.005)  # [Transform: move to [569.219, -152.596, -59.1] mm and rotate to [[-1, 0, 0], [0, 1, 0], [0, 0, -1]]]
  movej(p[0.569214,-0.150231,-0.059097,0,3.141593,0], a=0.523599, v=0.436332, r=0.005)  # [Transform: move to [569.214, -150.231, -59.097] mm and rotate to [[-1, 0, 0], [0, 1, 0], [0, 0, -1]]]
  movej(p[0.569224,-0.147865,-0.059093,0,3.141593,0], a=0.523599, v=0.436332, r=0.005)  # [Transform: move to [569.224, -147.865, -59.093] mm and rotate to [[-1, 0, 0], [0, 1, 0], [0, 0, -1]]]
  movej(p[0.569248,-0.145499,-0.05909,0,3.141593,0], a=0.523599, v=0.436332, r=0.005)  # [Transform: move to [569.248, -145.499, -59.09] mm and rotate to [[-1, 0, 0], [0, 1, 0], [0, 0, -1]]]
  movej(p[0.569286,-0.143134,-0.059087,0,3.141593,0], a=0.523599, v=0.436332, r=0.005)  # [Transform: move to [569.286, -143.134, -59.087] mm and rotate to [[-1, 0, 0], [0, 1, 0], [0, 0, -1]]]
  movej(p[0.569337,-0.140769,-0.059083,0,3.141593,0], a=0.523599, v=0.436332, r=0.005)  # [Transform: move to [569.337, -140.769, -59.083] mm and rotate to [[-1, 0, 0], [0, 1, 0], [0, 0, -1]]]
  movej(p[0.569402,-0.138404,-0.05908,0,3.141593,0], a=0.523599, v=0.436332, r=0.005)  # [Transform: move to [569.402, -138.404, -59.08] mm and rotate to [[-1, 0, 0], [0, 1, 0], [0, 0, -1]]]
  movej(p[0.56948,-0.136039,-0.059077,0,3.141593,0], a=0.523599, v=0.436332, r=0.005)  # [Transform: move to [569.48, -136.039, -59.077] mm and rotate to [[-1, 0, 0], [0, 1, 0], [0, 0, -1]]]
  movej(p[0.569571,-0.133675,-0.059073,0,3.141593,0], a=0.523599, v=0.436332, r=0.005)  # [Transform: move to [569.571, -133.675, -59.073] mm and rotate to [[-1, 0, 0], [0, 1, 0], [0, 0, -1]]]
  movej(p[0.569674,-0.131312,-0.05907,0,3.141593,0], a=0.523599, v=0.436332, r=0.005)  # [Transform: move to [569.674, -131.312, -59.07] mm and rotate to [[-1, 0, 0], [0, 1, 0], [0, 0, -1]]]
  movej(p[0.569789,-0.128949,-0.059067,0,3.141593,0], a=0.523599, v=0.436332, r=0.005)  # [Transform: move to [569.789, -128.949, -59.067] mm and rotate to [[-1, 0, 0], [0, 1, 0], [0, 0, -1]]]
  movej(p[0.569916,-0.126587,-0.059063,0,3.141593,0], a=0.523599, v=0.436332, r=0.005)  # [Transform: move to [569.916, -126.587, -59.063] mm and rotate to [[-1, 0, 0], [0, 1, 0], [0, 0, -1]]]
  movej(p[0.570056,-0.124225,-0.05906,0,3.141593,0], a=0.523599, v=0.436332, r=0.005)  # [Transform: move to [570.056, -124.225, -59.06] mm and rotate to [[-1, 0, 0], [0, 1, 0], [0, 0, -1]]]
  movej(p[0.570206,-0.121864,-0.059057,0,3.141593,0], a=0.523599, v=0.436332, r=0.005)  # [Transform: move to [570.206, -121.864, -59.057] mm and rotate to [[-1, 0, 0], [0, 1, 0], [0, 0, -1]]]
  movej(p[0.570368,-0.119504,-0.059053,0,3.141593,0], a=0.523599, v=0.436332, r=0.005)  # [Transform: move to [570.368, -119.504, -59.053] mm and rotate to [[-1, 0, 0], [0, 1, 0], [0, 0, -1]]]
  movej(p[0.570541,-0.117145,-0.05905,0,3.141593,0], a=0.523599, v=0.436332, r=0.005)  # [Transform: move to [570.541, -117.145, -59.05] mm and rotate to [[-1, 0, 0], [0, 1, 0], [0, 0, -1]]]
  movej(p[0.570725,-0.114786,-0.059047,0,3.141593,0], a=0.523599, v=0.436332, r=0.005)  # [Transform: move to [570.725, -114.786, -59.047] mm and rotate to [[-1, 0, 0], [0, 1, 0], [0, 0, -1]]]
  movej(p[0.57092,-0.112428,-0.059043,0,3.141593,0], a=0.523599, v=0.436332, r=0.005)  # [Transform: move to [570.92, -112.428, -59.043] mm and rotate to [[-1, 0, 0], [0, 1, 0], [0, 0, -1]]]
  movej(p[0.571124,-0.110071,-0.05904,0,3.141593,0], a=0.523599, v=0.436332, r=0.005)  # [Transform: move to [571.124, -110.071, -59.04] mm and rotate to [[-1, 0, 0], [0, 1, 0], [0, 0, -1]]]
  movej(p[0.571339,-0.107715,-0.059037,0,3.141593,0], a=0.523599, v=0.436332, r=0.005)  # [Transform: move to [571.339, -107.715, -59.037] mm and rotate to [[-1, 0, 0], [0, 1, 0], [0, 0, -1]]]
  movej(p[0.571564,-0.10536,-0.059033,0,3.141593,0], a=0.523599, v=0.436332, r=0.005)  # [Transform: move to [571.564, -105.36, -59.033] mm and rotate to [[-1, 0, 0], [0, 1, 0], [0, 0, -1]]]
  movej(p[0.571799,-0.103006,-0.05903,0,3.141593,0], a=0.523599, v=0.436332, r=0.005)  # [Transform: move to [571.799, -103.006, -59.03] mm and rotate to [[-1, 0, 0], [0, 1, 0], [0, 0, -1]]]
  movej(p[0.572043,-0.100653,-0.059027,0,3.141593,0], a=0.523599, v=0.436332, r=0.005)  # [Transform: move to [572.043, -100.653, -59.027] mm and rotate to [[-1, 0, 0], [0, 1, 0], [0, 0, -1]]]
  movej(p[0.572296,-0.098301,-0.059023,0,3.141593,0], a=0.523599, v=0.436332, r=0.005)  # [Transform: move to [572.296, -98.301, -59.023] mm and rotate to [[-1, 0, 0], [0, 1, 0], [0, 0, -1]]]
  movej(p[0.572559,-0.09595,-0.05902,0,3.141593,0], a=0.523599, v=0.436332, r=0.005)  # [Transform: move to [572.559, -95.95, -59.02] mm and rotate to [[-1, 0, 0], [0, 1, 0], [0, 0, -1]]]
  movej(p[0.57283,-0.0936,-0.059017,0,3.141593,0], a=0.523599, v=0.436332, r=0.005)  # [Transform: move to [572.83, -93.6, -59.017] mm and rotate to [[-1, 0, 0], [0, 1, 0], [0, 0, -1]]]
  movej(p[0.573111,-0.091251,-0.059013,0,3.141593,0], a=0.523599, v=0.436332, r=0.005)  # [Transform: move to [573.111, -91.251, -59.013] mm and rotate to [[-1, 0, 0], [0, 1, 0], [0, 0, -1]]]
  movej(p[0.573399,-0.088903,-0.05901,0,3.141593,0], a=0.523599, v=0.436332, r=0.005)  # [Transform: move to [573.399, -88.903, -59.01] mm and rotate to [[-1, 0, 0], [0, 1, 0], [0, 0, -1]]]
  movej(p[0.573696,-0.086556,-0.059007,0,3.141593,0], a=0.523599, v=0.436332, r=0.005)  # [Transform: move to [573.696, -86.556, -59.007] mm and rotate to [[-1, 0, 0], [0, 1, 0], [0, 0, -1]]]
  movej(p[0.574001,-0.08421,-0.059003,0,3.141593,0], a=0.523599, v=0.436332, r=0.005)  # [Transform: move to [574.001, -84.21, -59.003] mm and rotate to [[-1, 0, 0], [0, 1, 0], [0, 0, -1]]]
  movej(p[0.574315,-0.081865,-0.059,0,3.141593,0], a=0.523599, v=0.436332, r=0.005)  # [Transform: move to [574.315, -81.865, -59] mm and rotate to [[-1, 0, 0], [0, 1, 0], [0, 0, -1]]]
  movej(p[0.574636,-0.079521,-0.058997,0,3.141593,0], a=0.523599, v=0.436332, r=0.005)  # [Transform: move to [574.636, -79.521, -58.997] mm and rotate to [[-1, 0, 0], [0, 1, 0], [0, 0, -1]]]
  movej(p[0.574964,-0.077178,-0.058993,0,3.141593,0], a=0.523599, v=0.436332, r=0.005)  # [Transform: move to [574.964, -77.178, -58.993] mm and rotate to [[-1, 0, 0], [0, 1, 0], [0, 0, -1]]]
  movej(p[0.5753,-0.074837,-0.05899,0,3.141593,0], a=0.523599, v=0.436332, r=0.005)  # [Transform: move to [575.3, -74.837, -58.99] mm and rotate to [[-1, 0, 0], [0, 1, 0], [0, 0, -1]]]
  movej(p[0.575643,-0.072496,-0.058987,0,3.141593,0], a=0.523599, v=0.436332, r=0.005)  # [Transform: move to [575.643, -72.496, -58.987] mm and rotate to [[-1, 0, 0], [0, 1, 0], [0, 0, -1]]]
  movej(p[0.575993,-0.070156,-0.058983,0,3.141593,0], a=0.523599, v=0.436332, r=0.005)  # [Transform: move to [575.993, -70.156, -58.983] mm and rotate to [[-1, 0, 0], [0, 1, 0], [0, 0, -1]]]
  movej(p[0.576351,-0.067818,-0.05898,0,3.141593,0], a=0.523599, v=0.436332, r=0.005)  # [Transform: move to [576.351, -67.818, -58.98] mm and rotate to [[-1, 0, 0], [0, 1, 0], [0, 0, -1]]]
  movej(p[0.576714,-0.06548,-0.058977,0,3.141593,0], a=0.523599, v=0.436332, r=0.005)  # [Transform: move to [576.714, -65.48, -58.977] mm and rotate to [[-1, 0, 0], [0, 1, 0], [0, 0, -1]]]
  movej(p[0.577085,-0.063143,-0.058973,0,3.141593,0], a=0.523599, v=0.436332, r=0.005)  # [Transform: move to [577.085, -63.143, -58.973] mm and rotate to [[-1, 0, 0], [0, 1, 0], [0, 0, -1]]]
  movej(p[0.577462,-0.060808,-0.05897,0,3.141593,0], a=0.523599, v=0.436332, r=0.005)  # [Transform: move to [577.462, -60.808, -58.97] mm and rotate to [[-1, 0, 0], [0, 1, 0], [0, 0, -1]]]
  movej(p[0.577845,-0.058473,-0.058967,0,3.141593,0], a=0.523599, v=0.436332, r=0.005)  # [Transform: move to [577.845, -58.473, -58.967] mm and rotate to [[-1, 0, 0], [0, 1, 0], [0, 0, -1]]]
  movej(p[0.578234,-0.05614,-0.058963,0,3.141593,0], a=0.523599, v=0.436332, r=0.005)  # [Transform: move to [578.234, -56.14, -58.963] mm and rotate to [[-1, 0, 0], [0, 1, 0], [0, 0, -1]]]
  movej(p[0.578629,-0.053807,-0.05896,0,3.141593,0], a=0.523599, v=0.436332, r=0.005)  # [Transform: move to [578.629, -53.807, -58.96] mm and rotate to [[-1, 0, 0], [0, 1, 0], [0, 0, -1]]]
  movej(p[0.579029,-0.051476,-0.058957,0,3.141593,0], a=0.523599, v=0.436332, r=0.005)  # [Transform: move to [579.029, -51.476, -58.957] mm and rotate to [[-1, 0, 0], [0, 1, 0], [0, 0, -1]]]
  movej(p[0.579435,-0.049145,-0.058953,0,3.141593,0], a=0.523599, v=0.436332, r=0.005)  # [Transform: move to [579.435, -49.145, -58.953] mm and rotate to [[-1, 0, 0], [0, 1, 0], [0, 0, -1]]]
  movej(p[0.579847,-0.046816,-0.05895,0,3.141593,0], a=0.523599, v=0.436332, r=0.005)  # [Transform: move to [579.847, -46.816, -58.95] mm and rotate to [[-1, 0, 0], [0, 1, 0], [0, 0, -1]]]
  movej(p[0.580264,-0.044487,-0.058947,0,3.141593,0], a=0.523599, v=0.436332, r=0.005)  # [Transform: move to [580.264, -44.487, -58.947] mm and rotate to [[-1, 0, 0], [0, 1, 0], [0, 0, -1]]]
  movej(p[0.580685,-0.042159,-0.058943,0,3.141593,0], a=0.523599, v=0.436332, r=0.005)  # [Transform: move to [580.685, -42.159, -58.943] mm and rotate to [[-1, 0, 0], [0, 1, 0], [0, 0, -1]]]
  movej(p[0.581112,-0.039832,-0.05894,0,3.141593,0], a=0.523599, v=0.436332, r=0.005)  # [Transform: move to [581.112, -39.832, -58.94] mm and rotate to [[-1, 0, 0], [0, 1, 0], [0, 0, -1]]]
  movej(p[0.581544,-0.037506,-0.058937,0,3.141593,0], a=0.523599, v=0.436332, r=0.005)  # [Transform: move to [581.544, -37.506, -58.937] mm and rotate to [[-1, 0, 0], [0, 1, 0], [0, 0, -1]]]
  movej(p[0.58198,-0.035181,-0.058933,0,3.141593,0], a=0.523599, v=0.436332, r=0.005)  # [Transform: move to [581.98, -35.181, -58.933] mm and rotate to [[-1, 0, 0], [0, 1, 0], [0, 0, -1]]]
  movej(p[0.58242,-0.032856,-0.05893,0,3.141593,0], a=0.523599, v=0.436332, r=0.005)  # [Transform: move to [582.42, -32.856, -58.93] mm and rotate to [[-1, 0, 0], [0, 1, 0], [0, 0, -1]]]
  movej(p[0.582865,-0.030533,-0.058927,0,3.141593,0], a=0.523599, v=0.436332, r=0.005)  # [Transform: move to [582.865, -30.533, -58.927] mm and rotate to [[-1, 0, 0], [0, 1, 0], [0, 0, -1]]]
  movej(p[0.583314,-0.02821,-0.058923,0,3.141593,0], a=0.523599, v=0.436332, r=0.005)  # [Transform: move to [583.314, -28.21, -58.923] mm and rotate to [[-1, 0, 0], [0, 1, 0], [0, 0, -1]]]
  movej(p[0.583767,-0.025888,-0.05892,0,3.141593,0], a=0.523599, v=0.436332, r=0.005)  # [Transform: move to [583.767, -25.888, -58.92] mm and rotate to [[-1, 0, 0], [0, 1, 0], [0, 0, -1]]]
  movej(p[0.584223,-0.023567,-0.058917,0,3.141593,0], a=0.523599, v=0.436332, r=0.005)  # [Transform: move to [584.223, -23.567, -58.917] mm and rotate to [[-1, 0, 0], [0, 1, 0], [0, 0, -1]]]
  movej(p[0.584684,-0.021246,-0.058913,0,3.141593,0], a=0.523599, v=0.436332, r=0.005)  # [Transform: move to [584.684, -21.246, -58.913] mm and rotate to [[-1, 0, 0], [0, 1, 0], [0, 0, -1]]]
  movej(p[0.585147,-0.018927,-0.05891,0,3.141593,0], a=0.523599, v=0.436332, r=0.005)  # [Transform: move to [585.147, -18.927, -58.91] mm and rotate to [[-1, 0, 0], [0, 1, 0], [0, 0, -1]]]
  movej(p[0.585614,-0.016607,-0.058907,0,3.141593,0], a=0.523599, v=0.436332, r=0.005)  # [Transform: move to [585.614, -16.607, -58.907] mm and rotate to [[-1, 0, 0], [0, 1, 0], [0, 0, -1]]]
  movej(p[0.586085,-0.014289,-0.058903,0,3.141593,0], a=0.523599, v=0.436332, r=0.005)  # [Transform: move to [586.085, -14.289, -58.903] mm and rotate to [[-1, 0, 0], [0, 1, 0], [0, 0, -1]]]
  movej(p[0.586558,-0.011971,-0.0589,0,3.141593,0], a=0.523599, v=0.436332, r=0.005)  # [Transform: move to [586.558, -11.971, -58.9] mm and rotate to [[-1, 0, 0], [0, 1, 0], [0, 0, -1]]]
  movej(p[0.587034,-0.009654,-0.058897,0,3.141593,0], a=0.523599, v=0.436332, r=0.005)  # [Transform: move to [587.034, -9.654, -58.897] mm and rotate to [[-1, 0, 0], [0, 1, 0], [0, 0, -1]]]
  movej(p[0.587513,-0.007337,-0.058893,0,3.141593,0], a=0.523599, v=0.436332, r=0.005)  # [Transform: move to [587.513, -7.337, -58.893] mm and rotate to [[-1, 0, 0], [0, 1, 0], [0, 0, -1]]]
  movej(p[0.587994,-0.005021,-0.05889,0,3.141593,0], a=0.523599, v=0.436332, r=0.005)  # [Transform: move to [587.994, -5.021, -58.89] mm and rotate to [[-1, 0, 0], [0, 1, 0], [0, 0, -1]]]
  movej(p[0.588477,-0.002705,-0.058887,0,3.141593,0], a=0.523599, v=0.436332, r=0.005)  # [Transform: move to [588.477, -2.705, -58.887] mm and rotate to [[-1, 0, 0], [0, 1, 0], [0, 0, -1]]]
  movej(p[0.588963,-0.000389,-0.058883,0,3.141593,0], a=0.523599, v=0.436332, r=0.005)  # [Transform: move to [588.963, -0.389, -58.883] mm and rotate to [[-1, 0, 0], [0, 1, 0], [0, 0, -1]]]
  movej(p[0.589451,0.001925,-0.05888,0,3.141593,0], a=0.523599, v=0.436332, r=0.005)  # [Transform: move to [589.451, 1.925, -58.88] mm and rotate to [[-1, 0, 0], [0, 1, 0], [0, 0, -1]]]
  movej(p[0.589941,0.00424,-0.058877,0,3.141593,0], a=0.523599, v=0.436332, r=0.005)  # [Transform: move to [589.941, 4.24, -58.877] mm and rotate to [[-1, 0, 0], [0, 1, 0], [0, 0, -1]]]
  movej(p[0.590432,0.006554,-0.058873,0,3.141593,0], a=0.523599, v=0.436332, r=0.005)  # [Transform: move to [590.432, 6.554, -58.873] mm and rotate to [[-1, 0, 0], [0, 1, 0], [0, 0, -1]]]
  movej(p[0.590925,0.008868,-0.05887,0,3.141593,0], a=0.523599, v=0.436332, r=0.005)  # [Transform: move to [590.925, 8.868, -58.87] mm and rotate to [[-1, 0, 0], [0, 1, 0], [0, 0, -1]]]
  movej(p[0.591419,0.011181,-0.058867,0,3.141593,0], a=0.523599, v=0.436332, r=0.005)  # [Transform: move to [591.419, 11.181, -58.867] mm and rotate to [[-1, 0, 0], [0, 1, 0], [0, 0, -1]]]
  movej(p[0.591914,0.013495,-0.058863,0,3.141593,0], a=0.523599, v=0.436332, r=0.005)  # [Transform: move to [591.914, 13.495, -58.863] mm and rotate to [[-1, 0, 0], [0, 1, 0], [0, 0, -1]]]
  movej(p[0.592411,0.015808,-0.05886,0,3.141593,0], a=0.523599, v=0.436332, r=0.005)  # [Transform: move to [592.411, 15.808, -58.86] mm and rotate to [[-1, 0, 0], [0, 1, 0], [0, 0, -1]]]
  movej(p[0.592908,0.018121,-0.058857,0,3.141593,0], a=0.523599, v=0.436332, r=0.005)  # [Transform: move to [592.908, 18.121, -58.857] mm and rotate to [[-1, 0, 0], [0, 1, 0], [0, 0, -1]]]
  movej(p[0.593405,0.020434,-0.058853,0,3.141593,0], a=0.523599, v=0.436332, r=0.005)  # [Transform: move to [593.405, 20.434, -58.853] mm and rotate to [[-1, 0, 0], [0, 1, 0], [0, 0, -1]]]
  movej(p[0.593904,0.022746,-0.05885,0,3.141593,0], a=0.523599, v=0.436332, r=0.005)  # [Transform: move to [593.904, 22.746, -58.85] mm and rotate to [[-1, 0, 0], [0, 1, 0], [0, 0, -1]]]
  movej(p[0.594402,0.025059,-0.058847,0,3.141593,0], a=0.523599, v=0.436332, r=0.005)  # [Transform: move to [594.402, 25.059, -58.847] mm and rotate to [[-1, 0, 0], [0, 1, 0], [0, 0, -1]]]
  movej(p[0.5949,0.027371,-0.058843,0,3.141593,0], a=0.523599, v=0.436332, r=0.005)  # [Transform: move to [594.9, 27.371, -58.843] mm and rotate to [[-1, 0, 0], [0, 1, 0], [0, 0, -1]]]
  movej(p[0.595399,0.029684,-0.05884,0,3.141593,0], a=0.523599, v=0.436332, r=0.005)  # [Transform: move to [595.399, 29.684, -58.84] mm and rotate to [[-1, 0, 0], [0, 1, 0], [0, 0, -1]]]
  movej(p[0.595897,0.031997,-0.058837,0,3.141593,0], a=0.523599, v=0.436332, r=0.005)  # [Transform: move to [595.897, 31.997, -58.837] mm and rotate to [[-1, 0, 0], [0, 1, 0], [0, 0, -1]]]
  movej(p[0.596394,0.03431,-0.058833,0,3.141593,0], a=0.523599, v=0.436332, r=0.005)  # [Transform: move to [596.394, 34.31, -58.833] mm and rotate to [[-1, 0, 0], [0, 1, 0], [0, 0, -1]]]
  movej(p[0.596891,0.036623,-0.05883,0,3.141593,0], a=0.523599, v=0.436332, r=0.005)  # [Transform: move to [596.891, 36.623, -58.83] mm and rotate to [[-1, 0, 0], [0, 1, 0], [0, 0, -1]]]
  movej(p[0.597387,0.038936,-0.058827,0,3.141593,0], a=0.523599, v=0.436332, r=0.005)  # [Transform: move to [597.387, 38.936, -58.827] mm and rotate to [[-1, 0, 0], [0, 1, 0], [0, 0, -1]]]
  movej(p[0.597881,0.041249,-0.058823,0,3.141593,0], a=0.523599, v=0.436332, r=0.005)  # [Transform: move to [597.881, 41.249, -58.823] mm and rotate to [[-1, 0, 0], [0, 1, 0], [0, 0, -1]]]
  movej(p[0.598374,0.043563,-0.05882,0,3.141593,0], a=0.523599, v=0.436332, r=0.005)  # [Transform: move to [598.374, 43.563, -58.82] mm and rotate to [[-1, 0, 0], [0, 1, 0], [0, 0, -1]]]
  movej(p[0.598866,0.045877,-0.058817,0,3.141593,0], a=0.523599, v=0.436332, r=0.005)  # [Transform: move to [598.866, 45.877, -58.817] mm and rotate to [[-1, 0, 0], [0, 1, 0], [0, 0, -1]]]
  movej(p[0.599355,0.048192,-0.058813,0,3.141593,0], a=0.523599, v=0.436332, r=0.005)  # [Transform: move to [599.355, 48.192, -58.813] mm and rotate to [[-1, 0, 0], [0, 1, 0], [0, 0, -1]]]
  movej(p[0.599843,0.050507,-0.05881,0,3.141593,0], a=0.523599, v=0.436332, r=0.005)  # [Transform: move to [599.843, 50.507, -58.81] mm and rotate to [[-1, 0, 0], [0, 1, 0], [0, 0, -1]]]
  movej(p[0.600328,0.052822,-0.058807,0,3.141593,0], a=0.523599, v=0.436332, r=0.005)  # [Transform: move to [600.328, 52.822, -58.807] mm and rotate to [[-1, 0, 0], [0, 1, 0], [0, 0, -1]]]
  movej(p[0.600811,0.055138,-0.058803,0,3.141593,0], a=0.523599, v=0.436332, r=0.005)  # [Transform: move to [600.811, 55.138, -58.803] mm and rotate to [[-1, 0, 0], [0, 1, 0], [0, 0, -1]]]
  movej(p[0.601291,0.057455,-0.0588,0,3.141593,0], a=0.523599, v=0.436332, r=0.005)  # [Transform: move to [601.291, 57.455, -58.8] mm and rotate to [[-1, 0, 0], [0, 1, 0], [0, 0, -1]]]
  movej(p[0.601767,0.059772,-0.058797,0,3.141593,0], a=0.523599, v=0.436332, r=0.005)  # [Transform: move to [601.767, 59.772, -58.797] mm and rotate to [[-1, 0, 0], [0, 1, 0], [0, 0, -1]]]
  movej(p[0.60224,0.06209,-0.058793,0,3.141593,0], a=0.523599, v=0.436332, r=0.005)  # [Transform: move to [602.24, 62.09, -58.793] mm and rotate to [[-1, 0, 0], [0, 1, 0], [0, 0, -1]]]
  movej(p[0.60271,0.064409,-0.05879,0,3.141593,0], a=0.523599, v=0.436332, r=0.005)  # [Transform: move to [602.71, 64.409, -58.79] mm and rotate to [[-1, 0, 0], [0, 1, 0], [0, 0, -1]]]
  movej(p[0.603175,0.066728,-0.058787,0,3.141593,0], a=0.523599, v=0.436332, r=0.005)  # [Transform: move to [603.175, 66.728, -58.787] mm and rotate to [[-1, 0, 0], [0, 1, 0], [0, 0, -1]]]
  movej(p[0.603636,0.069048,-0.058783,0,3.141593,0], a=0.523599, v=0.436332, r=0.005)  # [Transform: move to [603.636, 69.048, -58.783] mm and rotate to [[-1, 0, 0], [0, 1, 0], [0, 0, -1]]]
  movej(p[0.604092,0.07137,-0.05878,0,3.141593,0], a=0.523599, v=0.436332, r=0.005)  # [Transform: move to [604.092, 71.37, -58.78] mm and rotate to [[-1, 0, 0], [0, 1, 0], [0, 0, -1]]]
  movej(p[0.604544,0.073692,-0.058777,0,3.141593,0], a=0.523599, v=0.436332, r=0.005)  # [Transform: move to [604.544, 73.692, -58.777] mm and rotate to [[-1, 0, 0], [0, 1, 0], [0, 0, -1]]]
  movej(p[0.60499,0.076015,-0.058773,0,3.141593,0], a=0.523599, v=0.436332, r=0.005)  # [Transform: move to [604.99, 76.015, -58.773] mm and rotate to [[-1, 0, 0], [0, 1, 0], [0, 0, -1]]]
  movej(p[0.60543,0.07834,-0.05877,0,3.141593,0], a=0.523599, v=0.436332, r=0.005)  # [Transform: move to [605.43, 78.34, -58.77] mm and rotate to [[-1, 0, 0], [0, 1, 0], [0, 0, -1]]]
  movej(p[0.605864,0.080665,-0.058767,0,3.141593,0], a=0.523599, v=0.436332, r=0.005)  # [Transform: move to [605.864, 80.665, -58.767] mm and rotate to [[-1, 0, 0], [0, 1, 0], [0, 0, -1]]]
  movej(p[0.606291,0.082992,-0.058763,0,3.141593,0], a=0.523599, v=0.436332, r=0.005)  # [Transform: move to [606.291, 82.992, -58.763] mm and rotate to [[-1, 0, 0], [0, 1, 0], [0, 0, -1]]]
  movej(p[0.606712,0.08532,-0.05876,0,3.141593,0], a=0.523599, v=0.436332, r=0.005)  # [Transform: move to [606.712, 85.32, -58.76] mm and rotate to [[-1, 0, 0], [0, 1, 0], [0, 0, -1]]]
  movej(p[0.607125,0.08765,-0.058757,0,3.141593,0], a=0.523599, v=0.436332, r=0.005)  # [Transform: move to [607.125, 87.65, -58.757] mm and rotate to [[-1, 0, 0], [0, 1, 0], [0, 0, -1]]]
  movej(p[0.60753,0.08998,-0.058753,0,3.141593,0], a=0.523599, v=0.436332, r=0.005)  # [Transform: move to [607.53, 89.98, -58.753] mm and rotate to [[-1, 0, 0], [0, 1, 0], [0, 0, -1]]]
  movej(p[0.607926,0.092313,-0.05875,0,3.141593,0], a=0.523599, v=0.436332, r=0.005)  # [Transform: move to [607.926, 92.313, -58.75] mm and rotate to [[-1, 0, 0], [0, 1, 0], [0, 0, -1]]]
  movej(p[0.608314,0.094646,-0.058747,0,3.141593,0], a=0.523599, v=0.436332, r=0.005)  # [Transform: move to [608.314, 94.646, -58.747] mm and rotate to [[-1, 0, 0], [0, 1, 0], [0, 0, -1]]]
  movej(p[0.608692,0.096982,-0.058743,0,3.141593,0], a=0.523599, v=0.436332, r=0.005)  # [Transform: move to [608.692, 96.982, -58.743] mm and rotate to [[-1, 0, 0], [0, 1, 0], [0, 0, -1]]]
  movej(p[0.60906,0.099319,-0.05874,0,3.141593,0], a=0.523599, v=0.436332, r=0.005)  # [Transform: move to [609.06, 99.319, -58.74] mm and rotate to [[-1, 0, 0], [0, 1, 0], [0, 0, -1]]]
  movej(p[0.609417,0.101657,-0.058737,0,3.141593,0], a=0.523599, v=0.436332, r=0.005)  # [Transform: move to [609.417, 101.657, -58.737] mm and rotate to [[-1, 0, 0], [0, 1, 0], [0, 0, -1]]]
  movej(p[0.609762,0.103998,-0.058733,0,3.141593,0], a=0.523599, v=0.436332, r=0.005)  # [Transform: move to [609.762, 103.998, -58.733] mm and rotate to [[-1, 0, 0], [0, 1, 0], [0, 0, -1]]]
  movej(p[0.610094,0.10634,-0.05873,0,3.141593,0], a=0.523599, v=0.436332, r=0.005)  # [Transform: move to [610.094, 106.34, -58.73] mm and rotate to [[-1, 0, 0], [0, 1, 0], [0, 0, -1]]]
  movej(p[0.610414,0.108684,-0.058727,0,3.141593,0], a=0.523599, v=0.436332, r=0.005)  # [Transform: move to [610.414, 108.684, -58.727] mm and rotate to [[-1, 0, 0], [0, 1, 0], [0, 0, -1]]]
  movej(p[0.610719,0.11103,-0.058723,0,3.141593,0], a=0.523599, v=0.436332, r=0.005)  # [Transform: move to [610.719, 111.03, -58.723] mm and rotate to [[-1, 0, 0], [0, 1, 0], [0, 0, -1]]]
  movej(p[0.611009,0.113378,-0.05872,0,3.141593,0], a=0.523599, v=0.436332, r=0.005)  # [Transform: move to [611.009, 113.378, -58.72] mm and rotate to [[-1, 0, 0], [0, 1, 0], [0, 0, -1]]]
  movej(p[0.611282,0.115728,-0.058717,0,3.141593,0], a=0.523599, v=0.436332, r=0.005)  # [Transform: move to [611.282, 115.728, -58.717] mm and rotate to [[-1, 0, 0], [0, 1, 0], [0, 0, -1]]]
  movej(p[0.611538,0.11808,-0.058713,0,3.141593,0], a=0.523599, v=0.436332, r=0.005)  # [Transform: move to [611.538, 118.08, -58.713] mm and rotate to [[-1, 0, 0], [0, 1, 0], [0, 0, -1]]]
  movej(p[0.611775,0.120433,-0.05871,0,3.141593,0], a=0.523599, v=0.436332, r=0.005)  # [Transform: move to [611.775, 120.433, -58.71] mm and rotate to [[-1, 0, 0], [0, 1, 0], [0, 0, -1]]]
  movej(p[0.611991,0.122789,-0.058707,0,3.141593,0], a=0.523599, v=0.436332, r=0.005)  # [Transform: move to [611.991, 122.789, -58.707] mm and rotate to [[-1, 0, 0], [0, 1, 0], [0, 0, -1]]]
  movej(p[0.612184,0.125147,-0.058703,0,3.141593,0], a=0.523599, v=0.436332, r=0.005)  # [Transform: move to [612.184, 125.147, -58.703] mm and rotate to [[-1, 0, 0], [0, 1, 0], [0, 0, -1]]]
  movej(p[0.612353,0.127507,-0.0587,0,3.141593,0], a=0.523599, v=0.436332, r=0.005)  # [Transform: move to [612.353, 127.507, -58.7] mm and rotate to [[-1, 0, 0], [0, 1, 0], [0, 0, -1]]]
  movej(p[0.612494,0.129868,-0.058697,0,3.141593,0], a=0.523599, v=0.436332, r=0.005)  # [Transform: move to [612.494, 129.868, -58.697] mm and rotate to [[-1, 0, 0], [0, 1, 0], [0, 0, -1]]]
  movej(p[0.612605,0.132231,-0.058693,0,3.141593,0], a=0.523599, v=0.436332, r=0.005)  # [Transform: move to [612.605, 132.231, -58.693] mm and rotate to [[-1, 0, 0], [0, 1, 0], [0, 0, -1]]]
  movej(p[0.612683,0.134596,-0.05869,0,3.141593,0], a=0.523599, v=0.436332, r=0.005)  # [Transform: move to [612.683, 134.596, -58.69] mm and rotate to [[-1, 0, 0], [0, 1, 0], [0, 0, -1]]]
  movej(p[0.612722,0.136961,-0.058687,0,3.141593,0], a=0.523599, v=0.436332, r=0.005)  # [Transform: move to [612.722, 136.961, -58.687] mm and rotate to [[-1, 0, 0], [0, 1, 0], [0, 0, -1]]]
  movej(p[0.612718,0.139327,-0.058683,0,3.141593,0], a=0.523599, v=0.436332, r=0.005)  # [Transform: move to [612.718, 139.327, -58.683] mm and rotate to [[-1, 0, 0], [0, 1, 0], [0, 0, -1]]]
  movej(p[0.612662,0.141692,-0.05868,0,3.141593,0], a=0.523599, v=0.436332, r=0.005)  # [Transform: move to [612.662, 141.692, -58.68] mm and rotate to [[-1, 0, 0], [0, 1, 0], [0, 0, -1]]]
  movej(p[0.612545,0.144055,-0.058677,0,3.141593,0], a=0.523599, v=0.436332, r=0.005)  # [Transform: move to [612.545, 144.055, -58.677] mm and rotate to [[-1, 0, 0], [0, 1, 0], [0, 0, -1]]]
  movej(p[0.612353,0.146412,-0.058673,0,3.141593,0], a=0.523599, v=0.436332, r=0.005)  # [Transform: move to [612.353, 146.412, -58.673] mm and rotate to [[-1, 0, 0], [0, 1, 0], [0, 0, -1]]]
  movej(p[0.612063,0.14876,-0.05867,0,3.141593,0], a=0.523599, v=0.436332, r=0.005)  # [Transform: move to [612.063, 148.76, -58.67] mm and rotate to [[-1, 0, 0], [0, 1, 0], [0, 0, -1]]]
  movej(p[0.611635,0.151086,-0.058667,0,3.141593,0], a=0.523599, v=0.436332, r=0.005)  # [Transform: move to [611.635, 151.086, -58.667] mm and rotate to [[-1, 0, 0], [0, 1, 0], [0, 0, -1]]]
  movej(p[0.610987,0.15336,-0.058663,0,3.141593,0], a=0.523599, v=0.436332, r=0.005)  # [Transform: move to [610.987, 153.36, -58.663] mm and rotate to [[-1, 0, 0], [0, 1, 0], [0, 0, -1]]]
  movej(p[0.609862,0.155425,-0.05866,0,3.141593,0], a=0.523599, v=0.436332, r=0.005)  # [Transform: move to [609.862, 155.425, -58.66] mm and rotate to [[-1, 0, 0], [0, 1, 0], [0, 0, -1]]]
  movej(p[0.607793,0.155545,-0.058657,0,3.141593,0], a=0.523599, v=0.436332, r=0.005)  # [Transform: move to [607.793, 155.545, -58.657] mm and rotate to [[-1, 0, 0], [0, 1, 0], [0, 0, -1]]]
  movej(p[0.606517,0.153571,-0.058653,0,3.141593,0], a=0.523599, v=0.436332, r=0.005)  # [Transform: move to [606.517, 153.571, -58.653] mm and rotate to [[-1, 0, 0], [0, 1, 0], [0, 0, -1]]]
  movej(p[0.605726,0.151343,-0.05865,0,3.141593,0], a=0.523599, v=0.436332, r=0.005)  # [Transform: move to [605.726, 151.343, -58.65] mm and rotate to [[-1, 0, 0], [0, 1, 0], [0, 0, -1]]]
  movej(p[0.605162,0.149047,-0.058647,0,3.141593,0], a=0.523599, v=0.436332, r=0.005)  # [Transform: move to [605.162, 149.047, -58.647] mm and rotate to [[-1, 0, 0], [0, 1, 0], [0, 0, -1]]]
  movej(p[0.604741,0.146719,-0.058643,0,3.141593,0], a=0.523599, v=0.436332, r=0.005)  # [Transform: move to [604.741, 146.719, -58.643] mm and rotate to [[-1, 0, 0], [0, 1, 0], [0, 0, -1]]]
  movej(p[0.604423,0.144375,-0.05864,0,3.141593,0], a=0.523599, v=0.436332, r=0.005)  # [Transform: move to [604.423, 144.375, -58.64] mm and rotate to [[-1, 0, 0], [0, 1, 0], [0, 0, -1]]]
  movej(p[0.604188,0.142021,-0.058637,0,3.141593,0], a=0.523599, v=0.436332, r=0.005)  # [Transform: move to [604.188, 142.021, -58.637] mm and rotate to [[-1, 0, 0], [0, 1, 0], [0, 0, -1]]]
  movej(p[0.60402,0.139661,-0.058633,0,3.141593,0], a=0.523599, v=0.436332, r=0.005)  # [Transform: move to [604.02, 139.661, -58.633] mm and rotate to [[-1, 0, 0], [0, 1, 0], [0, 0, -1]]]
  movej(p[0.603909,0.137298,-0.05863,0,3.141593,0], a=0.523599, v=0.436332, r=0.005)  # [Transform: move to [603.909, 137.298, -58.63] mm and rotate to [[-1, 0, 0], [0, 1, 0], [0, 0, -1]]]
  movej(p[0.603848,0.134933,-0.058627,0,3.141593,0], a=0.523599, v=0.436332, r=0.005)  # [Transform: move to [603.848, 134.933, -58.627] mm and rotate to [[-1, 0, 0], [0, 1, 0], [0, 0, -1]]]
  movej(p[0.603831,0.132568,-0.058623,0,3.141593,0], a=0.523599, v=0.436332, r=0.005)  # [Transform: move to [603.831, 132.568, -58.623] mm and rotate to [[-1, 0, 0], [0, 1, 0], [0, 0, -1]]]
  movej(p[0.603855,0.130202,-0.05862,0,3.141593,0], a=0.523599, v=0.436332, r=0.005)  # [Transform: move to [603.855, 130.202, -58.62] mm and rotate to [[-1, 0, 0], [0, 1, 0], [0, 0, -1]]]
  movej(p[0.603915,0.127837,-0.058617,0,3.141593,0], a=0.523599, v=0.436332, r=0.005)  # [Transform: move to [603.915, 127.837, -58.617] mm and rotate to [[-1, 0, 0], [0, 1, 0], [0, 0, -1]]]
  movej(p[0.604009,0.125473,-0.058613,0,3.141593,0], a=0.523599, v=0.436332, r=0.005)  # [Transform: move to [604.009, 125.473, -58.613] mm and rotate to [[-1, 0, 0], [0, 1, 0], [0, 0, -1]]]
  movej(p[0.604133,0.123111,-0.05861,0,3.141593,0], a=0.523599, v=0.436332, r=0.005)  # [Transform: move to [604.133, 123.111, -58.61] mm and rotate to [[-1, 0, 0], [0, 1, 0], [0, 0, -1]]]
  movej(p[0.604287,0.12075,-0.058607,0,3.141593,0], a=0.523599, v=0.436332, r=0.005)  # [Transform: move to [604.287, 120.75, -58.607] mm and rotate to [[-1, 0, 0], [0, 1, 0], [0, 0, -1]]]
  movej(p[0.604469,0.118391,-0.058603,0,3.141593,0], a=0.523599, v=0.436332, r=0.005)  # [Transform: move to [604.469, 118.391, -58.603] mm and rotate to [[-1, 0, 0], [0, 1, 0], [0, 0, -1]]]
  movej(p[0.604676,0.116035,-0.0586,0,3.141593,0], a=0.523599, v=0.436332, r=0.005)  # [Transform: move to [604.676, 116.035, -58.6] mm and rotate to [[-1, 0, 0], [0, 1, 0], [0, 0, -1]]]
  movej(p[0.604907,0.11368,-0.058597,0,3.141593,0], a=0.523599, v=0.436332, r=0.005)  # [Transform: move to [604.907, 113.68, -58.597] mm and rotate to [[-1, 0, 0], [0, 1, 0], [0, 0, -1]]]
  movej(p[0.605161,0.111328,-0.058593,0,3.141593,0], a=0.523599, v=0.436332, r=0.005)  # [Transform: move to [605.161, 111.328, -58.593] mm and rotate to [[-1, 0, 0], [0, 1, 0], [0, 0, -1]]]
  movej(p[0.605437,0.108979,-0.05859,0,3.141593,0], a=0.523599, v=0.436332, r=0.005)  # [Transform: move to [605.437, 108.979, -58.59] mm and rotate to [[-1, 0, 0], [0, 1, 0], [0, 0, -1]]]
  movej(p[0.605734,0.106632,-0.058587,0,3.141593,0], a=0.523599, v=0.436332, r=0.005)  # [Transform: move to [605.734, 106.632, -58.587] mm and rotate to [[-1, 0, 0], [0, 1, 0], [0, 0, -1]]]
  movej(p[0.60605,0.104287,-0.058583,0,3.141593,0], a=0.523599, v=0.436332, r=0.005)  # [Transform: move to [606.05, 104.287, -58.583] mm and rotate to [[-1, 0, 0], [0, 1, 0], [0, 0, -1]]]
  movej(p[0.606386,0.101945,-0.05858,0,3.141593,0], a=0.523599, v=0.436332, r=0.005)  # [Transform: move to [606.386, 101.945, -58.58] mm and rotate to [[-1, 0, 0], [0, 1, 0], [0, 0, -1]]]
  movej(p[0.60674,0.099606,-0.058577,0,3.141593,0], a=0.523599, v=0.436332, r=0.005)  # [Transform: move to [606.74, 99.606, -58.577] mm and rotate to [[-1, 0, 0], [0, 1, 0], [0, 0, -1]]]
  movej(p[0.607112,0.09727,-0.058573,0,3.141593,0], a=0.523599, v=0.436332, r=0.005)  # [Transform: move to [607.112, 97.27, -58.573] mm and rotate to [[-1, 0, 0], [0, 1, 0], [0, 0, -1]]]
  movej(p[0.607501,0.094937,-0.05857,0,3.141593,0], a=0.523599, v=0.436332, r=0.005)  # [Transform: move to [607.501, 94.937, -58.57] mm and rotate to [[-1, 0, 0], [0, 1, 0], [0, 0, -1]]]
  movej(p[0.607906,0.092606,-0.058567,0,3.141593,0], a=0.523599, v=0.436332, r=0.005)  # [Transform: move to [607.906, 92.606, -58.567] mm and rotate to [[-1, 0, 0], [0, 1, 0], [0, 0, -1]]]
  movej(p[0.608328,0.090278,-0.058563,0,3.141593,0], a=0.523599, v=0.436332, r=0.005)  # [Transform: move to [608.328, 90.278, -58.563] mm and rotate to [[-1, 0, 0], [0, 1, 0], [0, 0, -1]]]
  movej(p[0.608764,0.087953,-0.05856,0,3.141593,0], a=0.523599, v=0.436332, r=0.005)  # [Transform: move to [608.764, 87.953, -58.56] mm and rotate to [[-1, 0, 0], [0, 1, 0], [0, 0, -1]]]
  movej(p[0.609215,0.08563,-0.058557,0,3.141593,0], a=0.523599, v=0.436332, r=0.005)  # [Transform: move to [609.215, 85.63, -58.557] mm and rotate to [[-1, 0, 0], [0, 1, 0], [0, 0, -1]]]
  movej(p[0.609681,0.083311,-0.058553,0,3.141593,0], a=0.523599, v=0.436332, r=0.005)  # [Transform: move to [609.681, 83.311, -58.553] mm and rotate to [[-1, 0, 0], [0, 1, 0], [0, 0, -1]]]
  movej(p[0.61016,0.080994,-0.05855,0,3.141593,0], a=0.523599, v=0.436332, r=0.005)  # [Transform: move to [610.16, 80.994, -58.55] mm and rotate to [[-1, 0, 0], [0, 1, 0], [0, 0, -1]]]
  movej(p[0.610653,0.07868,-0.058547,0,3.141593,0], a=0.523599, v=0.436332, r=0.005)  # [Transform: move to [610.653, 78.68, -58.547] mm and rotate to [[-1, 0, 0], [0, 1, 0], [0, 0, -1]]]
  movej(p[0.611159,0.07637,-0.058543,0,3.141593,0], a=0.523599, v=0.436332, r=0.005)  # [Transform: move to [611.159, 76.37, -58.543] mm and rotate to [[-1, 0, 0], [0, 1, 0], [0, 0, -1]]]
  movej(p[0.611678,0.074061,-0.05854,0,3.141593,0], a=0.523599, v=0.436332, r=0.005)  # [Transform: move to [611.678, 74.061, -58.54] mm and rotate to [[-1, 0, 0], [0, 1, 0], [0, 0, -1]]]
  movej(p[0.612209,0.071756,-0.058537,0,3.141593,0], a=0.523599, v=0.436332, r=0.005)  # [Transform: move to [612.209, 71.756, -58.537] mm and rotate to [[-1, 0, 0], [0, 1, 0], [0, 0, -1]]]
  movej(p[0.612753,0.069454,-0.058533,0,3.141593,0], a=0.523599, v=0.436332, r=0.005)  # [Transform: move to [612.753, 69.454, -58.533] mm and rotate to [[-1, 0, 0], [0, 1, 0], [0, 0, -1]]]
  movej(p[0.613308,0.067154,-0.05853,0,3.141593,0], a=0.523599, v=0.436332, r=0.005)  # [Transform: move to [613.308, 67.154, -58.53] mm and rotate to [[-1, 0, 0], [0, 1, 0], [0, 0, -1]]]
  movej(p[0.613875,0.064857,-0.058527,0,3.141593,0], a=0.523599, v=0.436332, r=0.005)  # [Transform: move to [613.875, 64.857, -58.527] mm and rotate to [[-1, 0, 0], [0, 1, 0], [0, 0, -1]]]
  movej(p[0.614452,0.062563,-0.058523,0,3.141593,0], a=0.523599, v=0.436332, r=0.005)  # [Transform: move to [614.452, 62.563, -58.523] mm and rotate to [[-1, 0, 0], [0, 1, 0], [0, 0, -1]]]
  movej(p[0.615041,0.060272,-0.05852,0,3.141593,0], a=0.523599, v=0.436332, r=0.005)  # [Transform: move to [615.041, 60.272, -58.52] mm and rotate to [[-1, 0, 0], [0, 1, 0], [0, 0, -1]]]
  movej(p[0.615641,0.057983,-0.058517,0,3.141593,0], a=0.523599, v=0.436332, r=0.005)  # [Transform: move to [615.641, 57.983, -58.517] mm and rotate to [[-1, 0, 0], [0, 1, 0], [0, 0, -1]]]
  movej(p[0.616251,0.055698,-0.058513,0,3.141593,0], a=0.523599, v=0.436332, r=0.005)  # [Transform: move to [616.251, 55.698, -58.513] mm and rotate to [[-1, 0, 0], [0, 1, 0], [0, 0, -1]]]
  movej(p[0.616871,0.053415,-0.05851,0,3.141593,0], a=0.523599, v=0.436332, r=0.005)  # [Transform: move to [616.871, 53.415, -58.51] mm and rotate to [[-1, 0, 0], [0, 1, 0], [0, 0, -1]]]
  movej(p[0.617501,0.051134,-0.058507,0,3.141593,0], a=0.523599, v=0.436332, r=0.005)  # [Transform: move to [617.501, 51.134, -58.507] mm and rotate to [[-1, 0, 0], [0, 1, 0], [0, 0, -1]]]
  movej(p[0.618141,0.048857,-0.058503,0,3.141593,0], a=0.523599, v=0.436332, r=0.005)  # [Transform: move to [618.141, 48.857, -58.503] mm and rotate to [[-1, 0, 0], [0, 1, 0], [0, 0, -1]]]
  movej(p[0.618791,0.046582,-0.0585,0,3.141593,0], a=0.523599, v=0.436332, r=0.005)  # [Transform: move to [618.791, 46.582, -58.5] mm and rotate to [[-1, 0, 0], [0, 1, 0], [0, 0, -1]]]
  movej(p[0.61945,0.04431,-0.058497,0,3.141593,0], a=0.523599, v=0.436332, r=0.005)  # [Transform: move to [619.45, 44.31, -58.497] mm and rotate to [[-1, 0, 0], [0, 1, 0], [0, 0, -1]]]
  movej(p[0.620118,0.042041,-0.058493,0,3.141593,0], a=0.523599, v=0.436332, r=0.005)  # [Transform: move to [620.118, 42.041, -58.493] mm and rotate to [[-1, 0, 0], [0, 1, 0], [0, 0, -1]]]
  movej(p[0.620796,0.039774,-0.05849,0,3.141593,0], a=0.523599, v=0.436332, r=0.005)  # [Transform: move to [620.796, 39.774, -58.49] mm and rotate to [[-1, 0, 0], [0, 1, 0], [0, 0, -1]]]
  movej(p[0.621482,0.03751,-0.058487,0,3.141593,0], a=0.523599, v=0.436332, r=0.005)  # [Transform: move to [621.482, 37.51, -58.487] mm and rotate to [[-1, 0, 0], [0, 1, 0], [0, 0, -1]]]
  movej(p[0.622177,0.035249,-0.058483,0,3.141593,0], a=0.523599, v=0.436332, r=0.005)  # [Transform: move to [622.177, 35.249, -58.483] mm and rotate to [[-1, 0, 0], [0, 1, 0], [0, 0, -1]]]
  movej(p[0.622881,0.03299,-0.05848,0,3.141593,0], a=0.523599, v=0.436332, r=0.005)  # [Transform: move to [622.881, 32.99, -58.48] mm and rotate to [[-1, 0, 0], [0, 1, 0], [0, 0, -1]]]
  movej(p[0.623593,0.030734,-0.058477,0,3.141593,0], a=0.523599, v=0.436332, r=0.005)  # [Transform: move to [623.593, 30.734, -58.477] mm and rotate to [[-1, 0, 0], [0, 1, 0], [0, 0, -1]]]
  movej(p[0.624313,0.028481,-0.058473,0,3.141593,0], a=0.523599, v=0.436332, r=0.005)  # [Transform: move to [624.313, 28.481, -58.473] mm and rotate to [[-1, 0, 0], [0, 1, 0], [0, 0, -1]]]
  movej(p[0.625042,0.02623,-0.05847,0,3.141593,0], a=0.523599, v=0.436332, r=0.005)  # [Transform: move to [625.042, 26.23, -58.47] mm and rotate to [[-1, 0, 0], [0, 1, 0], [0, 0, -1]]]
  movej(p[0.625779,0.023982,-0.058467,0,3.141593,0], a=0.523599, v=0.436332, r=0.005)  # [Transform: move to [625.779, 23.982, -58.467] mm and rotate to [[-1, 0, 0], [0, 1, 0], [0, 0, -1]]]
  movej(p[0.626524,0.021736,-0.058463,0,3.141593,0], a=0.523599, v=0.436332, r=0.005)  # [Transform: move to [626.524, 21.736, -58.463] mm and rotate to [[-1, 0, 0], [0, 1, 0], [0, 0, -1]]]
  movej(p[0.627276,0.019494,-0.05846,0,3.141593,0], a=0.523599, v=0.436332, r=0.005)  # [Transform: move to [627.276, 19.494, -58.46] mm and rotate to [[-1, 0, 0], [0, 1, 0], [0, 0, -1]]]
  movej(p[0.628037,0.017253,-0.058457,0,3.141593,0], a=0.523599, v=0.436332, r=0.005)  # [Transform: move to [628.037, 17.253, -58.457] mm and rotate to [[-1, 0, 0], [0, 1, 0], [0, 0, -1]]]
  movej(p[0.628805,0.015016,-0.058453,0,3.141593,0], a=0.523599, v=0.436332, r=0.005)  # [Transform: move to [628.805, 15.016, -58.453] mm and rotate to [[-1, 0, 0], [0, 1, 0], [0, 0, -1]]]
  movej(p[0.629581,0.012781,-0.05845,0,3.141593,0], a=0.523599, v=0.436332, r=0.005)  # [Transform: move to [629.581, 12.781, -58.45] mm and rotate to [[-1, 0, 0], [0, 1, 0], [0, 0, -1]]]
  movej(p[0.630365,0.010549,-0.058447,0,3.141593,0], a=0.523599, v=0.436332, r=0.005)  # [Transform: move to [630.365, 10.549, -58.447] mm and rotate to [[-1, 0, 0], [0, 1, 0], [0, 0, -1]]]
  movej(p[0.631156,0.008319,-0.058443,0,3.141593,0], a=0.523599, v=0.436332, r=0.005)  # [Transform: move to [631.156, 8.319, -58.443] mm and rotate to [[-1, 0, 0], [0, 1, 0], [0, 0, -1]]]
  movej(p[0.631955,0.006093,-0.05844,0,3.141593,0], a=0.523599, v=0.436332, r=0.005)  # [Transform: move to [631.955, 6.093, -58.44] mm and rotate to [[-1, 0, 0], [0, 1, 0], [0, 0, -1]]]
  movej(p[0.632761,0.003869,-0.058437,0,3.141593,0], a=0.523599, v=0.436332, r=0.005)  # [Transform: move to [632.761, 3.869, -58.437] mm and rotate to [[-1, 0, 0], [0, 1, 0], [0, 0, -1]]]
  movej(p[0.633575,0.001647,-0.058433,0,3.141593,0], a=0.523599, v=0.436332, r=0.005)  # [Transform: move to [633.575, 1.647, -58.433] mm and rotate to [[-1, 0, 0], [0, 1, 0], [0, 0, -1]]]
  movej(p[0.634396,-0.000571,-0.05843,0,3.141593,0], a=0.523599, v=0.436332, r=0.005)  # [Transform: move to [634.396, -0.571, -58.43] mm and rotate to [[-1, 0, 0], [0, 1, 0], [0, 0, -1]]]
  movej(p[0.635225,-0.002787,-0.058427,0,3.141593,0], a=0.523599, v=0.436332, r=0.005)  # [Transform: move to [635.225, -2.787, -58.427] mm and rotate to [[-1, 0, 0], [0, 1, 0], [0, 0, -1]]]
  movej(p[0.636062,-0.005,-0.058423,0,3.141593,0], a=0.523599, v=0.436332, r=0.005)  # [Transform: move to [636.062, -5, -58.423] mm and rotate to [[-1, 0, 0], [0, 1, 0], [0, 0, -1]]]
  movej(p[0.636906,-0.00721,-0.05842,0,3.141593,0], a=0.523599, v=0.436332, r=0.005)  # [Transform: move to [636.906, -7.21, -58.42] mm and rotate to [[-1, 0, 0], [0, 1, 0], [0, 0, -1]]]
  movej(p[0.637758,-0.009417,-0.058417,0,3.141593,0], a=0.523599, v=0.436332, r=0.005)  # [Transform: move to [637.758, -9.417, -58.417] mm and rotate to [[-1, 0, 0], [0, 1, 0], [0, 0, -1]]]
  movej(p[0.638617,-0.011621,-0.058413,0,3.141593,0], a=0.523599, v=0.436332, r=0.005)  # [Transform: move to [638.617, -11.621, -58.413] mm and rotate to [[-1, 0, 0], [0, 1, 0], [0, 0, -1]]]
  movej(p[0.639485,-0.013822,-0.05841,0,3.141593,0], a=0.523599, v=0.436332, r=0.005)  # [Transform: move to [639.485, -13.822, -58.41] mm and rotate to [[-1, 0, 0], [0, 1, 0], [0, 0, -1]]]
  movej(p[0.64036,-0.01602,-0.058407,0,3.141593,0], a=0.523599, v=0.436332, r=0.005)  # [Transform: move to [640.36, -16.02, -58.407] mm and rotate to [[-1, 0, 0], [0, 1, 0], [0, 0, -1]]]
  movej(p[0.641244,-0.018214,-0.058403,0,3.141593,0], a=0.523599, v=0.436332, r=0.005)  # [Transform: move to [641.244, -18.214, -58.403] mm and rotate to [[-1, 0, 0], [0, 1, 0], [0, 0, -1]]]
  movej(p[0.642137,-0.020405,-0.0584,0,3.141593,0], a=0.523599, v=0.436332, r=0.005)  # [Transform: move to [642.137, -20.405, -58.4] mm and rotate to [[-1, 0, 0], [0, 1, 0], [0, 0, -1]]]
  movej(p[0.643038,-0.022592,-0.058397,0,3.141593,0], a=0.523599, v=0.436332, r=0.005)  # [Transform: move to [643.038, -22.592, -58.397] mm and rotate to [[-1, 0, 0], [0, 1, 0], [0, 0, -1]]]
  movej(p[0.643948,-0.024776,-0.058393,0,3.141593,0], a=0.523599, v=0.436332, r=0.005)  # [Transform: move to [643.948, -24.776, -58.393] mm and rotate to [[-1, 0, 0], [0, 1, 0], [0, 0, -1]]]
  movej(p[0.644868,-0.026955,-0.05839,0,3.141593,0], a=0.523599, v=0.436332, r=0.005)  # [Transform: move to [644.868, -26.955, -58.39] mm and rotate to [[-1, 0, 0], [0, 1, 0], [0, 0, -1]]]
  movej(p[0.645798,-0.029131,-0.058387,0,3.141593,0], a=0.523599, v=0.436332, r=0.005)  # [Transform: move to [645.798, -29.131, -58.387] mm and rotate to [[-1, 0, 0], [0, 1, 0], [0, 0, -1]]]
  movej(p[0.646738,-0.031302,-0.058383,0,3.141593,0], a=0.523599, v=0.436332, r=0.005)  # [Transform: move to [646.738, -31.302, -58.383] mm and rotate to [[-1, 0, 0], [0, 1, 0], [0, 0, -1]]]
  movej(p[0.647689,-0.033468,-0.05838,0,3.141593,0], a=0.523599, v=0.436332, r=0.005)  # [Transform: move to [647.689, -33.468, -58.38] mm and rotate to [[-1, 0, 0], [0, 1, 0], [0, 0, -1]]]
  movej(p[0.648652,-0.035629,-0.058377,0,3.141593,0], a=0.523599, v=0.436332, r=0.005)  # [Transform: move to [648.652, -35.629, -58.377] mm and rotate to [[-1, 0, 0], [0, 1, 0], [0, 0, -1]]]
  movej(p[0.649628,-0.037784,-0.058373,0,3.141593,0], a=0.523599, v=0.436332, r=0.005)  # [Transform: move to [649.628, -37.784, -58.373] mm and rotate to [[-1, 0, 0], [0, 1, 0], [0, 0, -1]]]
  movej(p[0.650617,-0.039933,-0.05837,0,3.141593,0], a=0.523599, v=0.436332, r=0.005)  # [Transform: move to [650.617, -39.933, -58.37] mm and rotate to [[-1, 0, 0], [0, 1, 0], [0, 0, -1]]]
  movej(p[0.651622,-0.042075,-0.058367,0,3.141593,0], a=0.523599, v=0.436332, r=0.005)  # [Transform: move to [651.622, -42.075, -58.367] mm and rotate to [[-1, 0, 0], [0, 1, 0], [0, 0, -1]]]
  movej(p[0.652642,-0.044209,-0.058363,0,3.141593,0], a=0.523599, v=0.436332, r=0.005)  # [Transform: move to [652.642, -44.209, -58.363] mm and rotate to [[-1, 0, 0], [0, 1, 0], [0, 0, -1]]]
  movej(p[0.653681,-0.046335,-0.05836,0,3.141593,0], a=0.523599, v=0.436332, r=0.005)  # [Transform: move to [653.681, -46.335, -58.36] mm and rotate to [[-1, 0, 0], [0, 1, 0], [0, 0, -1]]]
  movej(p[0.65474,-0.04845,-0.058357,0,3.141593,0], a=0.523599, v=0.436332, r=0.005)  # [Transform: move to [654.74, -48.45, -58.357] mm and rotate to [[-1, 0, 0], [0, 1, 0], [0, 0, -1]]]
  movej(p[0.655821,-0.050554,-0.058353,0,3.141593,0], a=0.523599, v=0.436332, r=0.005)  # [Transform: move to [655.821, -50.554, -58.353] mm and rotate to [[-1, 0, 0], [0, 1, 0], [0, 0, -1]]]
  movej(p[0.656929,-0.052644,-0.05835,0,3.141593,0], a=0.523599, v=0.436332, r=0.005)  # [Transform: move to [656.929, -52.644, -58.35] mm and rotate to [[-1, 0, 0], [0, 1, 0], [0, 0, -1]]]
  movej(p[0.658067,-0.054718,-0.058347,0,3.141593,0], a=0.523599, v=0.436332, r=0.005)  # [Transform: move to [658.067, -54.718, -58.347] mm and rotate to [[-1, 0, 0], [0, 1, 0], [0, 0, -1]]]
  movej(p[0.65924,-0.056773,-0.058343,0,3.141593,0], a=0.523599, v=0.436332, r=0.005)  # [Transform: move to [659.24, -56.773, -58.343] mm and rotate to [[-1, 0, 0], [0, 1, 0], [0, 0, -1]]]
  movej(p[0.660456,-0.058802,-0.05834,0,3.141593,0], a=0.523599, v=0.436332, r=0.005)  # [Transform: move to [660.456, -58.802, -58.34] mm and rotate to [[-1, 0, 0], [0, 1, 0], [0, 0, -1]]]
  movej(p[0.661722,-0.0608,-0.058337,0,3.141593,0], a=0.523599, v=0.436332, r=0.005)  # [Transform: move to [661.722, -60.8, -58.337] mm and rotate to [[-1, 0, 0], [0, 1, 0], [0, 0, -1]]]
  movej(p[0.663052,-0.062757,-0.058333,0,3.141593,0], a=0.523599, v=0.436332, r=0.005)  # [Transform: move to [663.052, -62.757, -58.333] mm and rotate to [[-1, 0, 0], [0, 1, 0], [0, 0, -1]]]
  movej(p[0.664461,-0.064657,-0.05833,0,3.141593,0], a=0.523599, v=0.436332, r=0.005)  # [Transform: move to [664.461, -64.657, -58.33] mm and rotate to [[-1, 0, 0], [0, 1, 0], [0, 0, -1]]]
  movej(p[0.665973,-0.066476,-0.058327,0,3.141593,0], a=0.523599, v=0.436332, r=0.005)  # [Transform: move to [665.973, -66.476, -58.327] mm and rotate to [[-1, 0, 0], [0, 1, 0], [0, 0, -1]]]
  movej(p[0.66762,-0.068173,-0.058323,0,3.141593,0], a=0.523599, v=0.436332, r=0.005)  # [Transform: move to [667.62, -68.173, -58.323] mm and rotate to [[-1, 0, 0], [0, 1, 0], [0, 0, -1]]]
