;FLAVOR:RepRap
;TIME:11250
;Filament used: 373.138m
;Layer height: 0.5
;MINX:81.965
;MINY:53.059
;MINZ:1.5
;MAXX:337.957
;MAXY:307.124
;MAXZ:250.282
;Generated with Cura_SteamEngine 4.6.2
T0
M109 S0
M82 ;absolute extrusion mode
G28 ;Home all
M83 ;relative extrusion mode
;LAYER_COUNT:498
;LAYER:0
M107
G0 F4800 X199.835 Y104.347 Z1.5
;TYPE:SKIRT
G1 F2400 X202.929 Y104.645 E7.75373
G1 X205.481 Y104.811 E6.37944
G1 X207.979 Y104.902 E6.23542
G1 X210.564 Y104.923 E6.44852
G1 X213.103 Y104.873 E6.33479
G1 X215.62 Y104.751 E6.28605
G1 X218.208 Y104.552 E6.47485
G1 X220.347 Y104.332 E5.36391
G1 X221.528 Y104.196 E2.96549
G1 X222.42 Y104.133 E2.23065
G1 X223.314 Y104.151 E2.23054
G1 X225.056 Y104.332 E4.36883
G1 X227.823 Y104.61 E6.93706
G1 X230.387 Y104.789 E6.41149
G1 X232.903 Y104.894 E6.28165
G1 X235.442 Y104.927 E6.3341
G1 X237.993 Y104.888 E6.36424
G1 X240.559 Y104.777 E6.4069
G1 X243.087 Y104.596 E6.32226
G1 X245.611 Y104.343 E6.3277
G1 X246.907 Y104.196 E3.25361
G1 X247.799 Y104.135 E2.2303
G1 X248.693 Y104.154 E2.2306
G1 X249.582 Y104.252 E2.23105
G1 X250.458 Y104.43 E2.22985
G1 X251.315 Y104.685 E2.23042
G1 X252.146 Y105.016 E2.23133
G1 X252.944 Y105.42 E2.23119
G1 X253.703 Y105.893 E2.23089
G1 X254.416 Y106.433 E2.23111
G1 X255.078 Y107.033 E2.22871
G1 X255.684 Y107.691 E2.23144
G1 X256.229 Y108.4 E2.23075
G1 X256.708 Y109.155 E2.23041
G1 X257.199 Y110.129 E2.72091
G1 X257.585 Y111.013 E2.4062
G1 X258.763 Y113.64 E7.18177
G1 X259.856 Y115.896 E6.25331
G1 X261.031 Y118.156 E6.35401
G1 X262.261 Y120.366 E6.30919
G1 X263.571 Y122.572 E6.40003
G1 X264.924 Y124.709 E6.30937
G1 X266.349 Y126.825 E6.36373
G1 X268.025 Y129.161 E7.17182
G1 X268.743 Y130.13 E3.00843
G1 X269.243 Y130.872 E2.23194
G1 X269.674 Y131.655 E2.22955
G1 X270.528 Y133.588 E5.27151
G1 X271.601 Y135.942 E6.45333
G1 X272.726 Y138.237 E6.37573
G1 X273.912 Y140.494 E6.36009
G1 X275.156 Y142.704 E6.32624
G1 X276.452 Y144.862 E6.27932
G1 X277.835 Y147.026 E6.40637
G1 X279.296 Y149.173 E6.47811
G1 X280.682 Y151.096 E5.91305
G1 X281.407 Y152.075 E3.03887
G1 X281.907 Y152.816 E2.22988
G1 X282.517 Y153.982 E3.28259
G1 X282.959 Y154.982 E2.72732
G1 X284.102 Y157.529 E6.96395
G1 X285.21 Y159.816 E6.33921
G1 X286.385 Y162.076 E6.35401
G1 X287.615 Y164.286 E6.30919
G1 X288.925 Y166.492 E6.40003
G1 X290.278 Y168.629 E6.30937
G1 X291.706 Y170.75 E6.37826
G1 X293.335 Y173.023 E6.97579
G1 X294.1 Y174.057 E3.20851
G1 X294.599 Y174.799 E2.23055
G1 X295.03 Y175.583 E2.23174
G1 X295.389 Y176.402 E2.23066
G1 X295.673 Y177.25 E2.23082
G1 X295.88 Y178.12 E2.23081
G1 X296.009 Y179.005 E2.23097
G1 X296.058 Y179.897 E2.22846
G1 X296.028 Y180.791 E2.23135
G1 X295.917 Y181.678 E2.22989
G1 X295.728 Y182.552 E2.2306
G1 X295.462 Y183.406 E2.23126
G1 X295.12 Y184.232 E2.2301
G1 X294.706 Y185.025 E2.2315
G1 X294.112 Y185.931 E2.70246
G1 X293.095 Y187.312 E4.27825
G1 X291.594 Y189.421 E6.4573
G1 X290.153 Y191.573 E6.46053
G1 X288.823 Y193.683 E6.22179
G1 X287.515 Y195.896 E6.41251
G1 X286.288 Y198.113 E6.32082
G1 X285.112 Y200.388 E6.38838
G1 X284.01 Y202.676 E6.33495
G1 X283.112 Y204.671 E5.45747
G1 X282.562 Y205.935 E3.43862
G1 X282.168 Y206.738 E2.23122
G1 X281.705 Y207.503 E2.23059
G1 X280.42 Y209.267 E5.44405
G1 X278.904 Y211.396 E6.51965
G1 X277.463 Y213.548 E6.46053
G1 X276.133 Y215.658 E6.22179
G1 X274.825 Y217.871 E6.41251
G1 X273.598 Y220.088 E6.32082
G1 X272.422 Y222.363 E6.38838
G1 X271.317 Y224.656 E6.34943
G1 X270.369 Y226.768 E5.7748
G1 X269.878 Y227.898 E3.0734
G1 X269.485 Y228.702 E2.23236
G1 X269.023 Y229.467 E2.2293
G1 X267.99 Y230.885 E4.37629
G1 X266.325 Y233.206 E7.12543
G1 X264.879 Y235.356 E6.46334
G1 X263.542 Y237.47 E6.23955
G1 X262.256 Y239.638 E6.28796
G1 X260.998 Y241.9 E6.4565
G1 X259.831 Y244.145 E6.31161
G1 X258.715 Y246.451 E6.39057
G1 X257.719 Y248.661 E6.04687
G1 X257.215 Y249.821 E3.15495
G1 X256.589 Y251.037 E3.41168
G1 X256.093 Y251.782 E2.23261
G1 X255.533 Y252.479 E2.23033
G1 X254.913 Y253.123 E2.22995
G1 X254.237 Y253.709 E2.23168
G1 X253.513 Y254.232 E2.22796
G1 X252.744 Y254.689 E2.23145
G1 X251.937 Y255.075 E2.2315
G1 X251.099 Y255.388 E2.23145
G1 X250.237 Y255.624 E2.2294
G1 X249.357 Y255.783 E2.23071
G1 X248.466 Y255.862 E2.23133
G1 X247.572 Y255.862 E2.23009
G1 X246.916 Y255.81 E1.64153
G1 X245.638 Y255.667 E3.20788
G1 X243.155 Y255.415 E6.22569
G1 X240.653 Y255.232 E6.25794
G1 X238.109 Y255.119 E6.35229
G1 X235.528 Y255.077 E6.43918
G1 X233.02 Y255.107 E6.25668
G1 X230.443 Y255.211 E6.43359
G1 X227.941 Y255.383 E6.25599
G1 X225.085 Y255.664 E7.15872
G1 X223.806 Y255.809 E3.21092
G1 X222.914 Y255.87 E2.2303
G1 X222.02 Y255.851 E2.2306
G1 X219.7 Y255.601 E5.82077
G1 X217.071 Y255.355 E6.58671
G1 X214.519 Y255.189 E6.37944
G1 X212.021 Y255.098 E6.23542
G1 X209.436 Y255.077 E6.44852
G1 X206.897 Y255.127 E6.33479
G1 X204.38 Y255.249 E6.28605
G1 X201.792 Y255.448 E6.47485
G1 X199.653 Y255.668 E5.36391
G1 X198.472 Y255.804 E2.96549
G1 X197.58 Y255.867 E2.23065
G1 X196.686 Y255.849 E2.23054
G1 X194.954 Y255.669 E4.34376
G1 X192.173 Y255.39 E6.97206
G1 X189.614 Y255.211 E6.39905
G1 X187.097 Y255.106 E6.28414
G1 X184.558 Y255.073 E6.3341
G1 X182.006 Y255.112 E6.36673
G1 X179.441 Y255.223 E6.40441
G1 X176.94 Y255.403 E6.25491
G1 X174.376 Y255.658 E6.42748
G1 X173.098 Y255.804 E3.20872
G1 X172.205 Y255.865 E2.23279
G1 X171.311 Y255.847 E2.23054
G1 X170.423 Y255.748 E2.22885
G1 X169.546 Y255.571 E2.2318
G1 X168.689 Y255.316 E2.23042
G1 X167.858 Y254.986 E2.23041
G1 X167.06 Y254.582 E2.23119
G1 X166.301 Y254.109 E2.23089
G1 X165.588 Y253.571 E2.22811
G1 X164.925 Y252.97 E2.23223
G1 X164.319 Y252.313 E2.2296
G1 X163.774 Y251.604 E2.23075
G1 X163.294 Y250.849 E2.23175
G1 X162.798 Y249.865 E2.7488
G1 X162.355 Y248.849 E2.76486
G1 X161.255 Y246.397 E6.70383
G1 X160.146 Y244.109 E6.34255
G1 X158.979 Y241.865 E6.3094
G1 X157.729 Y239.618 E6.4141
G1 X156.424 Y237.422 E6.37221
G1 X155.078 Y235.295 E6.27896
G1 X153.65 Y233.174 E6.37826
G1 X152.023 Y230.905 E6.96477
G1 X151.248 Y229.858 E3.24941
G1 X150.749 Y229.116 E2.23055
G1 X150.318 Y228.332 E2.23174
G1 X149.447 Y226.355 E5.38905
G1 X148.37 Y223.998 E6.46429
G1 X147.238 Y221.695 E6.40134
G1 X146.065 Y219.467 E6.28097
G1 X144.794 Y217.21 E6.46145
G1 X143.505 Y215.07 E6.23184
G1 X142.116 Y212.9 E6.42704
G1 X140.678 Y210.788 E6.37365
G1 X139.352 Y208.95 E5.65353
G1 X138.578 Y207.905 E3.24392
G1 X138.079 Y207.163 E2.23055
G1 X137.647 Y206.38 E2.23076
G1 X136.912 Y204.725 E4.51723
G1 X135.742 Y202.141 E7.07578
G1 X134.622 Y199.852 E6.3568
G1 X133.454 Y197.627 E6.26855
G1 X132.208 Y195.41 E6.34391
G1 X130.894 Y193.217 E6.37729
G1 X129.525 Y191.071 E6.34973
G1 X128.093 Y188.964 E6.35492
G1 X126.664 Y186.977 E6.10529
G1 X125.901 Y185.945 E3.20153
G1 X125.402 Y185.203 E2.23055
G1 X124.972 Y184.419 E2.23054
G1 X124.613 Y183.6 E2.23066
G1 X124.328 Y182.753 E2.22925
G1 X124.121 Y181.883 E2.23081
G1 X123.992 Y180.998 E2.23097
G1 X123.943 Y180.105 E2.23095
G1 X123.973 Y179.211 E2.23135
G1 X124.083 Y178.324 E2.22958
G1 X124.273 Y177.45 E2.23112
G1 X124.539 Y176.596 E2.23126
G1 X124.881 Y175.77 E2.2301
G1 X125.295 Y174.978 E2.22929
G1 X125.877 Y174.087 E2.65476
G1 X126.958 Y172.613 E4.55973
G1 X128.479 Y170.471 E6.5533
G1 X129.879 Y168.378 E6.28134
G1 X131.23 Y166.227 E6.33625
G1 X132.539 Y164.006 E6.43096
G1 X133.771 Y161.776 E6.35524
G1 X134.913 Y159.562 E6.21426
G1 X136.04 Y157.214 E6.49686
G1 X136.906 Y155.286 E5.2723
G1 X137.43 Y154.082 E3.2755
G1 X137.824 Y153.279 E2.23122
G1 X138.534 Y152.161 E3.30372
G1 X139.582 Y150.732 E4.42053
G1 X141.096 Y148.604 E6.51472
G1 X142.537 Y146.452 E6.46053
G1 X143.867 Y144.342 E6.22179
G1 X145.184 Y142.113 E6.45829
G1 X146.402 Y139.912 E6.27503
G1 X147.578 Y137.637 E6.38838
G1 X148.683 Y135.344 E6.34943
G1 X149.631 Y133.232 E5.7748
G1 X150.122 Y132.102 E3.0734
G1 X150.515 Y131.298 E2.23236
G1 X150.977 Y130.533 E2.2293
G1 X152.027 Y129.092 E4.44764
G1 X153.675 Y126.794 E7.05409
G1 X155.121 Y124.644 E6.46334
G1 X156.458 Y122.53 E6.23955
G1 X157.744 Y120.362 E6.28796
G1 X159.002 Y118.1 E6.4565
G1 X160.169 Y115.855 E6.31161
G1 X161.285 Y113.549 E6.39057
G1 X162.26 Y111.386 E5.91846
G1 X162.791 Y110.165 E3.32136
G1 X163.393 Y108.993 E3.28669
G1 X163.886 Y108.247 E2.23055
G1 X164.443 Y107.548 E2.22955
G1 X165.061 Y106.902 E2.2301
G1 X165.735 Y106.313 E2.23283
G1 X166.458 Y105.787 E2.23033
G1 X167.225 Y105.328 E2.22972
G1 X168.03 Y104.939 E2.23025
G1 X168.866 Y104.623 E2.22942
G1 X169.728 Y104.383 E2.23206
G1 X170.607 Y104.222 E2.22915
G1 X171.498 Y104.139 E2.23223
G1 X172.392 Y104.137 E2.2301
G1 X173.084 Y104.19 E1.73126
G1 X174.362 Y104.333 E3.20788
G1 X176.845 Y104.585 E6.22569
G1 X179.347 Y104.768 E6.25794
G1 X181.891 Y104.881 E6.35229
G1 X184.472 Y104.923 E6.43918
G1 X186.98 Y104.893 E6.25668
G1 X189.557 Y104.789 E6.43359
G1 X192.059 Y104.617 E6.25599
G1 X194.915 Y104.336 E7.15872
G1 X196.194 Y104.191 E3.21092
G1 X197.086 Y104.13 E2.2303
G1 X197.98 Y104.149 E2.2306
G1 X199.835 Y104.347 E4.6536
;MESH:koch-snowflake.stl
G0 F4800 X222.019 Y118.467
G0 X225.193 Y118.466
G0 X225.27 Y130.259
G0 X225.184 Y130.209
;TYPE:WALL-OUTER
G1 F2400 X225.183 Y121.913 E20.69446
G1 X225.183 Y118.449 E8.64098
G1 X228.183 Y120.181 E4.89995
G1 X235.362 Y124.326 E20.67873
G1 X239.642 Y121.855 E12.32809
G1 X241.897 Y120.56 E6.48671
G1 X242.955 Y119.952 E3.04394
G1 X244.286 Y119.175 E3.84453
G1 X245.541 Y118.451 E3.6142
G1 X245.541 Y119.175
G1 X245.541 Y119.952 E0.1695
G1 X245.541 Y121.173 E2.5802
G1 X245.541 Y130.203 E22.52543
G1 X249.821 Y132.676 E12.33059
G1 X252.371 Y134.155 E7.35349
G1 X253.127 Y134.593 E2.17949
G1 X254.421 Y135.338 E3.72465
G1 X255.718 Y136.085 E3.73362
G1 X254.423 Y136.833 E1.10092
G1 X253.129 Y137.582 E2.1476
G1 X252.372 Y138.018 E2.17916
G1 X248.716 Y140.124 E10.52481
G1 X245.538 Y141.966 E9.16292
G1 X245.536 Y159.488 E43.70881
G1 X260.713 Y168.254 E43.72045
G1 X267.897 Y164.106 E20.69327
G1 X270.896 Y162.374 E8.63901
G1 X270.896 Y165.837 E4.89797
G1 X270.896 Y165.838 E0.00249
G1 X270.895 Y174.127 E20.67699
G1 X278.073 Y178.272 E20.67657
G1 X278.074 Y178.273 E0.00353
G1 X281.073 Y180.004 E8.63777
G1 X278.073 Y181.735 E4.89816
G1 X270.894 Y185.88 E20.67873
G1 X270.894 Y194.173 E20.68697
G1 X270.894 Y194.174 E0.00249
G1 X270.894 Y197.636 E8.63599
G1 X267.895 Y195.905 E4.89773
G1 X260.71 Y191.758 E20.69419
G1 X245.531 Y200.52 E43.71978
G1 X245.529 Y218.045 E43.71629
G1 X252.713 Y222.192 E20.69203
G1 X255.712 Y223.924 E8.63901
G1 X252.712 Y225.655 E4.89816
G1 X245.533 Y229.799 E20.67748
G1 X245.533 Y238.09 E20.68198
G1 X245.533 Y238.091 E0.00249
G1 X245.533 Y241.554 E8.63849
G1 X242.534 Y239.822 E4.89827
G1 X235.354 Y235.676 E20.68214
G1 X228.173 Y239.823 E20.68555
G1 X225.175 Y241.554 E8.63561
G1 X225.175 Y238.093 E4.89485
G1 X225.175 Y238.091 E0.00499
G1 X225.173 Y229.797 E20.68947
G1 X209.995 Y221.03 E43.72386
G1 X194.816 Y229.791 E43.71853
G1 X194.817 Y238.086 E20.69196
G1 X194.817 Y241.55 E8.64098
G1 X191.817 Y239.818 E4.89995
G1 X184.639 Y235.673 E20.67657
G1 X177.459 Y239.818 E20.68089
G1 X174.459 Y241.549 E8.63993
G1 X174.459 Y238.086 E4.89797
G1 X174.459 Y238.085 E0.00249
G1 X174.46 Y229.796 E20.67699
G1 X167.278 Y225.65 E20.68646
G1 X164.28 Y223.919 E8.63561
G1 X167.277 Y222.187 E4.89553
G1 X174.462 Y218.036 E20.69918
G1 X174.464 Y200.512 E43.7138
G1 X159.286 Y191.747 E43.72136
G1 X152.103 Y195.894 E20.68987
G1 X149.104 Y197.626 E8.63901
G1 X149.104 Y194.163 E4.89797
G1 X149.104 Y194.162 E0.00249
G1 X149.105 Y185.873 E20.67699
G1 X141.924 Y181.727 E20.6843
G1 X138.925 Y179.995 E8.63901
G1 X141.925 Y178.264 E4.89816
G1 X149.106 Y174.12 E20.68181
G1 X149.106 Y165.827 E20.68697
G1 X149.106 Y165.826 E0.00249
G1 X149.106 Y162.364 E8.63599
G1 X152.105 Y164.095 E4.89773
G1 X159.29 Y168.242 E20.69419
G1 X174.469 Y159.48 E43.71978
G1 X174.471 Y141.955 E43.71629
G1 X167.287 Y137.808 E20.69203
G1 X164.288 Y136.076 E8.63901
G1 X167.288 Y134.345 E4.89816
G1 X174.467 Y130.201 E20.67748
G1 X174.467 Y121.91 E20.68198
G1 X174.467 Y121.909 E0.00249
G1 X174.467 Y118.446 E8.63849
G1 X177.466 Y120.178 E4.89827
G1 X184.646 Y124.324 E20.68214
G1 X191.827 Y120.177 E20.68555
G1 X194.825 Y118.446 E8.63561
G1 X194.825 Y121.907 E4.89485
G1 X194.825 Y121.909 E0.00499
G1 X194.828 Y130.204 E20.69196
G1 X210.005 Y138.97 E43.72045
G1 X225.184 Y130.209 E43.71853
G0 F4800 X225.184 Y127.709
G0 X225.284 Y127.71
G0 X229.173 Y125.36
;TYPE:SKIN
G1 F2400 X235.362 Y128.933 E17.8266
G1 X241.551 Y125.36 E17.8266
G1 X241.551 Y132.505 E17.82327
G1 X247.739 Y136.082 E17.82943
G1 X246.72 Y136.669 E2.9335
G1 X241.548 Y139.666 E14.91116
G1 X241.546 Y161.791 E55.19104
G1 X260.713 Y172.862 E55.21501
G1 X266.906 Y169.286 E17.83898
G1 X266.905 Y176.431 E17.82328
G1 X273.093 Y180.004 E17.82444
G1 X266.904 Y183.576 E17.82535
G1 X266.904 Y190.727 E17.83824
G1 X260.71 Y187.151 E17.84114
G1 X241.541 Y198.216 E55.21184
G1 X241.539 Y220.349 E55.21099
G1 X247.73 Y223.923 E17.83216
G1 X241.543 Y227.495 E17.82103
G1 X241.543 Y234.642 E17.82826
G1 X235.354 Y231.068 E17.82784
G1 X229.164 Y234.643 E17.83125
G1 X229.163 Y227.493 E17.83575
G1 X209.995 Y216.423 E55.21592
G1 X190.826 Y227.487 E55.2106
G1 X190.827 Y234.639 E17.84074
G1 X184.639 Y231.066 E17.82444
G1 X178.449 Y234.638 E17.82751
G1 X178.45 Y227.492 E17.82577
G1 X172.258 Y223.918 E17.83432
G1 X178.452 Y220.339 E17.84488
G1 X178.454 Y198.209 E55.20351
G1 X159.286 Y187.14 E55.21467
G1 X153.094 Y190.715 E17.83557
G1 X153.095 Y183.569 E17.82577
G1 X146.907 Y179.996 E17.82444
G1 X153.096 Y176.424 E17.82535
G1 X153.096 Y169.273 E17.83824
G1 X159.29 Y172.849 E17.84114
G1 X178.459 Y161.784 E55.21184
G1 X178.461 Y139.651 E55.21099
G1 X172.27 Y136.077 E17.83216
G1 X178.457 Y132.505 E17.82103
G1 X178.457 Y125.358 E17.82826
G1 X184.646 Y128.932 E17.82784
G1 X190.837 Y125.357 E17.83341
G1 X190.838 Y132.508 E17.83824
G1 X210.005 Y143.577 E55.21251
G1 X229.174 Y132.513 E55.2106
G1 X229.173 Y125.36 E17.84323
G0 F4800 X239.748 Y136.084
G1 F2400 X237.55 Y134.813 E6.33362
G1 X237.55 Y132.287 E6.30113
G1 X235.369 Y133.546 E6.28193
G1 X238.582 Y136.759 E11.33473
G1 X237.546 Y137.359 E2.98644
G1 X237.546 Y141.38 E10.03043
G1 X231.789 Y135.623 E20.30937
G1 X228.202 Y137.692 E10.3296
G1 X237.546 Y147.036 E32.96348
G1 X237.546 Y152.693 E14.11144
G1 X224.615 Y139.762 E45.61759
G1 X221.028 Y141.832 E10.33085
G1 X237.545 Y158.349 E58.26818
G1 X237.545 Y164.006 E14.11144
G1 X217.441 Y143.902 E70.92229
G1 X213.855 Y145.973 E10.32993
G1 X254.182 Y186.3 E142.26438
G1 X250.595 Y188.37 E10.33085
G1 X210.268 Y148.042 E142.26615
G1 X210.004 Y148.194 E0.7599
G1 X197.603 Y141.034 E35.72034
G1 X247.008 Y190.44 E174.29124
G1 X243.422 Y192.51 E10.32869
G1 X184.216 Y133.305 E208.86339
G1 X182.456 Y132.288 E5.0706
G1 X182.456 Y134.815 E6.30363
G1 X180.943 Y135.688 E4.3574
G1 X239.835 Y194.58 E207.75743
G1 X237.54 Y195.906 E6.61177
G1 X237.54 Y197.942 E5.07882
G1 X182.459 Y142.861 E194.3131
G1 X182.459 Y148.517 E14.10895
G1 X237.54 Y203.599 E194.31487
G1 X237.539 Y209.255 E14.10895
G1 X182.459 Y154.174 E194.31134
G1 X182.458 Y159.83 E14.10895
G1 X237.539 Y214.911 E194.3131
G1 X237.539 Y220.568 E14.11144
G1 X181.574 Y164.603 E197.43165
G1 X177.987 Y166.674 E10.33209
G1 X237.542 Y226.228 E210.09458
G1 X237.541 Y227.711 E3.69936
G1 X235.353 Y226.448 E6.30204
G1 X233.293 Y227.636 E5.93198
G1 X233.162 Y227.713 E0.37905
G0 F4800 X233.162 Y227.505
G1 F2400 X233.162 Y225.183 E5.79225
G0 F4800 X227.665 Y222.008
G1 F2400 X174.401 Y168.744 E187.90314
G1 X170.815 Y170.815 E10.32993
G1 X214.275 Y214.275 E153.31689
G1 X209.995 Y211.803 E12.32934
G1 X207.554 Y213.211 E7.02945
