;FLAVOR:Marlin
;TIME:7941
;Filament used: 6.83681m
;Layer height: 0.15
;MINX:72.213
;MINY:52.614
;MINZ:0.2
;MAXX:177.766
;MAXY:157.44
;MAXZ:100.032
;Generated with Cura_SteamEngine 4.6.2
M82 ;absolute extrusion mode
G21 ; set units to millimeters
G90 ; use absolute positioning
M82 ; absolute extrusion mode
M104 S215 ; set extruder temp
M140 S60 ; set bed temp
M190 S60 ; wait for bed temp
M109 S215 ; wait for extruder temp
G28 W ; home all without mesh bed level
G80 ; mesh bed leveling
G92 E0.0 ; reset extruder distance position
G1 Y-3.0 F1000.0 ; go outside print area
G1 X60.0 E9.0 F1000.0 ; intro line
G1 X100.0 E21.5 F1000.0 ; intro line
G92 E0.0 ; reset extruder distance position
G92 E0
G92 E0
G1 F2100 E-0.8
;LAYER_COUNT:666
;LAYER:0
M107
G0 F1800 X140.971 Y75.837 Z0.2
;TYPE:SKIRT
G1 F2100 E0
G1 F1800 X141.443 Y76.018 E0.01681
G1 X141.881 Y76.271 E0.03364
G1 X142.273 Y76.59 E0.05045
G1 X142.61 Y76.967 E0.06727
G1 X143.108 Y77.806 E0.09972
G1 X143.987 Y79.48 E0.1626
G1 X145.329 Y81.869 E0.25374
G1 X146.743 Y84.228 E0.34522
G1 X147.495 Y85.409 E0.39178
G1 X147.808 Y85.916 E0.4116
G1 X148.143 Y86.523 E0.43466
G1 X148.942 Y88.052 E0.49204
G1 X150.276 Y90.441 E0.58305
G1 X151.685 Y92.803 E0.67452
G1 X152.426 Y93.967 E0.72042
G1 X152.823 Y94.61 E0.74555
G1 X153.172 Y95.243 E0.76959
G1 X153.989 Y96.802 E0.82813
G1 X155.313 Y99.167 E0.91828
G1 X156.711 Y101.508 E1.00897
G1 X157.497 Y102.742 E1.05763
G1 X157.857 Y103.326 E1.08045
G1 X158.087 Y103.777 E1.09729
G1 X158.243 Y104.257 E1.11408
G1 X158.322 Y104.757 E1.13091
G1 X158.32 Y105.262 E1.14771
G1 X158.24 Y105.762 E1.16455
G1 X158.082 Y106.242 E1.18136
G1 X157.595 Y107.104 E1.21429
G1 X156.619 Y108.645 E1.27496
G1 X155.202 Y111.029 E1.3672
G1 X153.877 Y113.41 E1.45783
G1 X153.222 Y114.665 E1.50491
G1 X152.931 Y115.205 E1.52531
G1 X152.504 Y115.91 E1.55273
G1 X151.615 Y117.313 E1.60797
G1 X150.242 Y119.617 E1.69718
G1 X148.884 Y122.052 E1.78991
G1 X148.267 Y123.236 E1.83431
G1 X147.897 Y123.922 E1.86024
G1 X147.53 Y124.531 E1.88389
G1 X146.622 Y125.96 E1.9402
G1 X145.24 Y128.281 E2.03004
G1 X143.893 Y130.693 E2.12193
G1 X143.221 Y131.985 E2.17037
G1 X142.883 Y132.614 E2.19412
G1 X142.608 Y133.038 E2.21093
G1 X142.271 Y133.414 E2.22772
G1 X141.878 Y133.733 E2.24455
G1 X141.44 Y133.985 E2.26136
G1 X140.967 Y134.165 E2.27819
G1 X140.473 Y134.269 E2.29499
G1 X139.534 Y134.283 E2.32622
G1 X137.649 Y134.206 E2.38897
G1 X134.897 Y134.171 E2.48051
G1 X132.138 Y134.214 E2.57228
G1 X130.779 Y134.272 E2.61752
G1 X130.122 Y134.292 E2.63939
G1 X129.339 Y134.275 E2.66544
G1 X127.748 Y134.208 E2.7184
G1 X124.994 Y134.169 E2.81001
G1 X122.247 Y134.208 E2.90138
G1 X120.869 Y134.267 E2.94726
G1 X120.061 Y134.291 E2.97414
G1 X119.319 Y134.276 E2.99883
G1 X117.678 Y134.207 E3.05345
G1 X114.93 Y134.17 E3.14486
G1 X112.173 Y134.211 E3.23657
G1 X110.791 Y134.27 E3.28258
G1 X110.027 Y134.293 E3.308
G1 X109.522 Y134.267 E3.32482
G1 X109.028 Y134.163 E3.34161
G1 X108.556 Y133.982 E3.35842
G1 X108.118 Y133.729 E3.37525
G1 X107.726 Y133.41 E3.39205
G1 X107.389 Y133.033 E3.40887
G1 X106.888 Y132.19 E3.44149
G1 X106.011 Y130.517 E3.50432
G1 X104.669 Y128.127 E3.59548
G1 X103.271 Y125.794 E3.68594
G1 X102.543 Y124.651 E3.73101
G1 X102.188 Y124.075 E3.75352
G1 X101.812 Y123.393 E3.77942
G1 X101.08 Y121.99 E3.83205
G1 X99.75 Y119.609 E3.92276
G1 X98.325 Y117.218 E4.01534
G1 X97.577 Y116.042 E4.0617
G1 X97.169 Y115.381 E4.08753
G1 X96.811 Y114.731 E4.11221
G1 X96 Y113.183 E4.17034
G1 X94.644 Y110.762 E4.26263
G1 X93.26 Y108.449 E4.35228
G1 X92.483 Y107.226 E4.40048
G1 X92.145 Y106.679 E4.42186
G1 X91.914 Y106.229 E4.43869
G1 X91.757 Y105.748 E4.45551
G1 X91.678 Y105.249 E4.47232
G1 X91.678 Y104.743 E4.48915
G1 X91.758 Y104.244 E4.50596
G1 X91.916 Y103.764 E4.52276
G1 X92.423 Y102.864 E4.55712
G1 X93.371 Y101.371 E4.61594
G1 X94.77 Y99.019 E4.70696
G1 X96.105 Y96.624 E4.79816
G1 X96.776 Y95.338 E4.84641
G1 X97.07 Y94.793 E4.867
G1 X97.498 Y94.086 E4.89449
G1 X98.345 Y92.753 E4.94702
G1 X99.746 Y90.402 E5.03804
G1 X101.076 Y88.019 E5.12881
G1 X101.719 Y86.786 E5.17506
G1 X102.101 Y86.077 E5.20185
G1 X102.473 Y85.462 E5.22576
G1 X103.412 Y83.981 E5.28408
G1 X104.806 Y81.637 E5.37479
G1 X106.141 Y79.24 E5.46604
G1 X106.824 Y77.931 E5.51515
G1 X107.117 Y77.387 E5.5357
G1 X107.391 Y76.963 E5.55249
G1 X107.729 Y76.587 E5.56931
G1 X108.122 Y76.269 E5.58612
G1 X108.56 Y76.016 E5.60295
G1 X109.033 Y75.836 E5.61978
G1 X109.528 Y75.733 E5.6366
G1 X110.479 Y75.718 E5.66823
G1 X112.329 Y75.793 E5.72981
G1 X115.085 Y75.829 E5.82148
G1 X117.84 Y75.787 E5.91313
G1 X119.22 Y75.728 E5.95907
G1 X119.878 Y75.708 E5.98096
G1 X120.661 Y75.725 E6.00701
G1 X122.252 Y75.792 E6.05998
G1 X125.006 Y75.831 E6.15158
G1 X127.753 Y75.792 E6.24296
G1 X129.131 Y75.733 E6.28883
G1 X129.939 Y75.709 E6.31572
G1 X130.681 Y75.724 E6.3404
G1 X132.322 Y75.793 E6.39503
G1 X135.071 Y75.83 E6.48647
G1 X137.826 Y75.789 E6.57811
G1 X139.208 Y75.73 E6.62412
G1 X139.972 Y75.707 E6.64954
G1 X140.477 Y75.733 E6.66636
G1 X140.971 Y75.837 E6.68315
G0 X141.022 Y75.436
G1 X141.527 Y75.616 E6.70098
G1 X141.999 Y75.87 E6.71881
G1 X142.429 Y76.191 E6.73666
G1 X142.806 Y76.572 E6.75449
G1 X143.231 Y77.192 E6.77949
G1 X143.481 Y77.655 E6.79699
G1 X144.341 Y79.292 E6.85849
G1 X145.663 Y81.648 E6.94834
G1 X147.082 Y84.014 E7.04011
G1 X147.833 Y85.194 E7.08663
G1 X148.148 Y85.706 E7.10662
G1 X148.494 Y86.332 E7.13041
G1 X149.291 Y87.859 E7.1877
G1 X150.638 Y90.269 E7.27953
G1 X152.033 Y92.605 E7.37002
G1 X152.763 Y93.753 E7.41527
G1 X153.164 Y94.4 E7.44059
G1 X153.524 Y95.053 E7.46539
G1 X154.335 Y96.6 E7.52348
G1 X155.648 Y98.946 E7.6129
G1 X157.065 Y101.319 E7.70483
G1 X157.834 Y102.527 E7.75246
G1 X158.197 Y103.117 E7.7755
G1 X158.444 Y103.593 E7.79333
G1 X158.616 Y104.101 E7.81117
G1 X158.711 Y104.629 E7.82902
G1 X158.727 Y105.165 E7.84685
G1 X158.663 Y105.697 E7.86467
G1 X158.521 Y106.214 E7.88251
G1 X158.197 Y106.89 E7.90744
G1 X157.911 Y107.353 E7.92554
G1 X156.958 Y108.857 E7.98476
G1 X155.562 Y111.207 E8.07567
G1 X154.223 Y113.612 E8.16722
G1 X153.577 Y114.85 E8.21367
G1 X153.283 Y115.396 E8.23429
G1 X152.845 Y116.119 E8.26241
G1 X151.953 Y117.526 E8.31782
G1 X150.562 Y119.864 E8.4083
G1 X149.238 Y122.238 E8.49871
G1 X148.621 Y123.421 E8.54309
G1 X148.25 Y124.112 E8.56918
G1 X147.871 Y124.74 E8.59357
G1 X146.971 Y126.158 E8.64943
G1 X145.575 Y128.502 E8.74017
G1 X144.247 Y130.881 E8.83079
G1 X143.576 Y132.169 E8.8791
G1 X143.235 Y132.803 E8.90304
G1 X142.946 Y133.255 E8.92088
G1 X142.593 Y133.659 E8.93873
G1 X142.184 Y134.006 E8.95657
G1 X141.728 Y134.288 E8.9744
G1 X141.235 Y134.5 E8.99225
G1 X140.717 Y134.636 E9.01006
G1 X139.979 Y134.694 E9.03468
G1 X139.463 Y134.681 E9.05185
G1 X137.628 Y134.605 E9.11293
G1 X134.898 Y134.571 E9.20374
G1 X132.163 Y134.613 E9.29472
G1 X130.797 Y134.672 E9.3402
G1 X130.133 Y134.691 E9.36229
G1 X129.328 Y134.675 E9.38907
G1 X127.726 Y134.607 E9.4424
G1 X124.994 Y134.569 E9.53327
G1 X122.269 Y134.607 E9.62392
G1 X120.886 Y134.667 E9.66996
G1 X120.073 Y134.691 E9.69701
G1 X119.308 Y134.676 E9.72246
G1 X117.655 Y134.606 E9.77749
G1 X114.93 Y134.57 E9.86813
G1 X112.198 Y134.61 E9.95901
G1 X110.809 Y134.67 E10.00525
G1 X110.039 Y134.692 E10.03087
G1 X109.503 Y134.668 E10.04871
G1 X108.977 Y134.564 E10.06655
G1 X108.472 Y134.384 E10.08438
G1 X108 Y134.13 E10.10221
G1 X107.57 Y133.809 E10.12005
G1 X107.193 Y133.428 E10.13788
G1 X106.768 Y132.807 E10.16291
G1 X106.515 Y132.339 E10.1806
G1 X105.658 Y130.704 E10.242
G1 X104.335 Y128.348 E10.33187
G1 X102.916 Y125.982 E10.42363
G1 X102.206 Y124.866 E10.46763
G1 X101.847 Y124.284 E10.49037
G1 X101.461 Y123.583 E10.51699
G1 X100.719 Y122.163 E10.57028
G1 X99.392 Y119.787 E10.66079
G1 X98.012 Y117.472 E10.75043
G1 X97.239 Y116.257 E10.79833
G1 X96.829 Y115.591 E10.82434
G1 X96.459 Y114.922 E10.84977
G1 X95.655 Y113.385 E10.90746
G1 X94.309 Y110.984 E10.99901
G1 X92.896 Y108.621 E11.09058
G1 X92.146 Y107.441 E11.13709
G1 X91.804 Y106.889 E11.15869
G1 X91.558 Y106.413 E11.17651
G1 X91.384 Y105.905 E11.19437
G1 X91.288 Y105.378 E11.21218
G1 X91.271 Y104.842 E11.23002
G1 X91.335 Y104.309 E11.24787
G1 X91.476 Y103.792 E11.2657
G1 X91.801 Y103.113 E11.29074
G1 X92.083 Y102.654 E11.30865
G1 X93.032 Y101.157 E11.3676
G1 X94.435 Y98.799 E11.45886
G1 X95.744 Y96.451 E11.54828
G1 X96.421 Y95.153 E11.59697
G1 X96.718 Y94.603 E11.61776
G1 X97.157 Y93.877 E11.64597
G1 X97.991 Y92.565 E11.69768
G1 X99.411 Y90.181 E11.78997
G1 X100.73 Y87.818 E11.87998
G1 X101.365 Y86.601 E11.92564
G1 X101.749 Y85.887 E11.9526
G1 X102.132 Y85.252 E11.97727
G1 X103.073 Y83.768 E12.03571
G1 X104.455 Y81.444 E12.12564
G1 X105.787 Y79.055 E12.21662
G1 X106.469 Y77.746 E12.26571
G1 X106.765 Y77.197 E12.28646
G1 X107.054 Y76.746 E12.30427
G1 X107.407 Y76.342 E12.32211
G1 X107.816 Y75.995 E12.33995
G1 X108.272 Y75.713 E12.35779
G1 X108.765 Y75.502 E12.37562
G1 X109.284 Y75.366 E12.39347
G1 X110.008 Y75.308 E12.41763
G1 X110.56 Y75.32 E12.43599
G1 X112.352 Y75.394 E12.49564
G1 X115.084 Y75.429 E12.58652
G1 X117.817 Y75.388 E12.67743
G1 X119.203 Y75.328 E12.72357
G1 X119.867 Y75.309 E12.74566
G1 X120.672 Y75.325 E12.77244
G1 X122.274 Y75.393 E12.82577
G1 X125.006 Y75.431 E12.91665
G1 X127.731 Y75.393 E13.00729
G1 X129.114 Y75.333 E13.05333
G1 X129.927 Y75.309 E13.08038
G1 X130.692 Y75.324 E13.10583
G1 X132.345 Y75.394 E13.16086
G1 X135.071 Y75.43 E13.25154
G1 X137.801 Y75.39 E13.34235
G1 X139.19 Y75.33 E13.38859
G1 X139.96 Y75.308 E13.41421
G1 X140.496 Y75.332 E13.43205
G1 X141.022 Y75.436 E13.44989
G1 F2100 E12.64989
;MESH:koch-snowflake-2.stl
G0 F1800 X139.425 Y78.503
G0 X139.863 Y79.259
G0 X130.308 Y125.134
G0 X130.222 Y125.184
;TYPE:WALL-OUTER
G1 F2100 E13.44989
G1 F1800 X130.033 Y125.08 E13.45706
G1 X124.999 Y122.171 E13.65044
G1 X119.776 Y125.185 E13.85101
G1 X119.773 Y125.58 E13.86414
G1 X119.774 Y130.409 E14.02476
G1 X119.774 Y130.41 E14.02479
G1 X119.774 Y130.755 E14.03627
G1 X119.475 Y130.582 E14.04278
G1 X114.951 Y127.97 E14.21652
G1 X110.427 Y130.585 E14.39032
G1 X110.128 Y130.758 E14.40181
G1 X110.128 Y130.413 E14.40831
G1 X110.128 Y130.412 E14.40835
G1 X110.128 Y125.185 E14.5822
G1 X109.905 Y125.06 E14.5907
G1 X105.605 Y122.576 E14.75587
G1 X105.306 Y122.403 E14.76736
G1 X105.605 Y122.23 E14.77387
G1 X110.129 Y119.615 E14.94766
G1 X110.128 Y119.22 E14.9608
G1 X110.129 Y113.583 E15.14829
G1 X109.787 Y113.386 E15.16142
G1 X104.905 Y110.568 E15.3489
G1 X104.685 Y110.697 E15.35738
G1 X100.379 Y113.182 E15.52274
G1 X100.08 Y113.354 E15.53421
G1 X100.08 Y113.01 E15.5407
G1 X100.08 Y113.008 E15.54077
G1 X100.081 Y107.785 E15.71448
G1 X95.556 Y105.171 E15.88829
G1 X95.555 Y105.17 E15.88834
G1 X95.257 Y104.998 E15.89978
G1 X95.556 Y104.826 E15.90628
G1 X99.527 Y102.534 E16.05878
G1 X100.083 Y102.213 E16.08013
G1 X100.084 Y96.991 E16.25381
G1 X100.084 Y96.989 E16.25388
G1 X100.084 Y96.645 E16.26532
G1 X100.383 Y96.817 E16.27183
G1 X104.909 Y99.429 E16.44563
G1 X105.097 Y99.317 E16.45291
G1 X110.131 Y96.413 E16.6462
G1 X110.129 Y96.195 E16.65345
G1 X110.131 Y90.382 E16.8468
G1 X105.604 Y87.769 E17.02065
G1 X105.603 Y87.768 E17.02069
G1 X105.305 Y87.596 E17.03214
G1 X105.604 Y87.424 E17.03863
G1 X110.13 Y84.811 E17.21245
G1 X110.129 Y79.586 E17.38624
G1 X110.129 Y79.585 E17.38627
G1 X110.129 Y79.24 E17.39775
G1 X110.428 Y79.413 E17.40426
G1 X114.955 Y82.028 E17.57814
G1 X115.297 Y81.83 E17.59128
G1 X119.478 Y79.417 E17.75184
G1 X119.777 Y79.244 E17.76333
G1 X119.777 Y79.589 E17.76984
G1 X119.777 Y79.59 E17.76987
G1 X119.778 Y84.813 E17.94359
G1 X120.12 Y85.011 E17.95673
G1 X125.001 Y87.829 E18.14419
G1 X130.224 Y84.815 E18.34475
G1 X130.227 Y84.42 E18.35789
G1 X130.226 Y79.591 E18.5185
G1 X130.226 Y79.59 E18.51854
G1 X130.226 Y79.245 E18.53001
G1 X130.525 Y79.418 E18.53652
G1 X135.049 Y82.03 E18.71027
G1 X139.573 Y79.415 E18.88407
G1 X139.872 Y79.242 E18.89556
G1 X139.872 Y79.587 E18.90206
G1 X139.872 Y79.588 E18.90209
G1 X139.872 Y84.815 E19.07594
G1 X140.095 Y84.94 E19.08445
G1 X144.398 Y87.424 E19.2497
G1 X144.697 Y87.597 E19.26119
G1 X144.398 Y87.77 E19.2677
G1 X139.871 Y90.385 E19.44158
G1 X139.872 Y90.78 E19.45472
G1 X139.871 Y96.417 E19.64221
G1 X140.213 Y96.614 E19.65534
G1 X145.094 Y99.432 E19.84279
G1 X149.619 Y96.82 E20.01657
G1 X149.918 Y96.647 E20.02806
G1 X149.918 Y96.992 E20.03456
G1 X149.918 Y96.993 E20.03459
G1 X149.917 Y102.218 E20.20838
G1 X150.475 Y102.538 E20.22977
G1 X154.444 Y104.829 E20.3822
G1 X154.445 Y104.83 E20.38224
G1 X154.743 Y105.002 E20.39369
G1 X154.444 Y105.174 E20.40018
G1 X149.917 Y107.787 E20.57403
G1 X149.916 Y113.009 E20.74772
G1 X149.916 Y113.011 E20.74778
G1 X149.916 Y113.355 E20.75923
G1 X149.617 Y113.183 E20.76573
G1 X145.093 Y110.572 E20.93946
G1 X139.87 Y113.586 E21.14003
G1 X139.869 Y119.618 E21.34065
G1 X140.211 Y119.816 E21.3538
G1 X144.394 Y122.231 E21.51444
G1 X144.395 Y122.232 E21.51449
G1 X144.693 Y122.404 E21.52594
G1 X144.394 Y122.576 E21.53243
G1 X139.869 Y125.188 E21.70621
G1 X139.871 Y130.414 E21.88002
G1 X139.871 Y130.415 E21.88006
G1 X139.871 Y130.76 E21.89153
G1 X139.572 Y130.587 E21.89804
G1 X135.045 Y127.972 E22.07193
G1 X134.703 Y128.17 E22.08507
G1 X130.522 Y130.583 E22.24563
G1 X130.223 Y130.756 E22.25712
G1 X130.223 Y130.411 E22.26362
G1 X130.223 Y130.41 E22.26365
G1 X130.222 Y125.184 E22.43747
G0 X130.047 Y125.088
G0 X130.228 Y124.742
;TYPE:SKIN
G1 X124.999 Y121.721 E22.63833
G1 X119.388 Y124.959 E22.8538
G1 X119.383 Y125.578 E22.87439
G1 X119.384 Y130.079 E23.02409
G1 X114.951 Y127.52 E23.19433
G1 X110.518 Y130.083 E23.36465
G1 X110.518 Y124.957 E23.53514
G1 X110.096 Y124.72 E23.55123
G1 X106.085 Y122.402 E23.70532
G1 X110.519 Y119.84 E23.87564
G1 X110.518 Y119.219 E23.89629
G1 X110.519 Y113.357 E24.09127
G1 X109.982 Y113.048 E24.11187
G1 X104.903 Y110.117 E24.30691
G1 X104.489 Y110.359 E24.32286
G1 X100.47 Y112.678 E24.47719
G1 X100.471 Y107.56 E24.64742
G1 X96.038 Y104.998 E24.81771
G1 X99.722 Y102.872 E24.95918
G1 X100.473 Y102.439 E24.98801
G1 X100.474 Y97.32 E25.15827
G1 X104.913 Y99.881 E25.32872
G1 X105.292 Y99.655 E25.3434
G1 X110.523 Y96.637 E25.54426
G1 X110.519 Y96.195 E25.55896
G1 X110.521 Y90.157 E25.75979
G1 X106.086 Y87.596 E25.93013
G1 X110.52 Y85.036 E26.10042
G1 X110.519 Y79.916 E26.27071
G1 X114.955 Y82.479 E26.44111
G1 X115.492 Y82.167 E26.46176
G1 X119.387 Y79.918 E26.61136
G1 X119.388 Y85.038 E26.78165
G1 X125.001 Y88.279 E26.99722
G1 X130.612 Y85.041 E27.21269
G1 X130.617 Y84.422 E27.23328
G1 X130.616 Y79.921 E27.38298
G1 X135.049 Y82.48 E27.55323
G1 X139.482 Y79.917 E27.72354
G1 X139.482 Y85.043 E27.89403
G1 X139.9 Y85.278 E27.90998
G1 X143.916 Y87.597 E28.06422
G1 X139.481 Y90.16 E28.23459
G1 X139.482 Y90.781 E28.25525
G1 X139.481 Y96.643 E28.45022
G1 X140.018 Y96.952 E28.47082
G1 X145.094 Y99.882 E28.66576
G1 X149.528 Y97.323 E28.83603
G1 X149.527 Y102.444 E29.00636
G1 X150.282 Y102.876 E29.03529
G1 X153.964 Y105.002 E29.1767
G1 X149.527 Y107.561 E29.34706
G1 X149.526 Y112.68 E29.51732
G1 X145.093 Y110.122 E29.68755
G1 X139.48 Y113.36 E29.90308
G1 X139.479 Y119.843 E30.1187
G1 X143.913 Y122.403 E30.28899
G1 X139.479 Y124.963 E30.45928
G1 X139.481 Y130.084 E30.62961
G1 X135.045 Y127.521 E30.80001
G1 X134.508 Y127.833 E30.82066
G1 X130.613 Y130.082 E30.97025
G1 X130.612 Y124.954 E31.14081
G1 X130.228 Y124.742 E31.1554
G0 X125.122 Y105.019
G1 X125.08 Y105.043 E31.15701
G1 X125.08 Y105.136 E31.1601
G1 X124.999 Y105.089 E31.16322
G1 X124.919 Y105.135 E31.16629
G1 X124.919 Y105.005 E31.17061
G1 X124.881 Y104.983 E31.17207
G1 X124.995 Y104.917 E31.17645
G1 X124.995 Y104.907 E31.17679
