;FLAVOR:RepRap
;TIME:937
;Filament used: 107.176m
;Layer height: 1.5
;MINX:152.504
;MINY:122.505
;MINZ:1.5
;MAXX:267.49
;MAXY:237.487
;MAXZ:188.329
;Generated with Cura_SteamEngine 4.6.2
T0
M109 S0
M82 ;absolute extrusion mode
G28 ;Home all
M83 ;relative extrusion mode
;LAYER_COUNT:125
;LAYER:0
M107
G0 F4800 X211.308 Y129.227 Z1.5
;TYPE:SKIRT
G1 F2400 X212.714 Y129.307 E4.39119
G1 X214.18 Y129.439 E4.58968
G1 X215.523 Y129.606 E4.21991
G1 X216.931 Y129.828 E4.44457
G1 X218.179 Y130.065 E3.96098
G1 X219.531 Y130.362 E4.31624
G1 X220.836 Y130.692 E4.19726
G1 X222.108 Y131.051 E4.12121
G1 X223.399 Y131.456 E4.21895
G1 X224.691 Y131.9 E4.25988
G1 X225.916 Y132.36 E4.08015
G1 X227.141 Y132.857 E4.12212
G1 X228.378 Y133.399 E4.21114
G1 X229.556 Y133.949 E4.0538
G1 X230.774 Y134.556 E4.24339
G1 X231.8 Y135.098 E3.61817
G1 X233.035 Y135.79 E4.41422
G1 X234.141 Y136.444 E4.00648
G1 X235.15 Y137.072 E3.70582
G1 X236.148 Y137.723 E3.71543
G1 X237.157 Y138.411 E3.80799
G1 X238.095 Y139.081 E3.59431
G1 X239.037 Y139.781 E3.65948
G1 X239.961 Y140.498 E3.64684
G1 X240.794 Y141.171 E3.3392
G1 X241.642 Y141.88 E3.44661
G1 X242.554 Y142.675 E3.77252
G1 X243.245 Y143.299 E2.90315
G1 X244.142 Y144.139 E3.8319
G1 X244.868 Y144.845 E3.15766
G1 X245.649 Y145.632 E3.45724
G1 X246.386 Y146.401 E3.32126
G1 X247.131 Y147.208 E3.42467
G1 X247.909 Y148.084 E3.65323
G1 X248.63 Y148.928 E3.46124
G1 X249.29 Y149.728 E3.23386
G1 X249.959 Y150.571 E3.35574
G1 X250.662 Y151.491 E3.61033
G1 X251.344 Y152.421 E3.59604
G1 X251.933 Y153.256 E3.18622
G1 X252.604 Y154.249 E3.73694
G1 X253.171 Y155.124 E3.25112
G1 X253.747 Y156.052 E3.40571
G1 X254.328 Y157.032 E3.55243
G1 X254.838 Y157.927 E3.21202
G1 X255.408 Y158.98 E3.73358
G1 X255.865 Y159.869 E3.11684
G1 X256.379 Y160.923 E3.65649
G1 X256.854 Y161.945 E3.51411
G1 X257.298 Y162.964 E3.4659
G1 X257.724 Y164.005 E3.50726
G1 X258.132 Y165.062 E3.53288
G1 X258.524 Y166.157 E3.62655
G1 X258.842 Y167.111 E3.13561
G1 X259.225 Y168.362 E4.07951
G1 X259.494 Y169.319 E3.0997
G1 X259.773 Y170.414 E3.52345
G1 X260.054 Y171.648 E3.94628
G1 X260.246 Y172.591 E3.00073
G1 X260.462 Y173.826 E3.90936
G1 X260.618 Y174.872 E3.29765
G1 X260.768 Y176.105 E3.87301
G1 X260.868 Y177.169 E3.33232
G1 X260.949 Y178.402 E3.85295
G1 X260.99 Y179.483 E3.37313
G1 X261 Y180.798 E4.10047
G1 X260.976 Y181.942 E3.56793
G1 X260.906 Y183.292 E4.21514
G1 X260.805 Y184.51 E3.81093
G1 X260.652 Y185.851 E4.20855
G1 X260.485 Y187.019 E3.67902
G1 X260.255 Y188.342 E4.18717
G1 X259.993 Y189.631 E4.10147
G1 X259.676 Y190.969 E4.28756
G1 X259.335 Y192.246 E4.12138
G1 X258.944 Y193.554 E4.25685
G1 X258.505 Y194.877 E4.34648
G1 X258.071 Y196.08 E3.98776
G1 X257.552 Y197.395 E4.40815
G1 X257.043 Y198.59 E4.05011
G1 X256.494 Y199.792 E4.12043
G1 X255.889 Y201.027 E4.28815
G1 X255.28 Y202.192 E4.09902
G1 X254.618 Y203.383 E4.24883
G1 X253.909 Y204.585 E4.35143
G1 X253.135 Y205.82 E4.54468
G1 X252.309 Y207.063 E4.65358
G1 X251.466 Y208.264 E4.57533
G1 X250.622 Y209.401 E4.41534
G1 X249.737 Y210.532 E4.47796
G1 X248.817 Y211.65 E4.51465
G1 X247.839 Y212.777 E4.65284
G1 X246.865 Y213.843 E4.50248
G1 X245.878 Y214.873 E4.44821
G1 X244.841 Y215.899 E4.54868
G1 X243.771 Y216.908 E4.58587
G1 X242.721 Y217.851 E4.40061
G1 X241.593 Y218.812 E4.62064
G1 X240.471 Y219.722 E4.50459
G1 X239.333 Y220.597 E4.4761
G1 X238.189 Y221.433 E4.41812
G1 X236.925 Y222.305 E4.78823
G1 X235.799 Y223.044 E4.19965
G1 X234.494 Y223.849 E4.78108
G1 X233.279 Y224.556 E4.38326
G1 X231.992 Y225.26 E4.5742
G1 X230.736 Y225.903 E4.39976
G1 X229.397 Y226.545 E4.63029
G1 X228.064 Y227.136 E4.54668
G1 X226.728 Y227.685 E4.50384
G1 X225.343 Y228.208 E4.61627
G1 X224.005 Y228.67 E4.41378
G1 X222.557 Y229.121 E4.729
G1 X221.184 Y229.504 E4.44465
G1 X219.738 Y229.858 E4.64198
G1 X218.352 Y230.152 E4.4179
G1 X216.832 Y230.421 E4.81322
G1 X215.422 Y230.623 E4.44146
G1 X213.885 Y230.791 E4.82112
G1 X212.429 Y230.899 E4.55248
G1 X210.918 Y230.958 E4.7151
G1 X209.463 Y230.964 E4.53693
G1 X208.022 Y230.919 E4.49543
G1 X206.673 Y230.832 E4.21511
G1 X205.24 Y230.693 E4.48926
G1 X203.987 Y230.533 E3.93875
G1 X202.685 Y230.326 E4.1108
G1 X201.329 Y230.068 E4.30405
G1 X200.183 Y229.818 E3.65743
G1 X198.775 Y229.466 E4.52546
G1 X197.588 Y229.134 E3.84328
G1 X196.374 Y228.76 E3.96098
G1 X195.073 Y228.318 E4.28442
G1 X193.973 Y227.915 E3.65289
G1 X192.709 Y227.413 E4.24078
G1 X191.502 Y226.896 E4.09432
G1 X190.349 Y226.368 E3.95425
G1 X189.196 Y225.805 E4.00092
G1 X188.083 Y225.229 E3.90769
G1 X186.927 Y224.594 E4.11259
G1 X185.855 Y223.972 E3.86456
G1 X184.739 Y223.289 E4.07981
G1 X183.734 Y222.644 E3.7236
G1 X182.654 Y221.914 E4.06472
G1 X181.627 Y221.186 E3.92528
G1 X180.665 Y220.472 E3.73558
G1 X179.623 Y219.662 E4.11531
G1 X178.714 Y218.925 E3.64895
G1 X177.658 Y218.027 E4.32235
G1 X176.818 Y217.283 E3.4989
G1 X175.86 Y216.397 E4.06885
G1 X174.986 Y215.553 E3.78852
G1 X174.06 Y214.619 E4.10107
G1 X173.206 Y213.718 E3.87091
G1 X172.362 Y212.791 E3.90909
G1 X171.554 Y211.863 E3.83676
G1 X170.747 Y210.895 E3.92969
G1 X169.962 Y209.911 E3.92499
G1 X169.223 Y208.943 E3.79741
G1 X168.459 Y207.892 E4.05154
G1 X167.738 Y206.85 E3.95107
G1 X167.075 Y205.847 E3.74901
G1 X166.395 Y204.769 E3.97423
G1 X165.723 Y203.642 E4.09144
G1 X165.15 Y202.631 E3.62355
G1 X164.535 Y201.484 E4.05817
G1 X163.983 Y200.395 E3.80697
G1 X163.422 Y199.214 E4.07688
G1 X162.92 Y198.087 E3.84699
G1 X162.443 Y196.943 E3.86481
G1 X161.978 Y195.746 E4.00415
G1 X161.538 Y194.516 E4.07332
G1 X161.15 Y193.333 E3.88209
G1 X160.805 Y192.185 E3.73777
G1 X160.452 Y190.876 E4.22745
G1 X160.17 Y189.714 E3.72845
G1 X159.893 Y188.409 E4.15983
G1 X159.695 Y187.327 E3.42985
G1 X159.481 Y185.936 E4.38836
G1 X159.338 Y184.796 E3.58253
G1 X159.217 Y183.529 E3.96866
G1 X159.13 Y182.22 E4.09065
G1 X159.088 Y181.017 E3.75341
G1 X159.081 Y179.709 E4.07858
G1 X159.112 Y178.495 E3.78665
G1 X159.173 Y177.347 E3.58467
G1 X159.28 Y176.059 E4.03
G1 X159.396 Y175.002 E3.31566
G1 X159.559 Y173.808 E3.75759
G1 X159.741 Y172.701 E3.49812
G1 X159.942 Y171.64 E3.36719
G1 X160.18 Y170.53 E3.5398
G1 X160.414 Y169.555 E3.12652
G1 X160.701 Y168.468 E3.50557
G1 X161.001 Y167.432 E3.3631
G1 X161.299 Y166.476 E3.12241
G1 X161.664 Y165.392 E3.56653
G1 X162.028 Y164.388 E3.33001
G1 X162.385 Y163.464 E3.08873
G1 X162.821 Y162.403 E3.57679
G1 X163.209 Y161.511 E3.03311
G1 X163.69 Y160.464 E3.59273
G1 X164.137 Y159.542 E3.19498
G1 X164.632 Y158.572 E3.39566
G1 X165.109 Y157.681 E3.15134
G1 X165.653 Y156.71 E3.4705
G1 X166.139 Y155.88 E2.99908
G1 X166.74 Y154.898 E3.58996
G1 X167.277 Y154.057 E3.11135
G1 X167.839 Y153.21 E3.16956
G1 X168.467 Y152.302 E3.44247
G1 X168.988 Y151.576 E2.78636
G1 X169.729 Y150.585 E3.85839
G1 X170.328 Y149.813 E3.04683
G1 X170.922 Y149.073 E2.95884
G1 X171.629 Y148.225 E3.44262
G1 X172.331 Y147.414 E3.34459
G1 X173.036 Y146.628 E3.29229
G1 X173.738 Y145.873 E3.2146
G1 X174.402 Y145.182 E2.98817
G1 X175.233 Y144.352 E3.66227
G1 X175.871 Y143.734 E2.76965
G1 X176.735 Y142.929 E3.6822
G1 X177.462 Y142.275 E3.04916
G1 X178.301 Y141.548 E3.46162
G1 X179.035 Y140.933 E2.9859
G1 X179.87 Y140.26 E3.34405
G1 X180.679 Y139.632 E3.19341
G1 X181.565 Y138.971 E3.4468
G1 X182.388 Y138.38 E3.15935
G1 X183.271 Y137.769 E3.3482
G1 X184.089 Y137.225 E3.06318
G1 X184.992 Y136.649 E3.33974
G1 X185.908 Y136.091 E3.34444
G1 X186.766 Y135.59 E3.09806
G1 X187.709 Y135.063 E3.36842
G1 X188.696 Y134.537 E3.48736
G1 X189.733 Y134.016 E3.61867
G1 X190.635 Y133.585 E3.11715
G1 X191.752 Y133.081 E3.82109
G1 X192.8 Y132.635 E3.55142
G1 X193.567 Y132.328 E2.57608
G1 X194.444 Y131.995 E2.9251
G1 X195.688 Y131.559 E4.11031
G1 X196.797 Y131.199 E3.63565
G1 X197.954 Y130.856 E3.76288
G1 X199.274 Y130.504 E4.25977
G1 X200.528 Y130.209 E4.01688
G1 X201.784 Y129.95 E3.99878
G1 X203.18 Y129.708 E4.41784
G1 X204.437 Y129.53 E3.9586
G1 X205.818 Y129.377 E4.33249
G1 X207.131 Y129.274 E4.10669
G1 X208.488 Y129.212 E4.23573
G1 X209.848 Y129.194 E4.24104
G1 X211.308 Y129.227 E4.55364
;MESH:sine-vase.stl
G0 F4800 X210.745 Y142.227
G0 X211.423 Y142.237
;TYPE:WALL-OUTER
G1 F2400 X212.374 Y142.311 E2.97431
G1 X213.359 Y142.422 E3.09081
G1 X214.3 Y142.559 E2.9651
G1 X215.21 Y142.721 E2.88212
G1 X216.193 Y142.925 E3.13044
G1 X217.084 Y143.138 E2.85654
G1 X218.053 Y143.401 E3.13079
G1 X218.968 Y143.678 E2.98097
G1 X219.868 Y143.977 E2.95714
G1 X220.831 Y144.327 E3.19494
G1 X221.734 Y144.683 E3.02659
G1 X222.647 Y145.07 E3.09205
G1 X223.523 Y145.469 E3.00148
G1 X224.48 Y145.934 E3.31767
G1 X225.276 Y146.346 E2.7948
G1 X226.151 Y146.824 E3.10894
G1 X227.052 Y147.346 E3.24689
G1 X227.847 Y147.831 E2.9038
G1 X228.624 Y148.328 E2.87603
G1 X229.4 Y148.849 E2.91444
G1 X230.124 Y149.356 E2.75603
G1 X230.875 Y149.906 E2.90255
G1 X231.62 Y150.473 E2.91927
G1 X232.254 Y150.977 E2.52545
G1 X232.928 Y151.533 E2.72442
G1 X233.571 Y152.083 E2.63837
G1 X234.25 Y152.687 E2.83366
G1 X234.874 Y153.261 E2.64372
G1 X235.476 Y153.839 E2.60227
G1 X236.121 Y154.479 E2.83326
G1 X236.689 Y155.065 E2.54471
G1 X237.31 Y155.729 E2.83483
G1 X237.872 Y156.352 E2.61621
G1 X238.422 Y156.985 E2.61476
G1 X239.004 Y157.681 E2.82899
G1 X239.515 Y158.315 E2.53909
G1 X240.058 Y159.014 E2.75995
G1 X240.579 Y159.715 E2.72341
G1 X241.051 Y160.374 E2.52755
G1 X241.562 Y161.116 E2.80924
G1 X242.029 Y161.825 E2.64724
G1 X242.481 Y162.542 E2.64287
G1 X242.909 Y163.249 E2.57701
G1 X243.318 Y163.956 E2.54683
G1 X243.733 Y164.708 E2.6782
G1 X244.112 Y165.431 E2.54538
G1 X244.512 Y166.232 E2.79174
G1 X244.863 Y166.975 E2.56229
G1 X245.194 Y167.714 E2.52489
G1 X245.54 Y168.537 E2.78379
G1 X245.826 Y169.261 E2.42729
G1 X246.133 Y170.094 E2.76819
G1 X246.39 Y170.844 E2.47209
G1 X246.65 Y171.663 E2.67935
G1 X246.864 Y172.401 E2.39598
G1 X247.071 Y173.179 E2.51031
G1 X247.274 Y174.029 E2.72495
G1 X247.435 Y174.795 E2.44068
G1 X247.581 Y175.574 E2.47132
G1 X247.703 Y176.338 E2.41244
G1 X247.812 Y177.162 E2.59173
G1 X247.894 Y177.955 E2.48587
G1 X247.956 Y178.761 E2.52064
G1 X247.995 Y179.586 E2.57534
G1 X248.01 Y180.328 E2.31413
G1 X248 Y181.214 E2.76285
G1 X247.967 Y182.05 E2.60879
G1 X247.903 Y182.942 E2.78853
G1 X247.815 Y183.806 E2.70801
G1 X247.698 Y184.692 E2.78665
G1 X247.557 Y185.566 E2.76049
G1 X247.381 Y186.475 E2.88703
G1 X247.167 Y187.432 E3.05775
G1 X246.931 Y188.356 E2.97365
G1 X246.665 Y189.284 E3.01016
G1 X246.371 Y190.207 E3.02052
G1 X246.044 Y191.139 E3.07979
G1 X245.68 Y192.094 E3.18679
G1 X245.327 Y192.948 E2.88141
G1 X244.905 Y193.896 E3.23564
G1 X244.495 Y194.757 E2.97357
G1 X244.017 Y195.696 E3.28547
G1 X243.555 Y196.548 E3.0221
G1 X243.007 Y197.498 E3.41974
G1 X242.455 Y198.401 E3.30009
G1 X241.862 Y199.316 E3.39988
G1 X241.204 Y200.274 E3.62393
G1 X240.563 Y201.156 E3.39978
G1 X239.877 Y202.054 E3.52363
G1 X239.156 Y202.946 E3.57636
G1 X238.471 Y203.753 E3.30062
G1 X237.705 Y204.609 E3.58178
G1 X236.918 Y205.446 E3.58238
G1 X236.149 Y206.223 E3.40875
G1 X235.323 Y207.019 E3.57689
G1 X234.498 Y207.774 E3.48709
G1 X233.651 Y208.512 E3.50295
G1 X232.768 Y209.242 E3.5724
G1 X231.924 Y209.906 E3.34853
G1 X230.999 Y210.596 E3.59834
G1 X230.084 Y211.244 E3.49611
G1 X229.157 Y211.863 E3.4757
G1 X228.225 Y212.453 E3.43947
G1 X227.251 Y213.034 E3.53635
G1 X226.3 Y213.568 E3.40085
G1 X225.326 Y214.08 E3.43111
G1 X224.358 Y214.557 E3.36492
G1 X223.342 Y215.023 E3.48536
G1 X222.368 Y215.436 E3.29881
G1 X221.327 Y215.843 E3.48525
G1 X220.337 Y216.197 E3.27837
G1 X219.279 Y216.541 E3.46899
G1 X218.291 Y216.828 E3.20807
G1 X217.233 Y217.101 E3.40705
G1 X216.247 Y217.323 E3.15145
G1 X215.17 Y217.528 E3.41853
G1 X214.133 Y217.691 E3.27321
G1 X213.131 Y217.814 E3.14783
G1 X212.074 Y217.906 E3.30833
G1 X211.035 Y217.961 E3.24428
G1 X210.001 Y217.978 E3.22459
G1 X209.039 Y217.961 E3.00012
G1 X208.056 Y217.909 E3.06941
G1 X207.115 Y217.83 E2.94449
G1 X206.165 Y217.719 E2.98238
G1 X205.28 Y217.588 E2.78962
G1 X204.32 Y217.418 E3.03998
G1 X203.421 Y217.23 E2.86384
G1 X202.538 Y217.02 E2.83011
G1 X201.601 Y216.768 E3.02551
G1 X200.732 Y216.51 E2.82656
G1 X199.798 Y216.205 E3.06369
G1 X198.922 Y215.892 E2.90061
G1 X198.019 Y215.545 E3.01641
G1 X197.139 Y215.179 E2.97183
G1 X196.292 Y214.8 E2.89341
G1 X195.392 Y214.372 E3.10749
G1 X194.501 Y213.921 E3.1139
G1 X193.682 Y213.482 E2.89749
G1 X192.828 Y212.996 E3.0639
G1 X192.027 Y212.517 E2.91015
G1 X191.168 Y211.975 E3.16709
G1 X190.403 Y211.47 E2.85825
G1 X189.572 Y210.892 E3.15633
G1 X188.834 Y210.354 E2.84775
G1 X188.019 Y209.733 E3.19494
G1 X187.295 Y209.155 E2.88872
G1 X186.527 Y208.516 E3.11524
G1 X185.822 Y207.901 E2.91717
G1 X185.062 Y207.21 E3.20286
G1 X184.37 Y206.554 E2.97321
G1 X183.695 Y205.884 E2.96555
G1 X183.009 Y205.174 E3.07843
G1 X182.361 Y204.473 E2.97665
G1 X181.682 Y203.708 E3.18945
G1 X181.054 Y202.967 E3.02871
G1 X180.46 Y202.235 E2.93943
G1 X179.848 Y201.447 E3.1111
G1 X179.297 Y200.704 E2.88432
G1 X178.729 Y199.901 E3.06694
G1 X178.208 Y199.127 E2.90927
G1 X177.658 Y198.272 E3.16997
G1 X177.17 Y197.472 E2.92199
G1 X176.696 Y196.652 E2.95332
G1 X176.242 Y195.826 E2.93899
G1 X175.809 Y194.989 E2.93843
G1 X175.397 Y194.146 E2.92573
G1 X174.985 Y193.245 E3.08923
G1 X174.639 Y192.437 E2.74073
G1 X174.269 Y191.511 E3.10936
G1 X173.963 Y190.682 E2.75541
G1 X173.65 Y189.762 E3.03016
G1 X173.384 Y188.905 E2.79801
G1 X173.14 Y188.041 E2.79944
G1 X172.912 Y187.14 E2.898
G1 X172.721 Y186.285 E2.73172
G1 X172.544 Y185.37 E2.90599
G1 X172.402 Y184.52 E2.68715
G1 X172.288 Y183.676 E2.65561
G1 X172.194 Y182.8 E2.74717
G1 X172.123 Y181.882 E2.871
G1 X172.086 Y181.071 E2.53144
G1 X172.071 Y180.175 E2.79424
G1 X172.082 Y179.346 E2.58516
G1 X172.118 Y178.514 E2.59672
G1 X172.177 Y177.692 E2.5697
G1 X172.264 Y176.825 E2.717
G1 X172.357 Y176.093 E2.30082
G1 X172.486 Y175.253 E2.64994
G1 X172.618 Y174.52 E2.32236
G1 X172.784 Y173.711 E2.57513
G1 X172.944 Y173.018 E2.21771
G1 X173.142 Y172.239 E2.50626
G1 X173.358 Y171.468 E2.49665
G1 X173.575 Y170.752 E2.33287
G1 X173.81 Y170.034 E2.35569
G1 X174.083 Y169.261 E2.55622
G1 X174.367 Y168.509 E2.50649
G1 X174.651 Y167.8 E2.38152
G1 X174.953 Y167.09 E2.40583
G1 X175.3 Y166.317 E2.64204
G1 X175.62 Y165.644 E2.32365
G1 X176 Y164.883 E2.65229
G1 X176.349 Y164.217 E2.34453
G1 X176.737 Y163.511 E2.51195
G1 X177.14 Y162.811 E2.51858
G1 X177.575 Y162.086 E2.63635
G1 X177.976 Y161.449 E2.34705
G1 X178.44 Y160.738 E2.64733
G1 X178.891 Y160.075 E2.50029
G1 X179.331 Y159.453 E2.37569
G1 X179.836 Y158.766 E2.65865
G1 X180.324 Y158.129 E2.50212
G1 X180.829 Y157.492 E2.53471
G1 X181.344 Y156.864 E2.53244
G1 X181.839 Y156.285 E2.37525
G1 X182.406 Y155.644 E2.66846
G1 X182.954 Y155.046 E2.52917
G1 X183.514 Y154.456 E2.53645
G1 X184.049 Y153.913 E2.3769
G1 X184.661 Y153.314 E2.67023
G1 X185.217 Y152.786 E2.39086
G1 X185.819 Y152.237 E2.54048
G1 X186.445 Y151.685 E2.60244
G1 X187.075 Y151.151 E2.57517
G1 X187.68 Y150.656 E2.43744
G1 X188.32 Y150.151 E2.54205
G1 X188.96 Y149.666 E2.5039
G1 X189.611 Y149.191 E2.51281
G1 X190.285 Y148.717 E2.5693
G1 X190.934 Y148.279 E2.44141
G1 X191.579 Y147.861 E2.39661
G1 X192.297 Y147.415 E2.63559
G1 X192.979 Y147.01 E2.47327
G1 X193.647 Y146.63 E2.39635
G1 X194.356 Y146.244 E2.51716
G1 X195.125 Y145.848 E2.6971
G1 X195.872 Y145.484 E2.59107
G1 X196.661 Y145.119 E2.71071
G1 X197.357 Y144.816 E2.36696
G1 X198.156 Y144.489 E2.69197
G1 X198.656 Y144.295 E1.67231
G1 X199.499 Y143.989 E2.79641
G1 X200.37 Y143.697 E2.86446
G1 X201.188 Y143.445 E2.66893
G1 X202.058 Y143.203 E2.81577
G1 X202.988 Y142.973 E2.98723
G1 X203.889 Y142.777 E2.87515
G1 X204.835 Y142.601 E3.00037
G1 X205.761 Y142.458 E2.92162
