## ###\   ###\ #####\  ######\##\  ##\##\###\   ##\ #####\ 
## ####\ ####\##\\\##\##\\\\\\##\  ##\##\####\  ##\##\\\##\
## ##\####\##\#######\##\     #######\##\##\##\ ##\#######\
## ##\\##\\##\##\\\##\##\     ##\\\##\##\##\\##\##\##\\\##\
## ##\ \\\ ##\##\  ##\\######\##\  ##\##\##\ \####\##\  ##\
## \\\     \\\\\\  \\\ \\\\\\\\\\  \\\\\\\\\  \\\\\\\\  \\\
## 
## Program name: handwriting
## Created: 02/03/2021 18:31:50
## 
## DISCLAIMER: WORKING WITH ROBOTS CAN BE DANGEROUS!
## When using robots in a real-time interactive environment, please make sure:
##     - You have been adequately trained to use that particular machine,
##     - you are in good physical and mental condition,
##     - you are operating the robot under the utmost security measures,
##     - you are following the facility's and facility staff's security protocols,
##     - and the robot has the appropriate guarding in place, including, but not reduced to:
##         e -stops, physical barriers, light curtains, etc.
## The Machina software framework and its generated code is provided as is;
## use at your own risk. This product is not intended for any use that may
## involve potential risks of death (including lifesaving equipment),
## personal injury, or severe property or environmental damage.
## Machina is in a very early stage of development. You are using this software
## at your own risk, no warranties are provided herewith, and unexpected
## results / bugs may arise during its use. Always test and simulate your
## applications thoroughly before running them on a real device.
## The author/s shall not be liable for any injuries, damages or losses
## consequence of using this software in any way whatsoever.
## 
## 
## Copyright(c) 2021 Jose Luis Garcia del Castillo y Lopez
## https://github.com/RobotExMachina
## 
## MIT License
## 
## Permission is hereby granted, free of charge, to any person obtaining a copy
## of this software and associated documentation files(the "Software"), to deal
## in the Software without restriction, including without limitation the rights
## to use, copy, modify, merge, publish, distribute, sublicense, and / or sell
## copies of the Software, and to permit persons to whom the Software is
## furnished to do so, subject to the following conditions:
## 
## The above copyright notice and this permission notice shall be included in all
## copies or substantial portions of the Software.
## 
## THE SOFTWARE IS PROVIDED "AS IS", WITHOUT WARRANTY OF ANY KIND, EXPRESS OR
## IMPLIED, INCLUDING BUT NOT LIMITED TO THE WARRANTIES OF MERCHANTABILITY,
## FITNESS FOR A PARTICULAR PURPOSE AND NONINFRINGEMENT. IN NO EVENT SHALL THE
## AUTHORS OR COPYRIGHT HOLDERS BE LIABLE FOR ANY CLAIM, DAMAGES OR OTHER
## LIABILITY, WHETHER IN AN ACTION OF CONTRACT, TORT OR OTHERWISE, ARISING FROM,
## OUT OF OR IN CONNECTION WITH THE SOFTWARE OR THE USE OR OTHER DEALINGS IN THE
## SOFTWARE.


def handwriting():

  movej([0,-1.570796,-1.570796,-1.570796,1.570796,0], a=0.523599, v=0.349066, r=0.005)  # [Set joint rotations to [0, -90, -90, -90, 90, 0] deg]
  # [Set motion type to 'Joint']
  # [Set motion speed to 20 mm/s or deg/s]
  # [Set precision radius to 2 mm]
  movej(p[0.558753,-0.031933,-0.01,0,3.141593,0], a=0.523599, v=0.349066, r=0.002)  # [Transform: move to [558.753, -31.933, -10] mm and rotate to [[-1, 0, 0], [0, 1, 0], [0, 0, -1]]]
  movej(p[0.558753,-0.031933,-0.06,0,3.141593,0], a=0.523599, v=0.349066, r=0.002)  # [Transform: move to [558.753, -31.933, -60] mm and rotate to [[-1, 0, 0], [0, 1, 0], [0, 0, -1]]]
  movej(p[0.561258,-0.030163,-0.06,0,3.141593,0], a=0.523599, v=0.349066, r=0.002)  # [Transform: move to [561.258, -30.163, -60] mm and rotate to [[-1, 0, 0], [0, 1, 0], [0, 0, -1]]]
  movej(p[0.563816,-0.028471,-0.06,0,3.141593,0], a=0.523599, v=0.349066, r=0.002)  # [Transform: move to [563.816, -28.471, -60] mm and rotate to [[-1, 0, 0], [0, 1, 0], [0, 0, -1]]]
  movej(p[0.566425,-0.026857,-0.06,0,3.141593,0], a=0.523599, v=0.349066, r=0.002)  # [Transform: move to [566.425, -26.857, -60] mm and rotate to [[-1, 0, 0], [0, 1, 0], [0, 0, -1]]]
  movej(p[0.569081,-0.025323,-0.06,0,3.141593,0], a=0.523599, v=0.349066, r=0.002)  # [Transform: move to [569.081, -25.323, -60] mm and rotate to [[-1, 0, 0], [0, 1, 0], [0, 0, -1]]]
  movej(p[0.571782,-0.02387,-0.06,0,3.141593,0], a=0.523599, v=0.349066, r=0.002)  # [Transform: move to [571.782, -23.87, -60] mm and rotate to [[-1, 0, 0], [0, 1, 0], [0, 0, -1]]]
  movej(p[0.574526,-0.022499,-0.06,0,3.141593,0], a=0.523599, v=0.349066, r=0.002)  # [Transform: move to [574.526, -22.499, -60] mm and rotate to [[-1, 0, 0], [0, 1, 0], [0, 0, -1]]]
  movej(p[0.577311,-0.021213,-0.06,0,3.141593,0], a=0.523599, v=0.349066, r=0.002)  # [Transform: move to [577.311, -21.213, -60] mm and rotate to [[-1, 0, 0], [0, 1, 0], [0, 0, -1]]]
  movej(p[0.580133,-0.020011,-0.06,0,3.141593,0], a=0.523599, v=0.349066, r=0.002)  # [Transform: move to [580.133, -20.011, -60] mm and rotate to [[-1, 0, 0], [0, 1, 0], [0, 0, -1]]]
  movej(p[0.58299,-0.018895,-0.06,0,3.141593,0], a=0.523599, v=0.349066, r=0.002)  # [Transform: move to [582.99, -18.895, -60] mm and rotate to [[-1, 0, 0], [0, 1, 0], [0, 0, -1]]]
  movej(p[0.58588,-0.017867,-0.06,0,3.141593,0], a=0.523599, v=0.349066, r=0.002)  # [Transform: move to [585.88, -17.867, -60] mm and rotate to [[-1, 0, 0], [0, 1, 0], [0, 0, -1]]]
  movej(p[0.588799,-0.016926,-0.06,0,3.141593,0], a=0.523599, v=0.349066, r=0.002)  # [Transform: move to [588.799, -16.926, -60] mm and rotate to [[-1, 0, 0], [0, 1, 0], [0, 0, -1]]]
  movej(p[0.591746,-0.016074,-0.06,0,3.141593,0], a=0.523599, v=0.349066, r=0.002)  # [Transform: move to [591.746, -16.074, -60] mm and rotate to [[-1, 0, 0], [0, 1, 0], [0, 0, -1]]]
  movej(p[0.594717,-0.015312,-0.06,0,3.141593,0], a=0.523599, v=0.349066, r=0.002)  # [Transform: move to [594.717, -15.312, -60] mm and rotate to [[-1, 0, 0], [0, 1, 0], [0, 0, -1]]]
  movej(p[0.59771,-0.01464,-0.06,0,3.141593,0], a=0.523599, v=0.349066, r=0.002)  # [Transform: move to [597.71, -14.64, -60] mm and rotate to [[-1, 0, 0], [0, 1, 0], [0, 0, -1]]]
  movej(p[0.600722,-0.01406,-0.06,0,3.141593,0], a=0.523599, v=0.349066, r=0.002)  # [Transform: move to [600.722, -14.06, -60] mm and rotate to [[-1, 0, 0], [0, 1, 0], [0, 0, -1]]]
  movej(p[0.60375,-0.013572,-0.06,0,3.141593,0], a=0.523599, v=0.349066, r=0.002)  # [Transform: move to [603.75, -13.572, -60] mm and rotate to [[-1, 0, 0], [0, 1, 0], [0, 0, -1]]]
  movej(p[0.606792,-0.013178,-0.06,0,3.141593,0], a=0.523599, v=0.349066, r=0.002)  # [Transform: move to [606.792, -13.178, -60] mm and rotate to [[-1, 0, 0], [0, 1, 0], [0, 0, -1]]]
  movej(p[0.609841,-0.012843,-0.06,0,3.141593,0], a=0.523599, v=0.349066, r=0.002)  # [Transform: move to [609.841, -12.843, -60] mm and rotate to [[-1, 0, 0], [0, 1, 0], [0, 0, -1]]]
  movej(p[0.612898,-0.012607,-0.06,0,3.141593,0], a=0.523599, v=0.349066, r=0.002)  # [Transform: move to [612.898, -12.607, -60] mm and rotate to [[-1, 0, 0], [0, 1, 0], [0, 0, -1]]]
  movej(p[0.615955,-0.012763,-0.06,0,3.141593,0], a=0.523599, v=0.349066, r=0.002)  # [Transform: move to [615.955, -12.763, -60] mm and rotate to [[-1, 0, 0], [0, 1, 0], [0, 0, -1]]]
  movej(p[0.618698,-0.014067,-0.06,0,3.141593,0], a=0.523599, v=0.349066, r=0.002)  # [Transform: move to [618.698, -14.067, -60] mm and rotate to [[-1, 0, 0], [0, 1, 0], [0, 0, -1]]]
  movej(p[0.620341,-0.0166,-0.06,0,3.141593,0], a=0.523599, v=0.349066, r=0.002)  # [Transform: move to [620.341, -16.6, -60] mm and rotate to [[-1, 0, 0], [0, 1, 0], [0, 0, -1]]]
  movej(p[0.620411,-0.019642,-0.06,0,3.141593,0], a=0.523599, v=0.349066, r=0.002)  # [Transform: move to [620.411, -19.642, -60] mm and rotate to [[-1, 0, 0], [0, 1, 0], [0, 0, -1]]]
  movej(p[0.61951,-0.022568,-0.06,0,3.141593,0], a=0.523599, v=0.349066, r=0.002)  # [Transform: move to [619.51, -22.568, -60] mm and rotate to [[-1, 0, 0], [0, 1, 0], [0, 0, -1]]]
  movej(p[0.6181,-0.025289,-0.06,0,3.141593,0], a=0.523599, v=0.349066, r=0.002)  # [Transform: move to [618.1, -25.289, -60] mm and rotate to [[-1, 0, 0], [0, 1, 0], [0, 0, -1]]]
  movej(p[0.616413,-0.02785,-0.06,0,3.141593,0], a=0.523599, v=0.349066, r=0.002)  # [Transform: move to [616.413, -27.85, -60] mm and rotate to [[-1, 0, 0], [0, 1, 0], [0, 0, -1]]]
  movej(p[0.614665,-0.030371,-0.06,0,3.141593,0], a=0.523599, v=0.349066, r=0.002)  # [Transform: move to [614.665, -30.371, -60] mm and rotate to [[-1, 0, 0], [0, 1, 0], [0, 0, -1]]]
  movej(p[0.612917,-0.032891,-0.06,0,3.141593,0], a=0.523599, v=0.349066, r=0.002)  # [Transform: move to [612.917, -32.891, -60] mm and rotate to [[-1, 0, 0], [0, 1, 0], [0, 0, -1]]]
  movej(p[0.611168,-0.035411,-0.06,0,3.141593,0], a=0.523599, v=0.349066, r=0.002)  # [Transform: move to [611.168, -35.411, -60] mm and rotate to [[-1, 0, 0], [0, 1, 0], [0, 0, -1]]]
  movej(p[0.60942,-0.037932,-0.06,0,3.141593,0], a=0.523599, v=0.349066, r=0.002)  # [Transform: move to [609.42, -37.932, -60] mm and rotate to [[-1, 0, 0], [0, 1, 0], [0, 0, -1]]]
  movej(p[0.607672,-0.040452,-0.06,0,3.141593,0], a=0.523599, v=0.349066, r=0.002)  # [Transform: move to [607.672, -40.452, -60] mm and rotate to [[-1, 0, 0], [0, 1, 0], [0, 0, -1]]]
  movej(p[0.605924,-0.042973,-0.06,0,3.141593,0], a=0.523599, v=0.349066, r=0.002)  # [Transform: move to [605.924, -42.973, -60] mm and rotate to [[-1, 0, 0], [0, 1, 0], [0, 0, -1]]]
  movej(p[0.604176,-0.045493,-0.06,0,3.141593,0], a=0.523599, v=0.349066, r=0.002)  # [Transform: move to [604.176, -45.493, -60] mm and rotate to [[-1, 0, 0], [0, 1, 0], [0, 0, -1]]]
  movej(p[0.602428,-0.048014,-0.06,0,3.141593,0], a=0.523599, v=0.349066, r=0.002)  # [Transform: move to [602.428, -48.014, -60] mm and rotate to [[-1, 0, 0], [0, 1, 0], [0, 0, -1]]]
  movej(p[0.60068,-0.050535,-0.06,0,3.141593,0], a=0.523599, v=0.349066, r=0.002)  # [Transform: move to [600.68, -50.535, -60] mm and rotate to [[-1, 0, 0], [0, 1, 0], [0, 0, -1]]]
  movej(p[0.598932,-0.053055,-0.06,0,3.141593,0], a=0.523599, v=0.349066, r=0.002)  # [Transform: move to [598.932, -53.055, -60] mm and rotate to [[-1, 0, 0], [0, 1, 0], [0, 0, -1]]]
  movej(p[0.597184,-0.055576,-0.06,0,3.141593,0], a=0.523599, v=0.349066, r=0.002)  # [Transform: move to [597.184, -55.576, -60] mm and rotate to [[-1, 0, 0], [0, 1, 0], [0, 0, -1]]]
  movej(p[0.595435,-0.058096,-0.06,0,3.141593,0], a=0.523599, v=0.349066, r=0.002)  # [Transform: move to [595.435, -58.096, -60] mm and rotate to [[-1, 0, 0], [0, 1, 0], [0, 0, -1]]]
  movej(p[0.593687,-0.060617,-0.06,0,3.141593,0], a=0.523599, v=0.349066, r=0.002)  # [Transform: move to [593.687, -60.617, -60] mm and rotate to [[-1, 0, 0], [0, 1, 0], [0, 0, -1]]]
  movej(p[0.591939,-0.063137,-0.06,0,3.141593,0], a=0.523599, v=0.349066, r=0.002)  # [Transform: move to [591.939, -63.137, -60] mm and rotate to [[-1, 0, 0], [0, 1, 0], [0, 0, -1]]]
  movej(p[0.590191,-0.065658,-0.06,0,3.141593,0], a=0.523599, v=0.349066, r=0.002)  # [Transform: move to [590.191, -65.658, -60] mm and rotate to [[-1, 0, 0], [0, 1, 0], [0, 0, -1]]]
  movej(p[0.588443,-0.068179,-0.06,0,3.141593,0], a=0.523599, v=0.349066, r=0.002)  # [Transform: move to [588.443, -68.179, -60] mm and rotate to [[-1, 0, 0], [0, 1, 0], [0, 0, -1]]]
  movej(p[0.586695,-0.070699,-0.06,0,3.141593,0], a=0.523599, v=0.349066, r=0.002)  # [Transform: move to [586.695, -70.699, -60] mm and rotate to [[-1, 0, 0], [0, 1, 0], [0, 0, -1]]]
  movej(p[0.584947,-0.07322,-0.06,0,3.141593,0], a=0.523599, v=0.349066, r=0.002)  # [Transform: move to [584.947, -73.22, -60] mm and rotate to [[-1, 0, 0], [0, 1, 0], [0, 0, -1]]]
  movej(p[0.583199,-0.07574,-0.06,0,3.141593,0], a=0.523599, v=0.349066, r=0.002)  # [Transform: move to [583.199, -75.74, -60] mm and rotate to [[-1, 0, 0], [0, 1, 0], [0, 0, -1]]]
  movej(p[0.58145,-0.078261,-0.06,0,3.141593,0], a=0.523599, v=0.349066, r=0.002)  # [Transform: move to [581.45, -78.261, -60] mm and rotate to [[-1, 0, 0], [0, 1, 0], [0, 0, -1]]]
  movej(p[0.579702,-0.080781,-0.06,0,3.141593,0], a=0.523599, v=0.349066, r=0.002)  # [Transform: move to [579.702, -80.781, -60] mm and rotate to [[-1, 0, 0], [0, 1, 0], [0, 0, -1]]]
  movej(p[0.577954,-0.083302,-0.06,0,3.141593,0], a=0.523599, v=0.349066, r=0.002)  # [Transform: move to [577.954, -83.302, -60] mm and rotate to [[-1, 0, 0], [0, 1, 0], [0, 0, -1]]]
  movej(p[0.576206,-0.085822,-0.06,0,3.141593,0], a=0.523599, v=0.349066, r=0.002)  # [Transform: move to [576.206, -85.822, -60] mm and rotate to [[-1, 0, 0], [0, 1, 0], [0, 0, -1]]]
  movej(p[0.574458,-0.088343,-0.06,0,3.141593,0], a=0.523599, v=0.349066, r=0.002)  # [Transform: move to [574.458, -88.343, -60] mm and rotate to [[-1, 0, 0], [0, 1, 0], [0, 0, -1]]]
  movej(p[0.57271,-0.090863,-0.06,0,3.141593,0], a=0.523599, v=0.349066, r=0.002)  # [Transform: move to [572.71, -90.863, -60] mm and rotate to [[-1, 0, 0], [0, 1, 0], [0, 0, -1]]]
  movej(p[0.570962,-0.093384,-0.06,0,3.141593,0], a=0.523599, v=0.349066, r=0.002)  # [Transform: move to [570.962, -93.384, -60] mm and rotate to [[-1, 0, 0], [0, 1, 0], [0, 0, -1]]]
  movej(p[0.570419,-0.09467,-0.06,0,3.141593,0], a=0.523599, v=0.349066, r=0.002)  # [Transform: move to [570.419, -94.67, -60] mm and rotate to [[-1, 0, 0], [0, 1, 0], [0, 0, -1]]]
  movej(p[0.572901,-0.092867,-0.06,0,3.141593,0], a=0.523599, v=0.349066, r=0.002)  # [Transform: move to [572.901, -92.867, -60] mm and rotate to [[-1, 0, 0], [0, 1, 0], [0, 0, -1]]]
  movej(p[0.575385,-0.091068,-0.06,0,3.141593,0], a=0.523599, v=0.349066, r=0.002)  # [Transform: move to [575.385, -91.068, -60] mm and rotate to [[-1, 0, 0], [0, 1, 0], [0, 0, -1]]]
  movej(p[0.57787,-0.089269,-0.06,0,3.141593,0], a=0.523599, v=0.349066, r=0.002)  # [Transform: move to [577.87, -89.269, -60] mm and rotate to [[-1, 0, 0], [0, 1, 0], [0, 0, -1]]]
  movej(p[0.580354,-0.087469,-0.06,0,3.141593,0], a=0.523599, v=0.349066, r=0.002)  # [Transform: move to [580.354, -87.469, -60] mm and rotate to [[-1, 0, 0], [0, 1, 0], [0, 0, -1]]]
  movej(p[0.582835,-0.085665,-0.06,0,3.141593,0], a=0.523599, v=0.349066, r=0.002)  # [Transform: move to [582.835, -85.665, -60] mm and rotate to [[-1, 0, 0], [0, 1, 0], [0, 0, -1]]]
  movej(p[0.585312,-0.083856,-0.06,0,3.141593,0], a=0.523599, v=0.349066, r=0.002)  # [Transform: move to [585.312, -83.856, -60] mm and rotate to [[-1, 0, 0], [0, 1, 0], [0, 0, -1]]]
  movej(p[0.587783,-0.082039,-0.06,0,3.141593,0], a=0.523599, v=0.349066, r=0.002)  # [Transform: move to [587.783, -82.039, -60] mm and rotate to [[-1, 0, 0], [0, 1, 0], [0, 0, -1]]]
  movej(p[0.590247,-0.080212,-0.06,0,3.141593,0], a=0.523599, v=0.349066, r=0.002)  # [Transform: move to [590.247, -80.212, -60] mm and rotate to [[-1, 0, 0], [0, 1, 0], [0, 0, -1]]]
  movej(p[0.5927,-0.07837,-0.06,0,3.141593,0], a=0.523599, v=0.349066, r=0.002)  # [Transform: move to [592.7, -78.37, -60] mm and rotate to [[-1, 0, 0], [0, 1, 0], [0, 0, -1]]]
  movej(p[0.595135,-0.076505,-0.06,0,3.141593,0], a=0.523599, v=0.349066, r=0.002)  # [Transform: move to [595.135, -76.505, -60] mm and rotate to [[-1, 0, 0], [0, 1, 0], [0, 0, -1]]]
  movej(p[0.597559,-0.074625,-0.06,0,3.141593,0], a=0.523599, v=0.349066, r=0.002)  # [Transform: move to [597.559, -74.625, -60] mm and rotate to [[-1, 0, 0], [0, 1, 0], [0, 0, -1]]]
  movej(p[0.599978,-0.07274,-0.06,0,3.141593,0], a=0.523599, v=0.349066, r=0.002)  # [Transform: move to [599.978, -72.74, -60] mm and rotate to [[-1, 0, 0], [0, 1, 0], [0, 0, -1]]]
  movej(p[0.602401,-0.070858,-0.06,0,3.141593,0], a=0.523599, v=0.349066, r=0.002)  # [Transform: move to [602.401, -70.858, -60] mm and rotate to [[-1, 0, 0], [0, 1, 0], [0, 0, -1]]]
  movej(p[0.604833,-0.068989,-0.06,0,3.141593,0], a=0.523599, v=0.349066, r=0.002)  # [Transform: move to [604.833, -68.989, -60] mm and rotate to [[-1, 0, 0], [0, 1, 0], [0, 0, -1]]]
  movej(p[0.607282,-0.067142,-0.06,0,3.141593,0], a=0.523599, v=0.349066, r=0.002)  # [Transform: move to [607.282, -67.142, -60] mm and rotate to [[-1, 0, 0], [0, 1, 0], [0, 0, -1]]]
  movej(p[0.609755,-0.065327,-0.06,0,3.141593,0], a=0.523599, v=0.349066, r=0.002)  # [Transform: move to [609.755, -65.327, -60] mm and rotate to [[-1, 0, 0], [0, 1, 0], [0, 0, -1]]]
  movej(p[0.612257,-0.063552,-0.06,0,3.141593,0], a=0.523599, v=0.349066, r=0.002)  # [Transform: move to [612.257, -63.552, -60] mm and rotate to [[-1, 0, 0], [0, 1, 0], [0, 0, -1]]]
  movej(p[0.614795,-0.06183,-0.06,0,3.141593,0], a=0.523599, v=0.349066, r=0.002)  # [Transform: move to [614.795, -61.83, -60] mm and rotate to [[-1, 0, 0], [0, 1, 0], [0, 0, -1]]]
  movej(p[0.617375,-0.060171,-0.06,0,3.141593,0], a=0.523599, v=0.349066, r=0.002)  # [Transform: move to [617.375, -60.171, -60] mm and rotate to [[-1, 0, 0], [0, 1, 0], [0, 0, -1]]]
  movej(p[0.620002,-0.058588,-0.06,0,3.141593,0], a=0.523599, v=0.349066, r=0.002)  # [Transform: move to [620.002, -58.588, -60] mm and rotate to [[-1, 0, 0], [0, 1, 0], [0, 0, -1]]]
  movej(p[0.622645,-0.05703,-0.06,0,3.141593,0], a=0.523599, v=0.349066, r=0.002)  # [Transform: move to [622.645, -57.03, -60] mm and rotate to [[-1, 0, 0], [0, 1, 0], [0, 0, -1]]]
  movej(p[0.625389,-0.055666,-0.06,0,3.141593,0], a=0.523599, v=0.349066, r=0.002)  # [Transform: move to [625.389, -55.666, -60] mm and rotate to [[-1, 0, 0], [0, 1, 0], [0, 0, -1]]]
  movej(p[0.628358,-0.054951,-0.06,0,3.141593,0], a=0.523599, v=0.349066, r=0.002)  # [Transform: move to [628.358, -54.951, -60] mm and rotate to [[-1, 0, 0], [0, 1, 0], [0, 0, -1]]]
  movej(p[0.631356,-0.055461,-0.06,0,3.141593,0], a=0.523599, v=0.349066, r=0.002)  # [Transform: move to [631.356, -55.461, -60] mm and rotate to [[-1, 0, 0], [0, 1, 0], [0, 0, -1]]]
  movej(p[0.633863,-0.05719,-0.06,0,3.141593,0], a=0.523599, v=0.349066, r=0.002)  # [Transform: move to [633.863, -57.19, -60] mm and rotate to [[-1, 0, 0], [0, 1, 0], [0, 0, -1]]]
  movej(p[0.63548,-0.059771,-0.06,0,3.141593,0], a=0.523599, v=0.349066, r=0.002)  # [Transform: move to [635.48, -59.771, -60] mm and rotate to [[-1, 0, 0], [0, 1, 0], [0, 0, -1]]]
  movej(p[0.635874,-0.062787,-0.06,0,3.141593,0], a=0.523599, v=0.349066, r=0.002)  # [Transform: move to [635.874, -62.787, -60] mm and rotate to [[-1, 0, 0], [0, 1, 0], [0, 0, -1]]]
  movej(p[0.634924,-0.065684,-0.06,0,3.141593,0], a=0.523599, v=0.349066, r=0.002)  # [Transform: move to [634.924, -65.684, -60] mm and rotate to [[-1, 0, 0], [0, 1, 0], [0, 0, -1]]]
  movej(p[0.633369,-0.068327,-0.06,0,3.141593,0], a=0.523599, v=0.349066, r=0.002)  # [Transform: move to [633.369, -68.327, -60] mm and rotate to [[-1, 0, 0], [0, 1, 0], [0, 0, -1]]]
  movej(p[0.631791,-0.070958,-0.06,0,3.141593,0], a=0.523599, v=0.349066, r=0.002)  # [Transform: move to [631.791, -70.958, -60] mm and rotate to [[-1, 0, 0], [0, 1, 0], [0, 0, -1]]]
  movej(p[0.630213,-0.073588,-0.06,0,3.141593,0], a=0.523599, v=0.349066, r=0.002)  # [Transform: move to [630.213, -73.588, -60] mm and rotate to [[-1, 0, 0], [0, 1, 0], [0, 0, -1]]]
  movej(p[0.628635,-0.076219,-0.06,0,3.141593,0], a=0.523599, v=0.349066, r=0.002)  # [Transform: move to [628.635, -76.219, -60] mm and rotate to [[-1, 0, 0], [0, 1, 0], [0, 0, -1]]]
  movej(p[0.627058,-0.07885,-0.06,0,3.141593,0], a=0.523599, v=0.349066, r=0.002)  # [Transform: move to [627.058, -78.85, -60] mm and rotate to [[-1, 0, 0], [0, 1, 0], [0, 0, -1]]]
  movej(p[0.62548,-0.08148,-0.06,0,3.141593,0], a=0.523599, v=0.349066, r=0.002)  # [Transform: move to [625.48, -81.48, -60] mm and rotate to [[-1, 0, 0], [0, 1, 0], [0, 0, -1]]]
  movej(p[0.623902,-0.084111,-0.06,0,3.141593,0], a=0.523599, v=0.349066, r=0.002)  # [Transform: move to [623.902, -84.111, -60] mm and rotate to [[-1, 0, 0], [0, 1, 0], [0, 0, -1]]]
  movej(p[0.622316,-0.086736,-0.06,0,3.141593,0], a=0.523599, v=0.349066, r=0.002)  # [Transform: move to [622.316, -86.736, -60] mm and rotate to [[-1, 0, 0], [0, 1, 0], [0, 0, -1]]]
  movej(p[0.620845,-0.089425,-0.06,0,3.141593,0], a=0.523599, v=0.349066, r=0.002)  # [Transform: move to [620.845, -89.425, -60] mm and rotate to [[-1, 0, 0], [0, 1, 0], [0, 0, -1]]]
  movej(p[0.620284,-0.092408,-0.06,0,3.141593,0], a=0.523599, v=0.349066, r=0.002)  # [Transform: move to [620.284, -92.408, -60] mm and rotate to [[-1, 0, 0], [0, 1, 0], [0, 0, -1]]]
  movej(p[0.621481,-0.095177,-0.06,0,3.141593,0], a=0.523599, v=0.349066, r=0.002)  # [Transform: move to [621.481, -95.177, -60] mm and rotate to [[-1, 0, 0], [0, 1, 0], [0, 0, -1]]]
  movej(p[0.624183,-0.096488,-0.06,0,3.141593,0], a=0.523599, v=0.349066, r=0.002)  # [Transform: move to [624.183, -96.488, -60] mm and rotate to [[-1, 0, 0], [0, 1, 0], [0, 0, -1]]]
  movej(p[0.627232,-0.096322,-0.06,0,3.141593,0], a=0.523599, v=0.349066, r=0.002)  # [Transform: move to [627.232, -96.322, -60] mm and rotate to [[-1, 0, 0], [0, 1, 0], [0, 0, -1]]]
  movej(p[0.630216,-0.095614,-0.06,0,3.141593,0], a=0.523599, v=0.349066, r=0.002)  # [Transform: move to [630.216, -95.614, -60] mm and rotate to [[-1, 0, 0], [0, 1, 0], [0, 0, -1]]]
  movej(p[0.633152,-0.094725,-0.06,0,3.141593,0], a=0.523599, v=0.349066, r=0.002)  # [Transform: move to [633.152, -94.725, -60] mm and rotate to [[-1, 0, 0], [0, 1, 0], [0, 0, -1]]]
  movej(p[0.636044,-0.093703,-0.06,0,3.141593,0], a=0.523599, v=0.349066, r=0.002)  # [Transform: move to [636.044, -93.703, -60] mm and rotate to [[-1, 0, 0], [0, 1, 0], [0, 0, -1]]]
  movej(p[0.638902,-0.092589,-0.06,0,3.141593,0], a=0.523599, v=0.349066, r=0.002)  # [Transform: move to [638.902, -92.589, -60] mm and rotate to [[-1, 0, 0], [0, 1, 0], [0, 0, -1]]]
  movej(p[0.641721,-0.09138,-0.06,0,3.141593,0], a=0.523599, v=0.349066, r=0.002)  # [Transform: move to [641.721, -91.38, -60] mm and rotate to [[-1, 0, 0], [0, 1, 0], [0, 0, -1]]]
  movej(p[0.644494,-0.090069,-0.06,0,3.141593,0], a=0.523599, v=0.349066, r=0.002)  # [Transform: move to [644.494, -90.069, -60] mm and rotate to [[-1, 0, 0], [0, 1, 0], [0, 0, -1]]]
  movej(p[0.647215,-0.088655,-0.06,0,3.141593,0], a=0.523599, v=0.349066, r=0.002)  # [Transform: move to [647.215, -88.655, -60] mm and rotate to [[-1, 0, 0], [0, 1, 0], [0, 0, -1]]]
  movej(p[0.64988,-0.087135,-0.06,0,3.141593,0], a=0.523599, v=0.349066, r=0.002)  # [Transform: move to [649.88, -87.135, -60] mm and rotate to [[-1, 0, 0], [0, 1, 0], [0, 0, -1]]]
  movej(p[0.65248,-0.085509,-0.06,0,3.141593,0], a=0.523599, v=0.349066, r=0.002)  # [Transform: move to [652.48, -85.509, -60] mm and rotate to [[-1, 0, 0], [0, 1, 0], [0, 0, -1]]]
  movej(p[0.65501,-0.083775,-0.06,0,3.141593,0], a=0.523599, v=0.349066, r=0.002)  # [Transform: move to [655.01, -83.775, -60] mm and rotate to [[-1, 0, 0], [0, 1, 0], [0, 0, -1]]]
  movej(p[0.657462,-0.081932,-0.06,0,3.141593,0], a=0.523599, v=0.349066, r=0.002)  # [Transform: move to [657.462, -81.932, -60] mm and rotate to [[-1, 0, 0], [0, 1, 0], [0, 0, -1]]]
  movej(p[0.659817,-0.079967,-0.06,0,3.141593,0], a=0.523599, v=0.349066, r=0.002)  # [Transform: move to [659.817, -79.967, -60] mm and rotate to [[-1, 0, 0], [0, 1, 0], [0, 0, -1]]]
  movej(p[0.662037,-0.077852,-0.06,0,3.141593,0], a=0.523599, v=0.349066, r=0.002)  # [Transform: move to [662.037, -77.852, -60] mm and rotate to [[-1, 0, 0], [0, 1, 0], [0, 0, -1]]]
  movej(p[0.664084,-0.075569,-0.06,0,3.141593,0], a=0.523599, v=0.349066, r=0.002)  # [Transform: move to [664.084, -75.569, -60] mm and rotate to [[-1, 0, 0], [0, 1, 0], [0, 0, -1]]]
  movej(p[0.665904,-0.073101,-0.06,0,3.141593,0], a=0.523599, v=0.349066, r=0.002)  # [Transform: move to [665.904, -73.101, -60] mm and rotate to [[-1, 0, 0], [0, 1, 0], [0, 0, -1]]]
  movej(p[0.667426,-0.07044,-0.06,0,3.141593,0], a=0.523599, v=0.349066, r=0.002)  # [Transform: move to [667.426, -70.44, -60] mm and rotate to [[-1, 0, 0], [0, 1, 0], [0, 0, -1]]]
  movej(p[0.668562,-0.067594,-0.06,0,3.141593,0], a=0.523599, v=0.349066, r=0.002)  # [Transform: move to [668.562, -67.594, -60] mm and rotate to [[-1, 0, 0], [0, 1, 0], [0, 0, -1]]]
  movej(p[0.669225,-0.064603,-0.06,0,3.141593,0], a=0.523599, v=0.349066, r=0.002)  # [Transform: move to [669.225, -64.603, -60] mm and rotate to [[-1, 0, 0], [0, 1, 0], [0, 0, -1]]]
  movej(p[0.669318,-0.061542,-0.06,0,3.141593,0], a=0.523599, v=0.349066, r=0.002)  # [Transform: move to [669.318, -61.542, -60] mm and rotate to [[-1, 0, 0], [0, 1, 0], [0, 0, -1]]]
  movej(p[0.667502,-0.06121,-0.06,0,3.141593,0], a=0.523599, v=0.349066, r=0.002)  # [Transform: move to [667.502, -61.21, -60] mm and rotate to [[-1, 0, 0], [0, 1, 0], [0, 0, -1]]]
  movej(p[0.66483,-0.062715,-0.06,0,3.141593,0], a=0.523599, v=0.349066, r=0.002)  # [Transform: move to [664.83, -62.715, -60] mm and rotate to [[-1, 0, 0], [0, 1, 0], [0, 0, -1]]]
  movej(p[0.662271,-0.064405,-0.06,0,3.141593,0], a=0.523599, v=0.349066, r=0.002)  # [Transform: move to [662.271, -64.405, -60] mm and rotate to [[-1, 0, 0], [0, 1, 0], [0, 0, -1]]]
  movej(p[0.659837,-0.066271,-0.06,0,3.141593,0], a=0.523599, v=0.349066, r=0.002)  # [Transform: move to [659.837, -66.271, -60] mm and rotate to [[-1, 0, 0], [0, 1, 0], [0, 0, -1]]]
  movej(p[0.65754,-0.068304,-0.06,0,3.141593,0], a=0.523599, v=0.349066, r=0.002)  # [Transform: move to [657.54, -68.304, -60] mm and rotate to [[-1, 0, 0], [0, 1, 0], [0, 0, -1]]]
  movej(p[0.655393,-0.070493,-0.06,0,3.141593,0], a=0.523599, v=0.349066, r=0.002)  # [Transform: move to [655.393, -70.493, -60] mm and rotate to [[-1, 0, 0], [0, 1, 0], [0, 0, -1]]]
  movej(p[0.653407,-0.07283,-0.06,0,3.141593,0], a=0.523599, v=0.349066, r=0.002)  # [Transform: move to [653.407, -72.83, -60] mm and rotate to [[-1, 0, 0], [0, 1, 0], [0, 0, -1]]]
  movej(p[0.651592,-0.075302,-0.06,0,3.141593,0], a=0.523599, v=0.349066, r=0.002)  # [Transform: move to [651.592, -75.302, -60] mm and rotate to [[-1, 0, 0], [0, 1, 0], [0, 0, -1]]]
  movej(p[0.649959,-0.077898,-0.06,0,3.141593,0], a=0.523599, v=0.349066, r=0.002)  # [Transform: move to [649.959, -77.898, -60] mm and rotate to [[-1, 0, 0], [0, 1, 0], [0, 0, -1]]]
  movej(p[0.648546,-0.080619,-0.06,0,3.141593,0], a=0.523599, v=0.349066, r=0.002)  # [Transform: move to [648.546, -80.619, -60] mm and rotate to [[-1, 0, 0], [0, 1, 0], [0, 0, -1]]]
  movej(p[0.647937,-0.083593,-0.06,0,3.141593,0], a=0.523599, v=0.349066, r=0.002)  # [Transform: move to [647.937, -83.593, -60] mm and rotate to [[-1, 0, 0], [0, 1, 0], [0, 0, -1]]]
  movej(p[0.649688,-0.085935,-0.06,0,3.141593,0], a=0.523599, v=0.349066, r=0.002)  # [Transform: move to [649.688, -85.935, -60] mm and rotate to [[-1, 0, 0], [0, 1, 0], [0, 0, -1]]]
  movej(p[0.652666,-0.086607,-0.06,0,3.141593,0], a=0.523599, v=0.349066, r=0.002)  # [Transform: move to [652.666, -86.607, -60] mm and rotate to [[-1, 0, 0], [0, 1, 0], [0, 0, -1]]]
  movej(p[0.655724,-0.086834,-0.06,0,3.141593,0], a=0.523599, v=0.349066, r=0.002)  # [Transform: move to [655.724, -86.834, -60] mm and rotate to [[-1, 0, 0], [0, 1, 0], [0, 0, -1]]]
  movej(p[0.658791,-0.08681,-0.06,0,3.141593,0], a=0.523599, v=0.349066, r=0.002)  # [Transform: move to [658.791, -86.81, -60] mm and rotate to [[-1, 0, 0], [0, 1, 0], [0, 0, -1]]]
  movej(p[0.661846,-0.086545,-0.06,0,3.141593,0], a=0.523599, v=0.349066, r=0.002)  # [Transform: move to [661.846, -86.545, -60] mm and rotate to [[-1, 0, 0], [0, 1, 0], [0, 0, -1]]]
  movej(p[0.664872,-0.086046,-0.06,0,3.141593,0], a=0.523599, v=0.349066, r=0.002)  # [Transform: move to [664.872, -86.046, -60] mm and rotate to [[-1, 0, 0], [0, 1, 0], [0, 0, -1]]]
  movej(p[0.667852,-0.085322,-0.06,0,3.141593,0], a=0.523599, v=0.349066, r=0.002)  # [Transform: move to [667.852, -85.322, -60] mm and rotate to [[-1, 0, 0], [0, 1, 0], [0, 0, -1]]]
  movej(p[0.670771,-0.084382,-0.06,0,3.141593,0], a=0.523599, v=0.349066, r=0.002)  # [Transform: move to [670.771, -84.382, -60] mm and rotate to [[-1, 0, 0], [0, 1, 0], [0, 0, -1]]]
  movej(p[0.673615,-0.083234,-0.06,0,3.141593,0], a=0.523599, v=0.349066, r=0.002)  # [Transform: move to [673.615, -83.234, -60] mm and rotate to [[-1, 0, 0], [0, 1, 0], [0, 0, -1]]]
  movej(p[0.67637,-0.081887,-0.06,0,3.141593,0], a=0.523599, v=0.349066, r=0.002)  # [Transform: move to [676.37, -81.887, -60] mm and rotate to [[-1, 0, 0], [0, 1, 0], [0, 0, -1]]]
  movej(p[0.679022,-0.080347,-0.06,0,3.141593,0], a=0.523599, v=0.349066, r=0.002)  # [Transform: move to [679.022, -80.347, -60] mm and rotate to [[-1, 0, 0], [0, 1, 0], [0, 0, -1]]]
  movej(p[0.681558,-0.078623,-0.06,0,3.141593,0], a=0.523599, v=0.349066, r=0.002)  # [Transform: move to [681.558, -78.623, -60] mm and rotate to [[-1, 0, 0], [0, 1, 0], [0, 0, -1]]]
  movej(p[0.683962,-0.076719,-0.06,0,3.141593,0], a=0.523599, v=0.349066, r=0.002)  # [Transform: move to [683.962, -76.719, -60] mm and rotate to [[-1, 0, 0], [0, 1, 0], [0, 0, -1]]]
  movej(p[0.68622,-0.074643,-0.06,0,3.141593,0], a=0.523599, v=0.349066, r=0.002)  # [Transform: move to [686.22, -74.643, -60] mm and rotate to [[-1, 0, 0], [0, 1, 0], [0, 0, -1]]]
  movej(p[0.688316,-0.072405,-0.06,0,3.141593,0], a=0.523599, v=0.349066, r=0.002)  # [Transform: move to [688.316, -72.405, -60] mm and rotate to [[-1, 0, 0], [0, 1, 0], [0, 0, -1]]]
  movej(p[0.690236,-0.070014,-0.06,0,3.141593,0], a=0.523599, v=0.349066, r=0.002)  # [Transform: move to [690.236, -70.014, -60] mm and rotate to [[-1, 0, 0], [0, 1, 0], [0, 0, -1]]]
  movej(p[0.691964,-0.06748,-0.06,0,3.141593,0], a=0.523599, v=0.349066, r=0.002)  # [Transform: move to [691.964, -67.48, -60] mm and rotate to [[-1, 0, 0], [0, 1, 0], [0, 0, -1]]]
  movej(p[0.693486,-0.064818,-0.06,0,3.141593,0], a=0.523599, v=0.349066, r=0.002)  # [Transform: move to [693.486, -64.818, -60] mm and rotate to [[-1, 0, 0], [0, 1, 0], [0, 0, -1]]]
  movej(p[0.692021,-0.065116,-0.06,0,3.141593,0], a=0.523599, v=0.349066, r=0.002)  # [Transform: move to [692.021, -65.116, -60] mm and rotate to [[-1, 0, 0], [0, 1, 0], [0, 0, -1]]]
  movej(p[0.689575,-0.066962,-0.06,0,3.141593,0], a=0.523599, v=0.349066, r=0.002)  # [Transform: move to [689.575, -66.962, -60] mm and rotate to [[-1, 0, 0], [0, 1, 0], [0, 0, -1]]]
  movej(p[0.687394,-0.069117,-0.06,0,3.141593,0], a=0.523599, v=0.349066, r=0.002)  # [Transform: move to [687.394, -69.117, -60] mm and rotate to [[-1, 0, 0], [0, 1, 0], [0, 0, -1]]]
  movej(p[0.685513,-0.071537,-0.06,0,3.141593,0], a=0.523599, v=0.349066, r=0.002)  # [Transform: move to [685.513, -71.537, -60] mm and rotate to [[-1, 0, 0], [0, 1, 0], [0, 0, -1]]]
  movej(p[0.683963,-0.074181,-0.06,0,3.141593,0], a=0.523599, v=0.349066, r=0.002)  # [Transform: move to [683.963, -74.181, -60] mm and rotate to [[-1, 0, 0], [0, 1, 0], [0, 0, -1]]]
  movej(p[0.682773,-0.077006,-0.06,0,3.141593,0], a=0.523599, v=0.349066, r=0.002)  # [Transform: move to [682.773, -77.006, -60] mm and rotate to [[-1, 0, 0], [0, 1, 0], [0, 0, -1]]]
  movej(p[0.681968,-0.079963,-0.06,0,3.141593,0], a=0.523599, v=0.349066, r=0.002)  # [Transform: move to [681.968, -79.963, -60] mm and rotate to [[-1, 0, 0], [0, 1, 0], [0, 0, -1]]]
  movej(p[0.683385,-0.081584,-0.06,0,3.141593,0], a=0.523599, v=0.349066, r=0.002)  # [Transform: move to [683.385, -81.584, -60] mm and rotate to [[-1, 0, 0], [0, 1, 0], [0, 0, -1]]]
  movej(p[0.686447,-0.081719,-0.06,0,3.141593,0], a=0.523599, v=0.349066, r=0.002)  # [Transform: move to [686.447, -81.719, -60] mm and rotate to [[-1, 0, 0], [0, 1, 0], [0, 0, -1]]]
  movej(p[0.689502,-0.081464,-0.06,0,3.141593,0], a=0.523599, v=0.349066, r=0.002)  # [Transform: move to [689.502, -81.464, -60] mm and rotate to [[-1, 0, 0], [0, 1, 0], [0, 0, -1]]]
  movej(p[0.692503,-0.080838,-0.06,0,3.141593,0], a=0.523599, v=0.349066, r=0.002)  # [Transform: move to [692.503, -80.838, -60] mm and rotate to [[-1, 0, 0], [0, 1, 0], [0, 0, -1]]]
  movej(p[0.695407,-0.079857,-0.06,0,3.141593,0], a=0.523599, v=0.349066, r=0.002)  # [Transform: move to [695.407, -79.857, -60] mm and rotate to [[-1, 0, 0], [0, 1, 0], [0, 0, -1]]]
  movej(p[0.698177,-0.078542,-0.06,0,3.141593,0], a=0.523599, v=0.349066, r=0.002)  # [Transform: move to [698.177, -78.542, -60] mm and rotate to [[-1, 0, 0], [0, 1, 0], [0, 0, -1]]]
  movej(p[0.700772,-0.07691,-0.06,0,3.141593,0], a=0.523599, v=0.349066, r=0.002)  # [Transform: move to [700.772, -76.91, -60] mm and rotate to [[-1, 0, 0], [0, 1, 0], [0, 0, -1]]]
  movej(p[0.703154,-0.07498,-0.06,0,3.141593,0], a=0.523599, v=0.349066, r=0.002)  # [Transform: move to [703.154, -74.98, -60] mm and rotate to [[-1, 0, 0], [0, 1, 0], [0, 0, -1]]]
  movej(p[0.705282,-0.072774,-0.06,0,3.141593,0], a=0.523599, v=0.349066, r=0.002)  # [Transform: move to [705.282, -72.774, -60] mm and rotate to [[-1, 0, 0], [0, 1, 0], [0, 0, -1]]]
  movej(p[0.707114,-0.070317,-0.06,0,3.141593,0], a=0.523599, v=0.349066, r=0.002)  # [Transform: move to [707.114, -70.317, -60] mm and rotate to [[-1, 0, 0], [0, 1, 0], [0, 0, -1]]]
  movej(p[0.707161,-0.069483,-0.06,0,3.141593,0], a=0.523599, v=0.349066, r=0.002)  # [Transform: move to [707.161, -69.483, -60] mm and rotate to [[-1, 0, 0], [0, 1, 0], [0, 0, -1]]]
  movej(p[0.704925,-0.071581,-0.06,0,3.141593,0], a=0.523599, v=0.349066, r=0.002)  # [Transform: move to [704.925, -71.581, -60] mm and rotate to [[-1, 0, 0], [0, 1, 0], [0, 0, -1]]]
  movej(p[0.702975,-0.073944,-0.06,0,3.141593,0], a=0.523599, v=0.349066, r=0.002)  # [Transform: move to [702.975, -73.944, -60] mm and rotate to [[-1, 0, 0], [0, 1, 0], [0, 0, -1]]]
  movej(p[0.701625,-0.076685,-0.06,0,3.141593,0], a=0.523599, v=0.349066, r=0.002)  # [Transform: move to [701.625, -76.685, -60] mm and rotate to [[-1, 0, 0], [0, 1, 0], [0, 0, -1]]]
  movej(p[0.701372,-0.079718,-0.06,0,3.141593,0], a=0.523599, v=0.349066, r=0.002)  # [Transform: move to [701.372, -79.718, -60] mm and rotate to [[-1, 0, 0], [0, 1, 0], [0, 0, -1]]]
  movej(p[0.702465,-0.082552,-0.06,0,3.141593,0], a=0.523599, v=0.349066, r=0.002)  # [Transform: move to [702.465, -82.552, -60] mm and rotate to [[-1, 0, 0], [0, 1, 0], [0, 0, -1]]]
  movej(p[0.70484,-0.084424,-0.06,0,3.141593,0], a=0.523599, v=0.349066, r=0.002)  # [Transform: move to [704.84, -84.424, -60] mm and rotate to [[-1, 0, 0], [0, 1, 0], [0, 0, -1]]]
  movej(p[0.707862,-0.084771,-0.06,0,3.141593,0], a=0.523599, v=0.349066, r=0.002)  # [Transform: move to [707.862, -84.771, -60] mm and rotate to [[-1, 0, 0], [0, 1, 0], [0, 0, -1]]]
  movej(p[0.710861,-0.084156,-0.06,0,3.141593,0], a=0.523599, v=0.349066, r=0.002)  # [Transform: move to [710.861, -84.156, -60] mm and rotate to [[-1, 0, 0], [0, 1, 0], [0, 0, -1]]]
  movej(p[0.713721,-0.083057,-0.06,0,3.141593,0], a=0.523599, v=0.349066, r=0.002)  # [Transform: move to [713.721, -83.057, -60] mm and rotate to [[-1, 0, 0], [0, 1, 0], [0, 0, -1]]]
  movej(p[0.716377,-0.081528,-0.06,0,3.141593,0], a=0.523599, v=0.349066, r=0.002)  # [Transform: move to [716.377, -81.528, -60] mm and rotate to [[-1, 0, 0], [0, 1, 0], [0, 0, -1]]]
  movej(p[0.718781,-0.079627,-0.06,0,3.141593,0], a=0.523599, v=0.349066, r=0.002)  # [Transform: move to [718.781, -79.627, -60] mm and rotate to [[-1, 0, 0], [0, 1, 0], [0, 0, -1]]]
  movej(p[0.720903,-0.077415,-0.06,0,3.141593,0], a=0.523599, v=0.349066, r=0.002)  # [Transform: move to [720.903, -77.415, -60] mm and rotate to [[-1, 0, 0], [0, 1, 0], [0, 0, -1]]]
  movej(p[0.722723,-0.074948,-0.06,0,3.141593,0], a=0.523599, v=0.349066, r=0.002)  # [Transform: move to [722.723, -74.948, -60] mm and rotate to [[-1, 0, 0], [0, 1, 0], [0, 0, -1]]]
  movej(p[0.724223,-0.072274,-0.06,0,3.141593,0], a=0.523599, v=0.349066, r=0.002)  # [Transform: move to [724.223, -72.274, -60] mm and rotate to [[-1, 0, 0], [0, 1, 0], [0, 0, -1]]]
  movej(p[0.725386,-0.069438,-0.06,0,3.141593,0], a=0.523599, v=0.349066, r=0.002)  # [Transform: move to [725.386, -69.438, -60] mm and rotate to [[-1, 0, 0], [0, 1, 0], [0, 0, -1]]]
  movej(p[0.72619,-0.06648,-0.06,0,3.141593,0], a=0.523599, v=0.349066, r=0.002)  # [Transform: move to [726.19, -66.48, -60] mm and rotate to [[-1, 0, 0], [0, 1, 0], [0, 0, -1]]]
  movej(p[0.726601,-0.063443,-0.06,0,3.141593,0], a=0.523599, v=0.349066, r=0.002)  # [Transform: move to [726.601, -63.443, -60] mm and rotate to [[-1, 0, 0], [0, 1, 0], [0, 0, -1]]]
  movej(p[0.726589,-0.060378,-0.06,0,3.141593,0], a=0.523599, v=0.349066, r=0.002)  # [Transform: move to [726.589, -60.378, -60] mm and rotate to [[-1, 0, 0], [0, 1, 0], [0, 0, -1]]]
  movej(p[0.726134,-0.057347,-0.06,0,3.141593,0], a=0.523599, v=0.349066, r=0.002)  # [Transform: move to [726.134, -57.347, -60] mm and rotate to [[-1, 0, 0], [0, 1, 0], [0, 0, -1]]]
  movej(p[0.725223,-0.054421,-0.06,0,3.141593,0], a=0.523599, v=0.349066, r=0.002)  # [Transform: move to [725.223, -54.421, -60] mm and rotate to [[-1, 0, 0], [0, 1, 0], [0, 0, -1]]]
  movej(p[0.725223,-0.054421,-0.01,0,3.141593,0], a=0.523599, v=0.349066, r=0.002)  # [Transform: move to [725.223, -54.421, -10] mm and rotate to [[-1, 0, 0], [0, 1, 0], [0, 0, -1]]]
  movej(p[0.739232,-0.049387,-0.01,0,3.141593,0], a=0.523599, v=0.349066, r=0.002)  # [Transform: move to [739.232, -49.387, -10] mm and rotate to [[-1, 0, 0], [0, 1, 0], [0, 0, -1]]]
  movej(p[0.739232,-0.049387,-0.06,0,3.141593,0], a=0.523599, v=0.349066, r=0.002)  # [Transform: move to [739.232, -49.387, -60] mm and rotate to [[-1, 0, 0], [0, 1, 0], [0, 0, -1]]]
  movej(p[0.741939,-0.047841,-0.06,0,3.141593,0], a=0.523599, v=0.349066, r=0.002)  # [Transform: move to [741.939, -47.841, -60] mm and rotate to [[-1, 0, 0], [0, 1, 0], [0, 0, -1]]]
  movej(p[0.744749,-0.04649,-0.06,0,3.141593,0], a=0.523599, v=0.349066, r=0.002)  # [Transform: move to [744.749, -46.49, -60] mm and rotate to [[-1, 0, 0], [0, 1, 0], [0, 0, -1]]]
  movej(p[0.747648,-0.045342,-0.06,0,3.141593,0], a=0.523599, v=0.349066, r=0.002)  # [Transform: move to [747.648, -45.342, -60] mm and rotate to [[-1, 0, 0], [0, 1, 0], [0, 0, -1]]]
  movej(p[0.750622,-0.044407,-0.06,0,3.141593,0], a=0.523599, v=0.349066, r=0.002)  # [Transform: move to [750.622, -44.407, -60] mm and rotate to [[-1, 0, 0], [0, 1, 0], [0, 0, -1]]]
  movej(p[0.753657,-0.043692,-0.06,0,3.141593,0], a=0.523599, v=0.349066, r=0.002)  # [Transform: move to [753.657, -43.692, -60] mm and rotate to [[-1, 0, 0], [0, 1, 0], [0, 0, -1]]]
  movej(p[0.756729,-0.043162,-0.06,0,3.141593,0], a=0.523599, v=0.349066, r=0.002)  # [Transform: move to [756.729, -43.162, -60] mm and rotate to [[-1, 0, 0], [0, 1, 0], [0, 0, -1]]]
  movej(p[0.758332,-0.045015,-0.06,0,3.141593,0], a=0.523599, v=0.349066, r=0.002)  # [Transform: move to [758.332, -45.015, -60] mm and rotate to [[-1, 0, 0], [0, 1, 0], [0, 0, -1]]]
  movej(p[0.757948,-0.048101,-0.06,0,3.141593,0], a=0.523599, v=0.349066, r=0.002)  # [Transform: move to [757.948, -48.101, -60] mm and rotate to [[-1, 0, 0], [0, 1, 0], [0, 0, -1]]]
  movej(p[0.756875,-0.051024,-0.06,0,3.141593,0], a=0.523599, v=0.349066, r=0.002)  # [Transform: move to [756.875, -51.024, -60] mm and rotate to [[-1, 0, 0], [0, 1, 0], [0, 0, -1]]]
  movej(p[0.75537,-0.053753,-0.06,0,3.141593,0], a=0.523599, v=0.349066, r=0.002)  # [Transform: move to [755.37, -53.753, -60] mm and rotate to [[-1, 0, 0], [0, 1, 0], [0, 0, -1]]]
  movej(p[0.753622,-0.056335,-0.06,0,3.141593,0], a=0.523599, v=0.349066, r=0.002)  # [Transform: move to [753.622, -56.335, -60] mm and rotate to [[-1, 0, 0], [0, 1, 0], [0, 0, -1]]]
  movej(p[0.751767,-0.058842,-0.06,0,3.141593,0], a=0.523599, v=0.349066, r=0.002)  # [Transform: move to [751.767, -58.842, -60] mm and rotate to [[-1, 0, 0], [0, 1, 0], [0, 0, -1]]]
  movej(p[0.749927,-0.061359,-0.06,0,3.141593,0], a=0.523599, v=0.349066, r=0.002)  # [Transform: move to [749.927, -61.359, -60] mm and rotate to [[-1, 0, 0], [0, 1, 0], [0, 0, -1]]]
  movej(p[0.748217,-0.063966,-0.06,0,3.141593,0], a=0.523599, v=0.349066, r=0.002)  # [Transform: move to [748.217, -63.966, -60] mm and rotate to [[-1, 0, 0], [0, 1, 0], [0, 0, -1]]]
  movej(p[0.746676,-0.066677,-0.06,0,3.141593,0], a=0.523599, v=0.349066, r=0.002)  # [Transform: move to [746.676, -66.677, -60] mm and rotate to [[-1, 0, 0], [0, 1, 0], [0, 0, -1]]]
  movej(p[0.745308,-0.069478,-0.06,0,3.141593,0], a=0.523599, v=0.349066, r=0.002)  # [Transform: move to [745.308, -69.478, -60] mm and rotate to [[-1, 0, 0], [0, 1, 0], [0, 0, -1]]]
  movej(p[0.744116,-0.072359,-0.06,0,3.141593,0], a=0.523599, v=0.349066, r=0.002)  # [Transform: move to [744.116, -72.359, -60] mm and rotate to [[-1, 0, 0], [0, 1, 0], [0, 0, -1]]]
  movej(p[0.743104,-0.075309,-0.06,0,3.141593,0], a=0.523599, v=0.349066, r=0.002)  # [Transform: move to [743.104, -75.309, -60] mm and rotate to [[-1, 0, 0], [0, 1, 0], [0, 0, -1]]]
  movej(p[0.742276,-0.078315,-0.06,0,3.141593,0], a=0.523599, v=0.349066, r=0.002)  # [Transform: move to [742.276, -78.315, -60] mm and rotate to [[-1, 0, 0], [0, 1, 0], [0, 0, -1]]]
  movej(p[0.741636,-0.081366,-0.06,0,3.141593,0], a=0.523599, v=0.349066, r=0.002)  # [Transform: move to [741.636, -81.366, -60] mm and rotate to [[-1, 0, 0], [0, 1, 0], [0, 0, -1]]]
  movej(p[0.741187,-0.084451,-0.06,0,3.141593,0], a=0.523599, v=0.349066, r=0.002)  # [Transform: move to [741.187, -84.451, -60] mm and rotate to [[-1, 0, 0], [0, 1, 0], [0, 0, -1]]]
  movej(p[0.740931,-0.087559,-0.06,0,3.141593,0], a=0.523599, v=0.349066, r=0.002)  # [Transform: move to [740.931, -87.559, -60] mm and rotate to [[-1, 0, 0], [0, 1, 0], [0, 0, -1]]]
  movej(p[0.740891,-0.090675,-0.06,0,3.141593,0], a=0.523599, v=0.349066, r=0.002)  # [Transform: move to [740.891, -90.675, -60] mm and rotate to [[-1, 0, 0], [0, 1, 0], [0, 0, -1]]]
  movej(p[0.741595,-0.093692,-0.06,0,3.141593,0], a=0.523599, v=0.349066, r=0.002)  # [Transform: move to [741.595, -93.692, -60] mm and rotate to [[-1, 0, 0], [0, 1, 0], [0, 0, -1]]]
  movej(p[0.743887,-0.095676,-0.06,0,3.141593,0], a=0.523599, v=0.349066, r=0.002)  # [Transform: move to [743.887, -95.676, -60] mm and rotate to [[-1, 0, 0], [0, 1, 0], [0, 0, -1]]]
  movej(p[0.746974,-0.095868,-0.06,0,3.141593,0], a=0.523599, v=0.349066, r=0.002)  # [Transform: move to [746.974, -95.868, -60] mm and rotate to [[-1, 0, 0], [0, 1, 0], [0, 0, -1]]]
  movej(p[0.749971,-0.095033,-0.06,0,3.141593,0], a=0.523599, v=0.349066, r=0.002)  # [Transform: move to [749.971, -95.033, -60] mm and rotate to [[-1, 0, 0], [0, 1, 0], [0, 0, -1]]]
  movej(p[0.7528,-0.093724,-0.06,0,3.141593,0], a=0.523599, v=0.349066, r=0.002)  # [Transform: move to [752.8, -93.724, -60] mm and rotate to [[-1, 0, 0], [0, 1, 0], [0, 0, -1]]]
  movej(p[0.755577,-0.092304,-0.06,0,3.141593,0], a=0.523599, v=0.349066, r=0.002)  # [Transform: move to [755.577, -92.304, -60] mm and rotate to [[-1, 0, 0], [0, 1, 0], [0, 0, -1]]]
  movej(p[0.758336,-0.090851,-0.06,0,3.141593,0], a=0.523599, v=0.349066, r=0.002)  # [Transform: move to [758.336, -90.851, -60] mm and rotate to [[-1, 0, 0], [0, 1, 0], [0, 0, -1]]]
  movej(p[0.761059,-0.089333,-0.06,0,3.141593,0], a=0.523599, v=0.349066, r=0.002)  # [Transform: move to [761.059, -89.333, -60] mm and rotate to [[-1, 0, 0], [0, 1, 0], [0, 0, -1]]]
  movej(p[0.763746,-0.087749,-0.06,0,3.141593,0], a=0.523599, v=0.349066, r=0.002)  # [Transform: move to [763.746, -87.749, -60] mm and rotate to [[-1, 0, 0], [0, 1, 0], [0, 0, -1]]]
  movej(p[0.766393,-0.086102,-0.06,0,3.141593,0], a=0.523599, v=0.349066, r=0.002)  # [Transform: move to [766.393, -86.102, -60] mm and rotate to [[-1, 0, 0], [0, 1, 0], [0, 0, -1]]]
  movej(p[0.769001,-0.084392,-0.06,0,3.141593,0], a=0.523599, v=0.349066, r=0.002)  # [Transform: move to [769.001, -84.392, -60] mm and rotate to [[-1, 0, 0], [0, 1, 0], [0, 0, -1]]]
  movej(p[0.771567,-0.082619,-0.06,0,3.141593,0], a=0.523599, v=0.349066, r=0.002)  # [Transform: move to [771.567, -82.619, -60] mm and rotate to [[-1, 0, 0], [0, 1, 0], [0, 0, -1]]]
  movej(p[0.774089,-0.080786,-0.06,0,3.141593,0], a=0.523599, v=0.349066, r=0.002)  # [Transform: move to [774.089, -80.786, -60] mm and rotate to [[-1, 0, 0], [0, 1, 0], [0, 0, -1]]]
  movej(p[0.776567,-0.078893,-0.06,0,3.141593,0], a=0.523599, v=0.349066, r=0.002)  # [Transform: move to [776.567, -78.893, -60] mm and rotate to [[-1, 0, 0], [0, 1, 0], [0, 0, -1]]]
  movej(p[0.779,-0.076942,-0.06,0,3.141593,0], a=0.523599, v=0.349066, r=0.002)  # [Transform: move to [779, -76.942, -60] mm and rotate to [[-1, 0, 0], [0, 1, 0], [0, 0, -1]]]
  movej(p[0.781385,-0.074933,-0.06,0,3.141593,0], a=0.523599, v=0.349066, r=0.002)  # [Transform: move to [781.385, -74.933, -60] mm and rotate to [[-1, 0, 0], [0, 1, 0], [0, 0, -1]]]
  movej(p[0.783722,-0.072869,-0.06,0,3.141593,0], a=0.523599, v=0.349066, r=0.002)  # [Transform: move to [783.722, -72.869, -60] mm and rotate to [[-1, 0, 0], [0, 1, 0], [0, 0, -1]]]
  movej(p[0.786009,-0.07075,-0.06,0,3.141593,0], a=0.523599, v=0.349066, r=0.002)  # [Transform: move to [786.009, -70.75, -60] mm and rotate to [[-1, 0, 0], [0, 1, 0], [0, 0, -1]]]
  movej(p[0.788246,-0.068577,-0.06,0,3.141593,0], a=0.523599, v=0.349066, r=0.002)  # [Transform: move to [788.246, -68.577, -60] mm and rotate to [[-1, 0, 0], [0, 1, 0], [0, 0, -1]]]
  movej(p[0.78957,-0.067056,-0.06,0,3.141593,0], a=0.523599, v=0.349066, r=0.002)  # [Transform: move to [789.57, -67.056, -60] mm and rotate to [[-1, 0, 0], [0, 1, 0], [0, 0, -1]]]
  movej(p[0.78702,-0.06885,-0.06,0,3.141593,0], a=0.523599, v=0.349066, r=0.002)  # [Transform: move to [787.02, -68.85, -60] mm and rotate to [[-1, 0, 0], [0, 1, 0], [0, 0, -1]]]
  movej(p[0.784606,-0.070822,-0.06,0,3.141593,0], a=0.523599, v=0.349066, r=0.002)  # [Transform: move to [784.606, -70.822, -60] mm and rotate to [[-1, 0, 0], [0, 1, 0], [0, 0, -1]]]
  movej(p[0.782325,-0.072948,-0.06,0,3.141593,0], a=0.523599, v=0.349066, r=0.002)  # [Transform: move to [782.325, -72.948, -60] mm and rotate to [[-1, 0, 0], [0, 1, 0], [0, 0, -1]]]
  movej(p[0.780173,-0.075205,-0.06,0,3.141593,0], a=0.523599, v=0.349066, r=0.002)  # [Transform: move to [780.173, -75.205, -60] mm and rotate to [[-1, 0, 0], [0, 1, 0], [0, 0, -1]]]
  movej(p[0.778139,-0.077568,-0.06,0,3.141593,0], a=0.523599, v=0.349066, r=0.002)  # [Transform: move to [778.139, -77.568, -60] mm and rotate to [[-1, 0, 0], [0, 1, 0], [0, 0, -1]]]
  movej(p[0.776211,-0.080019,-0.06,0,3.141593,0], a=0.523599, v=0.349066, r=0.002)  # [Transform: move to [776.211, -80.019, -60] mm and rotate to [[-1, 0, 0], [0, 1, 0], [0, 0, -1]]]
  movej(p[0.774374,-0.082538,-0.06,0,3.141593,0], a=0.523599, v=0.349066, r=0.002)  # [Transform: move to [774.374, -82.538, -60] mm and rotate to [[-1, 0, 0], [0, 1, 0], [0, 0, -1]]]
  movej(p[0.772612,-0.085111,-0.06,0,3.141593,0], a=0.523599, v=0.349066, r=0.002)  # [Transform: move to [772.612, -85.111, -60] mm and rotate to [[-1, 0, 0], [0, 1, 0], [0, 0, -1]]]
  movej(p[0.770908,-0.087723,-0.06,0,3.141593,0], a=0.523599, v=0.349066, r=0.002)  # [Transform: move to [770.908, -87.723, -60] mm and rotate to [[-1, 0, 0], [0, 1, 0], [0, 0, -1]]]
  movej(p[0.769247,-0.090362,-0.06,0,3.141593,0], a=0.523599, v=0.349066, r=0.002)  # [Transform: move to [769.247, -90.362, -60] mm and rotate to [[-1, 0, 0], [0, 1, 0], [0, 0, -1]]]
  movej(p[0.767611,-0.093017,-0.06,0,3.141593,0], a=0.523599, v=0.349066, r=0.002)  # [Transform: move to [767.611, -93.017, -60] mm and rotate to [[-1, 0, 0], [0, 1, 0], [0, 0, -1]]]
  movej(p[0.76598,-0.095674,-0.06,0,3.141593,0], a=0.523599, v=0.349066, r=0.002)  # [Transform: move to [765.98, -95.674, -60] mm and rotate to [[-1, 0, 0], [0, 1, 0], [0, 0, -1]]]
  movej(p[0.764334,-0.098323,-0.06,0,3.141593,0], a=0.523599, v=0.349066, r=0.002)  # [Transform: move to [764.334, -98.323, -60] mm and rotate to [[-1, 0, 0], [0, 1, 0], [0, 0, -1]]]
  movej(p[0.762656,-0.100952,-0.06,0,3.141593,0], a=0.523599, v=0.349066, r=0.002)  # [Transform: move to [762.656, -100.952, -60] mm and rotate to [[-1, 0, 0], [0, 1, 0], [0, 0, -1]]]
  movej(p[0.760931,-0.103549,-0.06,0,3.141593,0], a=0.523599, v=0.349066, r=0.002)  # [Transform: move to [760.931, -103.549, -60] mm and rotate to [[-1, 0, 0], [0, 1, 0], [0, 0, -1]]]
  movej(p[0.759141,-0.106102,-0.06,0,3.141593,0], a=0.523599, v=0.349066, r=0.002)  # [Transform: move to [759.141, -106.102, -60] mm and rotate to [[-1, 0, 0], [0, 1, 0], [0, 0, -1]]]
  movej(p[0.757271,-0.108598,-0.06,0,3.141593,0], a=0.523599, v=0.349066, r=0.002)  # [Transform: move to [757.271, -108.598, -60] mm and rotate to [[-1, 0, 0], [0, 1, 0], [0, 0, -1]]]
  movej(p[0.755307,-0.11102,-0.06,0,3.141593,0], a=0.523599, v=0.349066, r=0.002)  # [Transform: move to [755.307, -111.02, -60] mm and rotate to [[-1, 0, 0], [0, 1, 0], [0, 0, -1]]]
  movej(p[0.753235,-0.11335,-0.06,0,3.141593,0], a=0.523599, v=0.349066, r=0.002)  # [Transform: move to [753.235, -113.35, -60] mm and rotate to [[-1, 0, 0], [0, 1, 0], [0, 0, -1]]]
  movej(p[0.751043,-0.115567,-0.06,0,3.141593,0], a=0.523599, v=0.349066, r=0.002)  # [Transform: move to [751.043, -115.567, -60] mm and rotate to [[-1, 0, 0], [0, 1, 0], [0, 0, -1]]]
  movej(p[0.748723,-0.11765,-0.06,0,3.141593,0], a=0.523599, v=0.349066, r=0.002)  # [Transform: move to [748.723, -117.65, -60] mm and rotate to [[-1, 0, 0], [0, 1, 0], [0, 0, -1]]]
  movej(p[0.746271,-0.119575,-0.06,0,3.141593,0], a=0.523599, v=0.349066, r=0.002)  # [Transform: move to [746.271, -119.575, -60] mm and rotate to [[-1, 0, 0], [0, 1, 0], [0, 0, -1]]]
  movej(p[0.743685,-0.121318,-0.06,0,3.141593,0], a=0.523599, v=0.349066, r=0.002)  # [Transform: move to [743.685, -121.318, -60] mm and rotate to [[-1, 0, 0], [0, 1, 0], [0, 0, -1]]]
  movej(p[0.740965,-0.122839,-0.06,0,3.141593,0], a=0.523599, v=0.349066, r=0.002)  # [Transform: move to [740.965, -122.839, -60] mm and rotate to [[-1, 0, 0], [0, 1, 0], [0, 0, -1]]]
  movej(p[0.738117,-0.124107,-0.06,0,3.141593,0], a=0.523599, v=0.349066, r=0.002)  # [Transform: move to [738.117, -124.107, -60] mm and rotate to [[-1, 0, 0], [0, 1, 0], [0, 0, -1]]]
  movej(p[0.735161,-0.125098,-0.06,0,3.141593,0], a=0.523599, v=0.349066, r=0.002)  # [Transform: move to [735.161, -125.098, -60] mm and rotate to [[-1, 0, 0], [0, 1, 0], [0, 0, -1]]]
  movej(p[0.734454,-0.123213,-0.06,0,3.141593,0], a=0.523599, v=0.349066, r=0.002)  # [Transform: move to [734.454, -123.213, -60] mm and rotate to [[-1, 0, 0], [0, 1, 0], [0, 0, -1]]]
  movej(p[0.735694,-0.120358,-0.06,0,3.141593,0], a=0.523599, v=0.349066, r=0.002)  # [Transform: move to [735.694, -120.358, -60] mm and rotate to [[-1, 0, 0], [0, 1, 0], [0, 0, -1]]]
  movej(p[0.737446,-0.117783,-0.06,0,3.141593,0], a=0.523599, v=0.349066, r=0.002)  # [Transform: move to [737.446, -117.783, -60] mm and rotate to [[-1, 0, 0], [0, 1, 0], [0, 0, -1]]]
  movej(p[0.739594,-0.115527,-0.06,0,3.141593,0], a=0.523599, v=0.349066, r=0.002)  # [Transform: move to [739.594, -115.527, -60] mm and rotate to [[-1, 0, 0], [0, 1, 0], [0, 0, -1]]]
  movej(p[0.742044,-0.113601,-0.06,0,3.141593,0], a=0.523599, v=0.349066, r=0.002)  # [Transform: move to [742.044, -113.601, -60] mm and rotate to [[-1, 0, 0], [0, 1, 0], [0, 0, -1]]]
  movej(p[0.744704,-0.111977,-0.06,0,3.141593,0], a=0.523599, v=0.349066, r=0.002)  # [Transform: move to [744.704, -111.977, -60] mm and rotate to [[-1, 0, 0], [0, 1, 0], [0, 0, -1]]]
  movej(p[0.747507,-0.110612,-0.06,0,3.141593,0], a=0.523599, v=0.349066, r=0.002)  # [Transform: move to [747.507, -110.612, -60] mm and rotate to [[-1, 0, 0], [0, 1, 0], [0, 0, -1]]]
  movej(p[0.750403,-0.109458,-0.06,0,3.141593,0], a=0.523599, v=0.349066, r=0.002)  # [Transform: move to [750.403, -109.458, -60] mm and rotate to [[-1, 0, 0], [0, 1, 0], [0, 0, -1]]]
  movej(p[0.753354,-0.108448,-0.06,0,3.141593,0], a=0.523599, v=0.349066, r=0.002)  # [Transform: move to [753.354, -108.448, -60] mm and rotate to [[-1, 0, 0], [0, 1, 0], [0, 0, -1]]]
  movej(p[0.756323,-0.107495,-0.06,0,3.141593,0], a=0.523599, v=0.349066, r=0.002)  # [Transform: move to [756.323, -107.495, -60] mm and rotate to [[-1, 0, 0], [0, 1, 0], [0, 0, -1]]]
  movej(p[0.759298,-0.106561,-0.06,0,3.141593,0], a=0.523599, v=0.349066, r=0.002)  # [Transform: move to [759.298, -106.561, -60] mm and rotate to [[-1, 0, 0], [0, 1, 0], [0, 0, -1]]]
  movej(p[0.762268,-0.105611,-0.06,0,3.141593,0], a=0.523599, v=0.349066, r=0.002)  # [Transform: move to [762.268, -105.611, -60] mm and rotate to [[-1, 0, 0], [0, 1, 0], [0, 0, -1]]]
  movej(p[0.765222,-0.10461,-0.06,0,3.141593,0], a=0.523599, v=0.349066, r=0.002)  # [Transform: move to [765.222, -104.61, -60] mm and rotate to [[-1, 0, 0], [0, 1, 0], [0, 0, -1]]]
  movej(p[0.768145,-0.103525,-0.06,0,3.141593,0], a=0.523599, v=0.349066, r=0.002)  # [Transform: move to [768.145, -103.525, -60] mm and rotate to [[-1, 0, 0], [0, 1, 0], [0, 0, -1]]]
  movej(p[0.771027,-0.102335,-0.06,0,3.141593,0], a=0.523599, v=0.349066, r=0.002)  # [Transform: move to [771.027, -102.335, -60] mm and rotate to [[-1, 0, 0], [0, 1, 0], [0, 0, -1]]]
  movej(p[0.773875,-0.101065,-0.06,0,3.141593,0], a=0.523599, v=0.349066, r=0.002)  # [Transform: move to [773.875, -101.065, -60] mm and rotate to [[-1, 0, 0], [0, 1, 0], [0, 0, -1]]]
  movej(p[0.776688,-0.099719,-0.06,0,3.141593,0], a=0.523599, v=0.349066, r=0.002)  # [Transform: move to [776.688, -99.719, -60] mm and rotate to [[-1, 0, 0], [0, 1, 0], [0, 0, -1]]]
  movej(p[0.779465,-0.0983,-0.06,0,3.141593,0], a=0.523599, v=0.349066, r=0.002)  # [Transform: move to [779.465, -98.3, -60] mm and rotate to [[-1, 0, 0], [0, 1, 0], [0, 0, -1]]]
  movej(p[0.782203,-0.096809,-0.06,0,3.141593,0], a=0.523599, v=0.349066, r=0.002)  # [Transform: move to [782.203, -96.809, -60] mm and rotate to [[-1, 0, 0], [0, 1, 0], [0, 0, -1]]]
  movej(p[0.784901,-0.095245,-0.06,0,3.141593,0], a=0.523599, v=0.349066, r=0.002)  # [Transform: move to [784.901, -95.245, -60] mm and rotate to [[-1, 0, 0], [0, 1, 0], [0, 0, -1]]]
  movej(p[0.787558,-0.093612,-0.06,0,3.141593,0], a=0.523599, v=0.349066, r=0.002)  # [Transform: move to [787.558, -93.612, -60] mm and rotate to [[-1, 0, 0], [0, 1, 0], [0, 0, -1]]]
  movej(p[0.79017,-0.09191,-0.06,0,3.141593,0], a=0.523599, v=0.349066, r=0.002)  # [Transform: move to [790.17, -91.91, -60] mm and rotate to [[-1, 0, 0], [0, 1, 0], [0, 0, -1]]]
  movej(p[0.792737,-0.09014,-0.06,0,3.141593,0], a=0.523599, v=0.349066, r=0.002)  # [Transform: move to [792.737, -90.14, -60] mm and rotate to [[-1, 0, 0], [0, 1, 0], [0, 0, -1]]]
  movej(p[0.795257,-0.088303,-0.06,0,3.141593,0], a=0.523599, v=0.349066, r=0.002)  # [Transform: move to [795.257, -88.303, -60] mm and rotate to [[-1, 0, 0], [0, 1, 0], [0, 0, -1]]]
  movej(p[0.797729,-0.086401,-0.06,0,3.141593,0], a=0.523599, v=0.349066, r=0.002)  # [Transform: move to [797.729, -86.401, -60] mm and rotate to [[-1, 0, 0], [0, 1, 0], [0, 0, -1]]]
  movej(p[0.800149,-0.084435,-0.06,0,3.141593,0], a=0.523599, v=0.349066, r=0.002)  # [Transform: move to [800.149, -84.435, -60] mm and rotate to [[-1, 0, 0], [0, 1, 0], [0, 0, -1]]]
  movej(p[0.802517,-0.082406,-0.06,0,3.141593,0], a=0.523599, v=0.349066, r=0.002)  # [Transform: move to [802.517, -82.406, -60] mm and rotate to [[-1, 0, 0], [0, 1, 0], [0, 0, -1]]]
  movej(p[0.80483,-0.080315,-0.06,0,3.141593,0], a=0.523599, v=0.349066, r=0.002)  # [Transform: move to [804.83, -80.315, -60] mm and rotate to [[-1, 0, 0], [0, 1, 0], [0, 0, -1]]]
  movej(p[0.807088,-0.078164,-0.06,0,3.141593,0], a=0.523599, v=0.349066, r=0.002)  # [Transform: move to [807.088, -78.164, -60] mm and rotate to [[-1, 0, 0], [0, 1, 0], [0, 0, -1]]]
  movej(p[0.809287,-0.075953,-0.06,0,3.141593,0], a=0.523599, v=0.349066, r=0.002)  # [Transform: move to [809.287, -75.953, -60] mm and rotate to [[-1, 0, 0], [0, 1, 0], [0, 0, -1]]]
  movej(p[0.811427,-0.073685,-0.06,0,3.141593,0], a=0.523599, v=0.349066, r=0.002)  # [Transform: move to [811.427, -73.685, -60] mm and rotate to [[-1, 0, 0], [0, 1, 0], [0, 0, -1]]]
  movej(p[0.813504,-0.071359,-0.06,0,3.141593,0], a=0.523599, v=0.349066, r=0.002)  # [Transform: move to [813.504, -71.359, -60] mm and rotate to [[-1, 0, 0], [0, 1, 0], [0, 0, -1]]]
  movej(p[0.815518,-0.068978,-0.06,0,3.141593,0], a=0.523599, v=0.349066, r=0.002)  # [Transform: move to [815.518, -68.978, -60] mm and rotate to [[-1, 0, 0], [0, 1, 0], [0, 0, -1]]]
  movej(p[0.813357,-0.068549,-0.06,0,3.141593,0], a=0.523599, v=0.349066, r=0.002)  # [Transform: move to [813.357, -68.549, -60] mm and rotate to [[-1, 0, 0], [0, 1, 0], [0, 0, -1]]]
  movej(p[0.810339,-0.069301,-0.06,0,3.141593,0], a=0.523599, v=0.349066, r=0.002)  # [Transform: move to [810.339, -69.301, -60] mm and rotate to [[-1, 0, 0], [0, 1, 0], [0, 0, -1]]]
  movej(p[0.807566,-0.070715,-0.06,0,3.141593,0], a=0.523599, v=0.349066, r=0.002)  # [Transform: move to [807.566, -70.715, -60] mm and rotate to [[-1, 0, 0], [0, 1, 0], [0, 0, -1]]]
  movej(p[0.805078,-0.07259,-0.06,0,3.141593,0], a=0.523599, v=0.349066, r=0.002)  # [Transform: move to [805.078, -72.59, -60] mm and rotate to [[-1, 0, 0], [0, 1, 0], [0, 0, -1]]]
  movej(p[0.802847,-0.074767,-0.06,0,3.141593,0], a=0.523599, v=0.349066, r=0.002)  # [Transform: move to [802.847, -74.767, -60] mm and rotate to [[-1, 0, 0], [0, 1, 0], [0, 0, -1]]]
  movej(p[0.800824,-0.077139,-0.06,0,3.141593,0], a=0.523599, v=0.349066, r=0.002)  # [Transform: move to [800.824, -77.139, -60] mm and rotate to [[-1, 0, 0], [0, 1, 0], [0, 0, -1]]]
  movej(p[0.798954,-0.079634,-0.06,0,3.141593,0], a=0.523599, v=0.349066, r=0.002)  # [Transform: move to [798.954, -79.634, -60] mm and rotate to [[-1, 0, 0], [0, 1, 0], [0, 0, -1]]]
  movej(p[0.797214,-0.082222,-0.06,0,3.141593,0], a=0.523599, v=0.349066, r=0.002)  # [Transform: move to [797.214, -82.222, -60] mm and rotate to [[-1, 0, 0], [0, 1, 0], [0, 0, -1]]]
  movej(p[0.796169,-0.085115,-0.06,0,3.141593,0], a=0.523599, v=0.349066, r=0.002)  # [Transform: move to [796.169, -85.115, -60] mm and rotate to [[-1, 0, 0], [0, 1, 0], [0, 0, -1]]]
  movej(p[0.797873,-0.087511,-0.06,0,3.141593,0], a=0.523599, v=0.349066, r=0.002)  # [Transform: move to [797.873, -87.511, -60] mm and rotate to [[-1, 0, 0], [0, 1, 0], [0, 0, -1]]]
  movej(p[0.800946,-0.087853,-0.06,0,3.141593,0], a=0.523599, v=0.349066, r=0.002)  # [Transform: move to [800.946, -87.853, -60] mm and rotate to [[-1, 0, 0], [0, 1, 0], [0, 0, -1]]]
  movej(p[0.804035,-0.087434,-0.06,0,3.141593,0], a=0.523599, v=0.349066, r=0.002)  # [Transform: move to [804.035, -87.434, -60] mm and rotate to [[-1, 0, 0], [0, 1, 0], [0, 0, -1]]]
  movej(p[0.807099,-0.086858,-0.06,0,3.141593,0], a=0.523599, v=0.349066, r=0.002)  # [Transform: move to [807.099, -86.858, -60] mm and rotate to [[-1, 0, 0], [0, 1, 0], [0, 0, -1]]]
  movej(p[0.81012,-0.086089,-0.06,0,3.141593,0], a=0.523599, v=0.349066, r=0.002)  # [Transform: move to [810.12, -86.089, -60] mm and rotate to [[-1, 0, 0], [0, 1, 0], [0, 0, -1]]]
  movej(p[0.813087,-0.085131,-0.06,0,3.141593,0], a=0.523599, v=0.349066, r=0.002)  # [Transform: move to [813.087, -85.131, -60] mm and rotate to [[-1, 0, 0], [0, 1, 0], [0, 0, -1]]]
  movej(p[0.815989,-0.083989,-0.06,0,3.141593,0], a=0.523599, v=0.349066, r=0.002)  # [Transform: move to [815.989, -83.989, -60] mm and rotate to [[-1, 0, 0], [0, 1, 0], [0, 0, -1]]]
  movej(p[0.818813,-0.082668,-0.06,0,3.141593,0], a=0.523599, v=0.349066, r=0.002)  # [Transform: move to [818.813, -82.668, -60] mm and rotate to [[-1, 0, 0], [0, 1, 0], [0, 0, -1]]]
  movej(p[0.821549,-0.081174,-0.06,0,3.141593,0], a=0.523599, v=0.349066, r=0.002)  # [Transform: move to [821.549, -81.174, -60] mm and rotate to [[-1, 0, 0], [0, 1, 0], [0, 0, -1]]]
  movej(p[0.824186,-0.07951,-0.06,0,3.141593,0], a=0.523599, v=0.349066, r=0.002)  # [Transform: move to [824.186, -79.51, -60] mm and rotate to [[-1, 0, 0], [0, 1, 0], [0, 0, -1]]]
  movej(p[0.826718,-0.07769,-0.06,0,3.141593,0], a=0.523599, v=0.349066, r=0.002)  # [Transform: move to [826.718, -77.69, -60] mm and rotate to [[-1, 0, 0], [0, 1, 0], [0, 0, -1]]]
  movej(p[0.829117,-0.075699,-0.06,0,3.141593,0], a=0.523599, v=0.349066, r=0.002)  # [Transform: move to [829.117, -75.699, -60] mm and rotate to [[-1, 0, 0], [0, 1, 0], [0, 0, -1]]]
  movej(p[0.831014,-0.07325,-0.06,0,3.141593,0], a=0.523599, v=0.349066, r=0.002)  # [Transform: move to [831.014, -73.25, -60] mm and rotate to [[-1, 0, 0], [0, 1, 0], [0, 0, -1]]]
  movej(p[0.831126,-0.070269,-0.06,0,3.141593,0], a=0.523599, v=0.349066, r=0.002)  # [Transform: move to [831.126, -70.269, -60] mm and rotate to [[-1, 0, 0], [0, 1, 0], [0, 0, -1]]]
  movej(p[0.828313,-0.069513,-0.06,0,3.141593,0], a=0.523599, v=0.349066, r=0.002)  # [Transform: move to [828.313, -69.513, -60] mm and rotate to [[-1, 0, 0], [0, 1, 0], [0, 0, -1]]]
  movej(p[0.825475,-0.070787,-0.06,0,3.141593,0], a=0.523599, v=0.349066, r=0.002)  # [Transform: move to [825.475, -70.787, -60] mm and rotate to [[-1, 0, 0], [0, 1, 0], [0, 0, -1]]]
  movej(p[0.822851,-0.072468,-0.06,0,3.141593,0], a=0.523599, v=0.349066, r=0.002)  # [Transform: move to [822.851, -72.468, -60] mm and rotate to [[-1, 0, 0], [0, 1, 0], [0, 0, -1]]]
  movej(p[0.820448,-0.074453,-0.06,0,3.141593,0], a=0.523599, v=0.349066, r=0.002)  # [Transform: move to [820.448, -74.453, -60] mm and rotate to [[-1, 0, 0], [0, 1, 0], [0, 0, -1]]]
  movej(p[0.818291,-0.076703,-0.06,0,3.141593,0], a=0.523599, v=0.349066, r=0.002)  # [Transform: move to [818.291, -76.703, -60] mm and rotate to [[-1, 0, 0], [0, 1, 0], [0, 0, -1]]]
  movej(p[0.816399,-0.07918,-0.06,0,3.141593,0], a=0.523599, v=0.349066, r=0.002)  # [Transform: move to [816.399, -79.18, -60] mm and rotate to [[-1, 0, 0], [0, 1, 0], [0, 0, -1]]]
  movej(p[0.814793,-0.081851,-0.06,0,3.141593,0], a=0.523599, v=0.349066, r=0.002)  # [Transform: move to [814.793, -81.851, -60] mm and rotate to [[-1, 0, 0], [0, 1, 0], [0, 0, -1]]]
  movej(p[0.813493,-0.084684,-0.06,0,3.141593,0], a=0.523599, v=0.349066, r=0.002)  # [Transform: move to [813.493, -84.684, -60] mm and rotate to [[-1, 0, 0], [0, 1, 0], [0, 0, -1]]]
  movej(p[0.813482,-0.086777,-0.06,0,3.141593,0], a=0.523599, v=0.349066, r=0.002)  # [Transform: move to [813.482, -86.777, -60] mm and rotate to [[-1, 0, 0], [0, 1, 0], [0, 0, -1]]]
  movej(p[0.816513,-0.086049,-0.06,0,3.141593,0], a=0.523599, v=0.349066, r=0.002)  # [Transform: move to [816.513, -86.049, -60] mm and rotate to [[-1, 0, 0], [0, 1, 0], [0, 0, -1]]]
  movej(p[0.819462,-0.085039,-0.06,0,3.141593,0], a=0.523599, v=0.349066, r=0.002)  # [Transform: move to [819.462, -85.039, -60] mm and rotate to [[-1, 0, 0], [0, 1, 0], [0, 0, -1]]]
  movej(p[0.822304,-0.083758,-0.06,0,3.141593,0], a=0.523599, v=0.349066, r=0.002)  # [Transform: move to [822.304, -83.758, -60] mm and rotate to [[-1, 0, 0], [0, 1, 0], [0, 0, -1]]]
  movej(p[0.825015,-0.08222,-0.06,0,3.141593,0], a=0.523599, v=0.349066, r=0.002)  # [Transform: move to [825.015, -82.22, -60] mm and rotate to [[-1, 0, 0], [0, 1, 0], [0, 0, -1]]]
  movej(p[0.827574,-0.080439,-0.06,0,3.141593,0], a=0.523599, v=0.349066, r=0.002)  # [Transform: move to [827.574, -80.439, -60] mm and rotate to [[-1, 0, 0], [0, 1, 0], [0, 0, -1]]]
  movej(p[0.829957,-0.078429,-0.06,0,3.141593,0], a=0.523599, v=0.349066, r=0.002)  # [Transform: move to [829.957, -78.429, -60] mm and rotate to [[-1, 0, 0], [0, 1, 0], [0, 0, -1]]]
  movej(p[0.832144,-0.076208,-0.06,0,3.141593,0], a=0.523599, v=0.349066, r=0.002)  # [Transform: move to [832.144, -76.208, -60] mm and rotate to [[-1, 0, 0], [0, 1, 0], [0, 0, -1]]]
  movej(p[0.834112,-0.073791,-0.06,0,3.141593,0], a=0.523599, v=0.349066, r=0.002)  # [Transform: move to [834.112, -73.791, -60] mm and rotate to [[-1, 0, 0], [0, 1, 0], [0, 0, -1]]]
  movej(p[0.834786,-0.07266,-0.06,0,3.141593,0], a=0.523599, v=0.349066, r=0.002)  # [Transform: move to [834.786, -72.66, -60] mm and rotate to [[-1, 0, 0], [0, 1, 0], [0, 0, -1]]]
  movej(p[0.832992,-0.075205,-0.06,0,3.141593,0], a=0.523599, v=0.349066, r=0.002)  # [Transform: move to [832.992, -75.205, -60] mm and rotate to [[-1, 0, 0], [0, 1, 0], [0, 0, -1]]]
  movej(p[0.832096,-0.078161,-0.06,0,3.141593,0], a=0.523599, v=0.349066, r=0.002)  # [Transform: move to [832.096, -78.161, -60] mm and rotate to [[-1, 0, 0], [0, 1, 0], [0, 0, -1]]]
  movej(p[0.833,-0.081086,-0.06,0,3.141593,0], a=0.523599, v=0.349066, r=0.002)  # [Transform: move to [833, -81.086, -60] mm and rotate to [[-1, 0, 0], [0, 1, 0], [0, 0, -1]]]
  movej(p[0.835677,-0.082446,-0.06,0,3.141593,0], a=0.523599, v=0.349066, r=0.002)  # [Transform: move to [835.677, -82.446, -60] mm and rotate to [[-1, 0, 0], [0, 1, 0], [0, 0, -1]]]
  movej(p[0.83856,-0.081368,-0.06,0,3.141593,0], a=0.523599, v=0.349066, r=0.002)  # [Transform: move to [838.56, -81.368, -60] mm and rotate to [[-1, 0, 0], [0, 1, 0], [0, 0, -1]]]
  movej(p[0.84108,-0.079536,-0.06,0,3.141593,0], a=0.523599, v=0.349066, r=0.002)  # [Transform: move to [841.08, -79.536, -60] mm and rotate to [[-1, 0, 0], [0, 1, 0], [0, 0, -1]]]
  movej(p[0.843355,-0.077405,-0.06,0,3.141593,0], a=0.523599, v=0.349066, r=0.002)  # [Transform: move to [843.355, -77.405, -60] mm and rotate to [[-1, 0, 0], [0, 1, 0], [0, 0, -1]]]
  movej(p[0.845444,-0.075091,-0.06,0,3.141593,0], a=0.523599, v=0.349066, r=0.002)  # [Transform: move to [845.444, -75.091, -60] mm and rotate to [[-1, 0, 0], [0, 1, 0], [0, 0, -1]]]
  movej(p[0.847327,-0.072607,-0.06,0,3.141593,0], a=0.523599, v=0.349066, r=0.002)  # [Transform: move to [847.327, -72.607, -60] mm and rotate to [[-1, 0, 0], [0, 1, 0], [0, 0, -1]]]
  movej(p[0.84897,-0.069957,-0.06,0,3.141593,0], a=0.523599, v=0.349066, r=0.002)  # [Transform: move to [848.97, -69.957, -60] mm and rotate to [[-1, 0, 0], [0, 1, 0], [0, 0, -1]]]
  movej(p[0.850335,-0.0672,-0.06,0,3.141593,0], a=0.523599, v=0.349066, r=0.002)  # [Transform: move to [850.335, -67.2, -60] mm and rotate to [[-1, 0, 0], [0, 1, 0], [0, 0, -1]]]
  movej(p[0.847802,-0.068998,-0.06,0,3.141593,0], a=0.523599, v=0.349066, r=0.002)  # [Transform: move to [847.802, -68.998, -60] mm and rotate to [[-1, 0, 0], [0, 1, 0], [0, 0, -1]]]
  movej(p[0.845918,-0.071468,-0.06,0,3.141593,0], a=0.523599, v=0.349066, r=0.002)  # [Transform: move to [845.918, -71.468, -60] mm and rotate to [[-1, 0, 0], [0, 1, 0], [0, 0, -1]]]
  movej(p[0.844847,-0.074384,-0.06,0,3.141593,0], a=0.523599, v=0.349066, r=0.002)  # [Transform: move to [844.847, -74.384, -60] mm and rotate to [[-1, 0, 0], [0, 1, 0], [0, 0, -1]]]
  movej(p[0.845665,-0.076304,-0.06,0,3.141593,0], a=0.523599, v=0.349066, r=0.002)  # [Transform: move to [845.665, -76.304, -60] mm and rotate to [[-1, 0, 0], [0, 1, 0], [0, 0, -1]]]
  movej(p[0.848711,-0.075645,-0.06,0,3.141593,0], a=0.523599, v=0.349066, r=0.002)  # [Transform: move to [848.711, -75.645, -60] mm and rotate to [[-1, 0, 0], [0, 1, 0], [0, 0, -1]]]
  movej(p[0.851676,-0.074684,-0.06,0,3.141593,0], a=0.523599, v=0.349066, r=0.002)  # [Transform: move to [851.676, -74.684, -60] mm and rotate to [[-1, 0, 0], [0, 1, 0], [0, 0, -1]]]
  movej(p[0.854531,-0.073431,-0.06,0,3.141593,0], a=0.523599, v=0.349066, r=0.002)  # [Transform: move to [854.531, -73.431, -60] mm and rotate to [[-1, 0, 0], [0, 1, 0], [0, 0, -1]]]
  movej(p[0.857246,-0.0719,-0.06,0,3.141593,0], a=0.523599, v=0.349066, r=0.002)  # [Transform: move to [857.246, -71.9, -60] mm and rotate to [[-1, 0, 0], [0, 1, 0], [0, 0, -1]]]
  movej(p[0.859795,-0.070106,-0.06,0,3.141593,0], a=0.523599, v=0.349066, r=0.002)  # [Transform: move to [859.795, -70.106, -60] mm and rotate to [[-1, 0, 0], [0, 1, 0], [0, 0, -1]]]
  movej(p[0.862151,-0.068065,-0.06,0,3.141593,0], a=0.523599, v=0.349066, r=0.002)  # [Transform: move to [862.151, -68.065, -60] mm and rotate to [[-1, 0, 0], [0, 1, 0], [0, 0, -1]]]
  movej(p[0.86118,-0.068748,-0.06,0,3.141593,0], a=0.523599, v=0.349066, r=0.002)  # [Transform: move to [861.18, -68.748, -60] mm and rotate to [[-1, 0, 0], [0, 1, 0], [0, 0, -1]]]
  movej(p[0.859009,-0.070983,-0.06,0,3.141593,0], a=0.523599, v=0.349066, r=0.002)  # [Transform: move to [859.009, -70.983, -60] mm and rotate to [[-1, 0, 0], [0, 1, 0], [0, 0, -1]]]
  movej(p[0.857146,-0.073481,-0.06,0,3.141593,0], a=0.523599, v=0.349066, r=0.002)  # [Transform: move to [857.146, -73.481, -60] mm and rotate to [[-1, 0, 0], [0, 1, 0], [0, 0, -1]]]
  movej(p[0.855617,-0.076197,-0.06,0,3.141593,0], a=0.523599, v=0.349066, r=0.002)  # [Transform: move to [855.617, -76.197, -60] mm and rotate to [[-1, 0, 0], [0, 1, 0], [0, 0, -1]]]
  movej(p[0.854446,-0.079084,-0.06,0,3.141593,0], a=0.523599, v=0.349066, r=0.002)  # [Transform: move to [854.446, -79.084, -60] mm and rotate to [[-1, 0, 0], [0, 1, 0], [0, 0, -1]]]
  movej(p[0.853651,-0.082098,-0.06,0,3.141593,0], a=0.523599, v=0.349066, r=0.002)  # [Transform: move to [853.651, -82.098, -60] mm and rotate to [[-1, 0, 0], [0, 1, 0], [0, 0, -1]]]
  movej(p[0.853253,-0.085188,-0.06,0,3.141593,0], a=0.523599, v=0.349066, r=0.002)  # [Transform: move to [853.253, -85.188, -60] mm and rotate to [[-1, 0, 0], [0, 1, 0], [0, 0, -1]]]
  movej(p[0.853274,-0.088294,-0.06,0,3.141593,0], a=0.523599, v=0.349066, r=0.002)  # [Transform: move to [853.274, -88.294, -60] mm and rotate to [[-1, 0, 0], [0, 1, 0], [0, 0, -1]]]
  movej(p[0.856378,-0.087998,-0.06,0,3.141593,0], a=0.523599, v=0.349066, r=0.002)  # [Transform: move to [856.378, -87.998, -60] mm and rotate to [[-1, 0, 0], [0, 1, 0], [0, 0, -1]]]
  movej(p[0.859457,-0.087506,-0.06,0,3.141593,0], a=0.523599, v=0.349066, r=0.002)  # [Transform: move to [859.457, -87.506, -60] mm and rotate to [[-1, 0, 0], [0, 1, 0], [0, 0, -1]]]
  movej(p[0.862498,-0.08682,-0.06,0,3.141593,0], a=0.523599, v=0.349066, r=0.002)  # [Transform: move to [862.498, -86.82, -60] mm and rotate to [[-1, 0, 0], [0, 1, 0], [0, 0, -1]]]
  movej(p[0.86549,-0.085943,-0.06,0,3.141593,0], a=0.523599, v=0.349066, r=0.002)  # [Transform: move to [865.49, -85.943, -60] mm and rotate to [[-1, 0, 0], [0, 1, 0], [0, 0, -1]]]
  movej(p[0.868421,-0.084879,-0.06,0,3.141593,0], a=0.523599, v=0.349066, r=0.002)  # [Transform: move to [868.421, -84.879, -60] mm and rotate to [[-1, 0, 0], [0, 1, 0], [0, 0, -1]]]
  movej(p[0.871279,-0.083633,-0.06,0,3.141593,0], a=0.523599, v=0.349066, r=0.002)  # [Transform: move to [871.279, -83.633, -60] mm and rotate to [[-1, 0, 0], [0, 1, 0], [0, 0, -1]]]
  movej(p[0.874052,-0.082208,-0.06,0,3.141593,0], a=0.523599, v=0.349066, r=0.002)  # [Transform: move to [874.052, -82.208, -60] mm and rotate to [[-1, 0, 0], [0, 1, 0], [0, 0, -1]]]
  movej(p[0.876729,-0.08061,-0.06,0,3.141593,0], a=0.523599, v=0.349066, r=0.002)  # [Transform: move to [876.729, -80.61, -60] mm and rotate to [[-1, 0, 0], [0, 1, 0], [0, 0, -1]]]
  movej(p[0.876729,-0.08061,-0.01,0,3.141593,0], a=0.523599, v=0.349066, r=0.002)  # [Transform: move to [876.729, -80.61, -10] mm and rotate to [[-1, 0, 0], [0, 1, 0], [0, 0, -1]]]
  movej(p[0.898135,-0.078718,-0.01,0,3.141593,0], a=0.523599, v=0.349066, r=0.002)  # [Transform: move to [898.135, -78.718, -10] mm and rotate to [[-1, 0, 0], [0, 1, 0], [0, 0, -1]]]
  movej(p[0.898135,-0.078718,-0.06,0,3.141593,0], a=0.523599, v=0.349066, r=0.002)  # [Transform: move to [898.135, -78.718, -60] mm and rotate to [[-1, 0, 0], [0, 1, 0], [0, 0, -1]]]
  movej(p[0.89783,-0.078159,-0.06,0,3.141593,0], a=0.523599, v=0.349066, r=0.002)  # [Transform: move to [897.83, -78.159, -60] mm and rotate to [[-1, 0, 0], [0, 1, 0], [0, 0, -1]]]
  movej(p[0.897526,-0.0776,-0.06,0,3.141593,0], a=0.523599, v=0.349066, r=0.002)  # [Transform: move to [897.526, -77.6, -60] mm and rotate to [[-1, 0, 0], [0, 1, 0], [0, 0, -1]]]
  movej(p[0.897224,-0.07704,-0.06,0,3.141593,0], a=0.523599, v=0.349066, r=0.002)  # [Transform: move to [897.224, -77.04, -60] mm and rotate to [[-1, 0, 0], [0, 1, 0], [0, 0, -1]]]
  movej(p[0.896923,-0.076479,-0.06,0,3.141593,0], a=0.523599, v=0.349066, r=0.002)  # [Transform: move to [896.923, -76.479, -60] mm and rotate to [[-1, 0, 0], [0, 1, 0], [0, 0, -1]]]
  movej(p[0.896624,-0.075918,-0.06,0,3.141593,0], a=0.523599, v=0.349066, r=0.002)  # [Transform: move to [896.624, -75.918, -60] mm and rotate to [[-1, 0, 0], [0, 1, 0], [0, 0, -1]]]
  movej(p[0.896326,-0.075356,-0.06,0,3.141593,0], a=0.523599, v=0.349066, r=0.002)  # [Transform: move to [896.326, -75.356, -60] mm and rotate to [[-1, 0, 0], [0, 1, 0], [0, 0, -1]]]
  movej(p[0.89603,-0.074792,-0.06,0,3.141593,0], a=0.523599, v=0.349066, r=0.002)  # [Transform: move to [896.03, -74.792, -60] mm and rotate to [[-1, 0, 0], [0, 1, 0], [0, 0, -1]]]
  movej(p[0.895736,-0.074228,-0.06,0,3.141593,0], a=0.523599, v=0.349066, r=0.002)  # [Transform: move to [895.736, -74.228, -60] mm and rotate to [[-1, 0, 0], [0, 1, 0], [0, 0, -1]]]
  movej(p[0.895444,-0.073663,-0.06,0,3.141593,0], a=0.523599, v=0.349066, r=0.002)  # [Transform: move to [895.444, -73.663, -60] mm and rotate to [[-1, 0, 0], [0, 1, 0], [0, 0, -1]]]
  movej(p[0.895154,-0.073097,-0.06,0,3.141593,0], a=0.523599, v=0.349066, r=0.002)  # [Transform: move to [895.154, -73.097, -60] mm and rotate to [[-1, 0, 0], [0, 1, 0], [0, 0, -1]]]
  movej(p[0.894866,-0.072529,-0.06,0,3.141593,0], a=0.523599, v=0.349066, r=0.002)  # [Transform: move to [894.866, -72.529, -60] mm and rotate to [[-1, 0, 0], [0, 1, 0], [0, 0, -1]]]
  movej(p[0.89458,-0.071961,-0.06,0,3.141593,0], a=0.523599, v=0.349066, r=0.002)  # [Transform: move to [894.58, -71.961, -60] mm and rotate to [[-1, 0, 0], [0, 1, 0], [0, 0, -1]]]
  movej(p[0.894296,-0.071392,-0.06,0,3.141593,0], a=0.523599, v=0.349066, r=0.002)  # [Transform: move to [894.296, -71.392, -60] mm and rotate to [[-1, 0, 0], [0, 1, 0], [0, 0, -1]]]
  movej(p[0.894014,-0.070821,-0.06,0,3.141593,0], a=0.523599, v=0.349066, r=0.002)  # [Transform: move to [894.014, -70.821, -60] mm and rotate to [[-1, 0, 0], [0, 1, 0], [0, 0, -1]]]
  movej(p[0.893735,-0.070249,-0.06,0,3.141593,0], a=0.523599, v=0.349066, r=0.002)  # [Transform: move to [893.735, -70.249, -60] mm and rotate to [[-1, 0, 0], [0, 1, 0], [0, 0, -1]]]
  movej(p[0.893459,-0.069676,-0.06,0,3.141593,0], a=0.523599, v=0.349066, r=0.002)  # [Transform: move to [893.459, -69.676, -60] mm and rotate to [[-1, 0, 0], [0, 1, 0], [0, 0, -1]]]
  movej(p[0.893185,-0.069102,-0.06,0,3.141593,0], a=0.523599, v=0.349066, r=0.002)  # [Transform: move to [893.185, -69.102, -60] mm and rotate to [[-1, 0, 0], [0, 1, 0], [0, 0, -1]]]
  movej(p[0.892914,-0.068526,-0.06,0,3.141593,0], a=0.523599, v=0.349066, r=0.002)  # [Transform: move to [892.914, -68.526, -60] mm and rotate to [[-1, 0, 0], [0, 1, 0], [0, 0, -1]]]
  movej(p[0.892646,-0.067949,-0.06,0,3.141593,0], a=0.523599, v=0.349066, r=0.002)  # [Transform: move to [892.646, -67.949, -60] mm and rotate to [[-1, 0, 0], [0, 1, 0], [0, 0, -1]]]
  movej(p[0.892381,-0.067371,-0.06,0,3.141593,0], a=0.523599, v=0.349066, r=0.002)  # [Transform: move to [892.381, -67.371, -60] mm and rotate to [[-1, 0, 0], [0, 1, 0], [0, 0, -1]]]
  movej(p[0.892119,-0.066791,-0.06,0,3.141593,0], a=0.523599, v=0.349066, r=0.002)  # [Transform: move to [892.119, -66.791, -60] mm and rotate to [[-1, 0, 0], [0, 1, 0], [0, 0, -1]]]
  movej(p[0.89186,-0.06621,-0.06,0,3.141593,0], a=0.523599, v=0.349066, r=0.002)  # [Transform: move to [891.86, -66.21, -60] mm and rotate to [[-1, 0, 0], [0, 1, 0], [0, 0, -1]]]
  movej(p[0.891604,-0.065627,-0.06,0,3.141593,0], a=0.523599, v=0.349066, r=0.002)  # [Transform: move to [891.604, -65.627, -60] mm and rotate to [[-1, 0, 0], [0, 1, 0], [0, 0, -1]]]
  movej(p[0.891352,-0.065043,-0.06,0,3.141593,0], a=0.523599, v=0.349066, r=0.002)  # [Transform: move to [891.352, -65.043, -60] mm and rotate to [[-1, 0, 0], [0, 1, 0], [0, 0, -1]]]
  movej(p[0.891103,-0.064457,-0.06,0,3.141593,0], a=0.523599, v=0.349066, r=0.002)  # [Transform: move to [891.103, -64.457, -60] mm and rotate to [[-1, 0, 0], [0, 1, 0], [0, 0, -1]]]
  movej(p[0.890857,-0.06387,-0.06,0,3.141593,0], a=0.523599, v=0.349066, r=0.002)  # [Transform: move to [890.857, -63.87, -60] mm and rotate to [[-1, 0, 0], [0, 1, 0], [0, 0, -1]]]
  movej(p[0.890616,-0.063282,-0.06,0,3.141593,0], a=0.523599, v=0.349066, r=0.002)  # [Transform: move to [890.616, -63.282, -60] mm and rotate to [[-1, 0, 0], [0, 1, 0], [0, 0, -1]]]
  movej(p[0.890378,-0.062692,-0.06,0,3.141593,0], a=0.523599, v=0.349066, r=0.002)  # [Transform: move to [890.378, -62.692, -60] mm and rotate to [[-1, 0, 0], [0, 1, 0], [0, 0, -1]]]
  movej(p[0.890144,-0.0621,-0.06,0,3.141593,0], a=0.523599, v=0.349066, r=0.002)  # [Transform: move to [890.144, -62.1, -60] mm and rotate to [[-1, 0, 0], [0, 1, 0], [0, 0, -1]]]
  movej(p[0.889914,-0.061506,-0.06,0,3.141593,0], a=0.523599, v=0.349066, r=0.002)  # [Transform: move to [889.914, -61.506, -60] mm and rotate to [[-1, 0, 0], [0, 1, 0], [0, 0, -1]]]
  movej(p[0.889689,-0.060912,-0.06,0,3.141593,0], a=0.523599, v=0.349066, r=0.002)  # [Transform: move to [889.689, -60.912, -60] mm and rotate to [[-1, 0, 0], [0, 1, 0], [0, 0, -1]]]
  movej(p[0.889468,-0.060315,-0.06,0,3.141593,0], a=0.523599, v=0.349066, r=0.002)  # [Transform: move to [889.468, -60.315, -60] mm and rotate to [[-1, 0, 0], [0, 1, 0], [0, 0, -1]]]
  movej(p[0.889251,-0.059717,-0.06,0,3.141593,0], a=0.523599, v=0.349066, r=0.002)  # [Transform: move to [889.251, -59.717, -60] mm and rotate to [[-1, 0, 0], [0, 1, 0], [0, 0, -1]]]
  movej(p[0.889039,-0.059117,-0.06,0,3.141593,0], a=0.523599, v=0.349066, r=0.002)  # [Transform: move to [889.039, -59.117, -60] mm and rotate to [[-1, 0, 0], [0, 1, 0], [0, 0, -1]]]
  movej(p[0.888835,-0.058514,-0.06,0,3.141593,0], a=0.523599, v=0.349066, r=0.002)  # [Transform: move to [888.835, -58.514, -60] mm and rotate to [[-1, 0, 0], [0, 1, 0], [0, 0, -1]]]
  movej(p[0.888641,-0.057908,-0.06,0,3.141593,0], a=0.523599, v=0.349066, r=0.002)  # [Transform: move to [888.641, -57.908, -60] mm and rotate to [[-1, 0, 0], [0, 1, 0], [0, 0, -1]]]
  movej(p[0.888458,-0.057299,-0.06,0,3.141593,0], a=0.523599, v=0.349066, r=0.002)  # [Transform: move to [888.458, -57.299, -60] mm and rotate to [[-1, 0, 0], [0, 1, 0], [0, 0, -1]]]
  movej(p[0.888288,-0.056686,-0.06,0,3.141593,0], a=0.523599, v=0.349066, r=0.002)  # [Transform: move to [888.288, -56.686, -60] mm and rotate to [[-1, 0, 0], [0, 1, 0], [0, 0, -1]]]
  movej(p[0.888133,-0.056069,-0.06,0,3.141593,0], a=0.523599, v=0.349066, r=0.002)  # [Transform: move to [888.133, -56.069, -60] mm and rotate to [[-1, 0, 0], [0, 1, 0], [0, 0, -1]]]
  movej(p[0.887993,-0.055448,-0.06,0,3.141593,0], a=0.523599, v=0.349066, r=0.002)  # [Transform: move to [887.993, -55.448, -60] mm and rotate to [[-1, 0, 0], [0, 1, 0], [0, 0, -1]]]
  movej(p[0.887871,-0.054824,-0.06,0,3.141593,0], a=0.523599, v=0.349066, r=0.002)  # [Transform: move to [887.871, -54.824, -60] mm and rotate to [[-1, 0, 0], [0, 1, 0], [0, 0, -1]]]
  movej(p[0.887769,-0.054196,-0.06,0,3.141593,0], a=0.523599, v=0.349066, r=0.002)  # [Transform: move to [887.769, -54.196, -60] mm and rotate to [[-1, 0, 0], [0, 1, 0], [0, 0, -1]]]
  movej(p[0.887687,-0.053565,-0.06,0,3.141593,0], a=0.523599, v=0.349066, r=0.002)  # [Transform: move to [887.687, -53.565, -60] mm and rotate to [[-1, 0, 0], [0, 1, 0], [0, 0, -1]]]
  movej(p[0.88763,-0.052931,-0.06,0,3.141593,0], a=0.523599, v=0.349066, r=0.002)  # [Transform: move to [887.63, -52.931, -60] mm and rotate to [[-1, 0, 0], [0, 1, 0], [0, 0, -1]]]
  movej(p[0.887597,-0.052296,-0.06,0,3.141593,0], a=0.523599, v=0.349066, r=0.002)  # [Transform: move to [887.597, -52.296, -60] mm and rotate to [[-1, 0, 0], [0, 1, 0], [0, 0, -1]]]
  movej(p[0.887592,-0.051659,-0.06,0,3.141593,0], a=0.523599, v=0.349066, r=0.002)  # [Transform: move to [887.592, -51.659, -60] mm and rotate to [[-1, 0, 0], [0, 1, 0], [0, 0, -1]]]
  movej(p[0.887616,-0.051024,-0.06,0,3.141593,0], a=0.523599, v=0.349066, r=0.002)  # [Transform: move to [887.616, -51.024, -60] mm and rotate to [[-1, 0, 0], [0, 1, 0], [0, 0, -1]]]
  movej(p[0.887671,-0.05039,-0.06,0,3.141593,0], a=0.523599, v=0.349066, r=0.002)  # [Transform: move to [887.671, -50.39, -60] mm and rotate to [[-1, 0, 0], [0, 1, 0], [0, 0, -1]]]
  movej(p[0.887759,-0.04976,-0.06,0,3.141593,0], a=0.523599, v=0.349066, r=0.002)  # [Transform: move to [887.759, -49.76, -60] mm and rotate to [[-1, 0, 0], [0, 1, 0], [0, 0, -1]]]
  movej(p[0.887881,-0.049135,-0.06,0,3.141593,0], a=0.523599, v=0.349066, r=0.002)  # [Transform: move to [887.881, -49.135, -60] mm and rotate to [[-1, 0, 0], [0, 1, 0], [0, 0, -1]]]
  movej(p[0.888035,-0.048518,-0.06,0,3.141593,0], a=0.523599, v=0.349066, r=0.002)  # [Transform: move to [888.035, -48.518, -60] mm and rotate to [[-1, 0, 0], [0, 1, 0], [0, 0, -1]]]
  movej(p[0.888222,-0.04791,-0.06,0,3.141593,0], a=0.523599, v=0.349066, r=0.002)  # [Transform: move to [888.222, -47.91, -60] mm and rotate to [[-1, 0, 0], [0, 1, 0], [0, 0, -1]]]
  movej(p[0.88845,-0.047316,-0.06,0,3.141593,0], a=0.523599, v=0.349066, r=0.002)  # [Transform: move to [888.45, -47.316, -60] mm and rotate to [[-1, 0, 0], [0, 1, 0], [0, 0, -1]]]
  movej(p[0.888727,-0.046743,-0.06,0,3.141593,0], a=0.523599, v=0.349066, r=0.002)  # [Transform: move to [888.727, -46.743, -60] mm and rotate to [[-1, 0, 0], [0, 1, 0], [0, 0, -1]]]
  movej(p[0.889069,-0.046208,-0.06,0,3.141593,0], a=0.523599, v=0.349066, r=0.002)  # [Transform: move to [889.069, -46.208, -60] mm and rotate to [[-1, 0, 0], [0, 1, 0], [0, 0, -1]]]
  movej(p[0.889501,-0.045742,-0.06,0,3.141593,0], a=0.523599, v=0.349066, r=0.002)  # [Transform: move to [889.501, -45.742, -60] mm and rotate to [[-1, 0, 0], [0, 1, 0], [0, 0, -1]]]
  movej(p[0.89004,-0.04541,-0.06,0,3.141593,0], a=0.523599, v=0.349066, r=0.002)  # [Transform: move to [890.04, -45.41, -60] mm and rotate to [[-1, 0, 0], [0, 1, 0], [0, 0, -1]]]
  movej(p[0.890662,-0.045298,-0.06,0,3.141593,0], a=0.523599, v=0.349066, r=0.002)  # [Transform: move to [890.662, -45.298, -60] mm and rotate to [[-1, 0, 0], [0, 1, 0], [0, 0, -1]]]
  movej(p[0.891284,-0.045418,-0.06,0,3.141593,0], a=0.523599, v=0.349066, r=0.002)  # [Transform: move to [891.284, -45.418, -60] mm and rotate to [[-1, 0, 0], [0, 1, 0], [0, 0, -1]]]
  movej(p[0.891856,-0.045696,-0.06,0,3.141593,0], a=0.523599, v=0.349066, r=0.002)  # [Transform: move to [891.856, -45.696, -60] mm and rotate to [[-1, 0, 0], [0, 1, 0], [0, 0, -1]]]
  movej(p[0.892387,-0.046046,-0.06,0,3.141593,0], a=0.523599, v=0.349066, r=0.002)  # [Transform: move to [892.387, -46.046, -60] mm and rotate to [[-1, 0, 0], [0, 1, 0], [0, 0, -1]]]
  movej(p[0.89289,-0.046435,-0.06,0,3.141593,0], a=0.523599, v=0.349066, r=0.002)  # [Transform: move to [892.89, -46.435, -60] mm and rotate to [[-1, 0, 0], [0, 1, 0], [0, 0, -1]]]
  movej(p[0.893369,-0.046854,-0.06,0,3.141593,0], a=0.523599, v=0.349066, r=0.002)  # [Transform: move to [893.369, -46.854, -60] mm and rotate to [[-1, 0, 0], [0, 1, 0], [0, 0, -1]]]
  movej(p[0.893826,-0.047296,-0.06,0,3.141593,0], a=0.523599, v=0.349066, r=0.002)  # [Transform: move to [893.826, -47.296, -60] mm and rotate to [[-1, 0, 0], [0, 1, 0], [0, 0, -1]]]
  movej(p[0.894265,-0.047757,-0.06,0,3.141593,0], a=0.523599, v=0.349066, r=0.002)  # [Transform: move to [894.265, -47.757, -60] mm and rotate to [[-1, 0, 0], [0, 1, 0], [0, 0, -1]]]
  movej(p[0.894689,-0.048231,-0.06,0,3.141593,0], a=0.523599, v=0.349066, r=0.002)  # [Transform: move to [894.689, -48.231, -60] mm and rotate to [[-1, 0, 0], [0, 1, 0], [0, 0, -1]]]
  movej(p[0.8951,-0.048717,-0.06,0,3.141593,0], a=0.523599, v=0.349066, r=0.002)  # [Transform: move to [895.1, -48.717, -60] mm and rotate to [[-1, 0, 0], [0, 1, 0], [0, 0, -1]]]
  movej(p[0.895498,-0.049213,-0.06,0,3.141593,0], a=0.523599, v=0.349066, r=0.002)  # [Transform: move to [895.498, -49.213, -60] mm and rotate to [[-1, 0, 0], [0, 1, 0], [0, 0, -1]]]
  movej(p[0.895879,-0.049723,-0.06,0,3.141593,0], a=0.523599, v=0.349066, r=0.002)  # [Transform: move to [895.879, -49.723, -60] mm and rotate to [[-1, 0, 0], [0, 1, 0], [0, 0, -1]]]
  movej(p[0.896241,-0.050246,-0.06,0,3.141593,0], a=0.523599, v=0.349066, r=0.002)  # [Transform: move to [896.241, -50.246, -60] mm and rotate to [[-1, 0, 0], [0, 1, 0], [0, 0, -1]]]
  movej(p[0.896585,-0.050781,-0.06,0,3.141593,0], a=0.523599, v=0.349066, r=0.002)  # [Transform: move to [896.585, -50.781, -60] mm and rotate to [[-1, 0, 0], [0, 1, 0], [0, 0, -1]]]
  movej(p[0.896909,-0.051329,-0.06,0,3.141593,0], a=0.523599, v=0.349066, r=0.002)  # [Transform: move to [896.909, -51.329, -60] mm and rotate to [[-1, 0, 0], [0, 1, 0], [0, 0, -1]]]
  movej(p[0.897215,-0.051887,-0.06,0,3.141593,0], a=0.523599, v=0.349066, r=0.002)  # [Transform: move to [897.215, -51.887, -60] mm and rotate to [[-1, 0, 0], [0, 1, 0], [0, 0, -1]]]
  movej(p[0.8975,-0.052455,-0.06,0,3.141593,0], a=0.523599, v=0.349066, r=0.002)  # [Transform: move to [897.5, -52.455, -60] mm and rotate to [[-1, 0, 0], [0, 1, 0], [0, 0, -1]]]
  movej(p[0.897765,-0.053034,-0.06,0,3.141593,0], a=0.523599, v=0.349066, r=0.002)  # [Transform: move to [897.765, -53.034, -60] mm and rotate to [[-1, 0, 0], [0, 1, 0], [0, 0, -1]]]
  movej(p[0.89801,-0.053621,-0.06,0,3.141593,0], a=0.523599, v=0.349066, r=0.002)  # [Transform: move to [898.01, -53.621, -60] mm and rotate to [[-1, 0, 0], [0, 1, 0], [0, 0, -1]]]
  movej(p[0.898235,-0.054216,-0.06,0,3.141593,0], a=0.523599, v=0.349066, r=0.002)  # [Transform: move to [898.235, -54.216, -60] mm and rotate to [[-1, 0, 0], [0, 1, 0], [0, 0, -1]]]
  movej(p[0.898438,-0.054819,-0.06,0,3.141593,0], a=0.523599, v=0.349066, r=0.002)  # [Transform: move to [898.438, -54.819, -60] mm and rotate to [[-1, 0, 0], [0, 1, 0], [0, 0, -1]]]
  movej(p[0.89862,-0.055429,-0.06,0,3.141593,0], a=0.523599, v=0.349066, r=0.002)  # [Transform: move to [898.62, -55.429, -60] mm and rotate to [[-1, 0, 0], [0, 1, 0], [0, 0, -1]]]
  movej(p[0.898781,-0.056044,-0.06,0,3.141593,0], a=0.523599, v=0.349066, r=0.002)  # [Transform: move to [898.781, -56.044, -60] mm and rotate to [[-1, 0, 0], [0, 1, 0], [0, 0, -1]]]
  movej(p[0.89892,-0.056665,-0.06,0,3.141593,0], a=0.523599, v=0.349066, r=0.002)  # [Transform: move to [898.92, -56.665, -60] mm and rotate to [[-1, 0, 0], [0, 1, 0], [0, 0, -1]]]
  movej(p[0.899037,-0.05729,-0.06,0,3.141593,0], a=0.523599, v=0.349066, r=0.002)  # [Transform: move to [899.037, -57.29, -60] mm and rotate to [[-1, 0, 0], [0, 1, 0], [0, 0, -1]]]
  movej(p[0.899133,-0.05792,-0.06,0,3.141593,0], a=0.523599, v=0.349066, r=0.002)  # [Transform: move to [899.133, -57.92, -60] mm and rotate to [[-1, 0, 0], [0, 1, 0], [0, 0, -1]]]
  movej(p[0.899206,-0.058551,-0.06,0,3.141593,0], a=0.523599, v=0.349066, r=0.002)  # [Transform: move to [899.206, -58.551, -60] mm and rotate to [[-1, 0, 0], [0, 1, 0], [0, 0, -1]]]
  movej(p[0.899229,-0.058424,-0.06,0,3.141593,0], a=0.523599, v=0.349066, r=0.002)  # [Transform: move to [899.229, -58.424, -60] mm and rotate to [[-1, 0, 0], [0, 1, 0], [0, 0, -1]]]
  movej(p[0.899261,-0.057789,-0.06,0,3.141593,0], a=0.523599, v=0.349066, r=0.002)  # [Transform: move to [899.261, -57.789, -60] mm and rotate to [[-1, 0, 0], [0, 1, 0], [0, 0, -1]]]
  movej(p[0.899333,-0.057157,-0.06,0,3.141593,0], a=0.523599, v=0.349066, r=0.002)  # [Transform: move to [899.333, -57.157, -60] mm and rotate to [[-1, 0, 0], [0, 1, 0], [0, 0, -1]]]
  movej(p[0.899444,-0.056531,-0.06,0,3.141593,0], a=0.523599, v=0.349066, r=0.002)  # [Transform: move to [899.444, -56.531, -60] mm and rotate to [[-1, 0, 0], [0, 1, 0], [0, 0, -1]]]
  movej(p[0.899594,-0.055912,-0.06,0,3.141593,0], a=0.523599, v=0.349066, r=0.002)  # [Transform: move to [899.594, -55.912, -60] mm and rotate to [[-1, 0, 0], [0, 1, 0], [0, 0, -1]]]
  movej(p[0.899782,-0.055305,-0.06,0,3.141593,0], a=0.523599, v=0.349066, r=0.002)  # [Transform: move to [899.782, -55.305, -60] mm and rotate to [[-1, 0, 0], [0, 1, 0], [0, 0, -1]]]
  movej(p[0.900005,-0.054709,-0.06,0,3.141593,0], a=0.523599, v=0.349066, r=0.002)  # [Transform: move to [900.005, -54.709, -60] mm and rotate to [[-1, 0, 0], [0, 1, 0], [0, 0, -1]]]
  movej(p[0.900263,-0.054127,-0.06,0,3.141593,0], a=0.523599, v=0.349066, r=0.002)  # [Transform: move to [900.263, -54.127, -60] mm and rotate to [[-1, 0, 0], [0, 1, 0], [0, 0, -1]]]
  movej(p[0.900554,-0.053561,-0.06,0,3.141593,0], a=0.523599, v=0.349066, r=0.002)  # [Transform: move to [900.554, -53.561, -60] mm and rotate to [[-1, 0, 0], [0, 1, 0], [0, 0, -1]]]
  movej(p[0.900876,-0.053013,-0.06,0,3.141593,0], a=0.523599, v=0.349066, r=0.002)  # [Transform: move to [900.876, -53.013, -60] mm and rotate to [[-1, 0, 0], [0, 1, 0], [0, 0, -1]]]
  movej(p[0.901228,-0.052483,-0.06,0,3.141593,0], a=0.523599, v=0.349066, r=0.002)  # [Transform: move to [901.228, -52.483, -60] mm and rotate to [[-1, 0, 0], [0, 1, 0], [0, 0, -1]]]
  movej(p[0.901608,-0.051973,-0.06,0,3.141593,0], a=0.523599, v=0.349066, r=0.002)  # [Transform: move to [901.608, -51.973, -60] mm and rotate to [[-1, 0, 0], [0, 1, 0], [0, 0, -1]]]
  movej(p[0.902015,-0.051484,-0.06,0,3.141593,0], a=0.523599, v=0.349066, r=0.002)  # [Transform: move to [902.015, -51.484, -60] mm and rotate to [[-1, 0, 0], [0, 1, 0], [0, 0, -1]]]
  movej(p[0.902447,-0.051017,-0.06,0,3.141593,0], a=0.523599, v=0.349066, r=0.002)  # [Transform: move to [902.447, -51.017, -60] mm and rotate to [[-1, 0, 0], [0, 1, 0], [0, 0, -1]]]
  movej(p[0.902903,-0.050573,-0.06,0,3.141593,0], a=0.523599, v=0.349066, r=0.002)  # [Transform: move to [902.903, -50.573, -60] mm and rotate to [[-1, 0, 0], [0, 1, 0], [0, 0, -1]]]
  movej(p[0.903382,-0.050154,-0.06,0,3.141593,0], a=0.523599, v=0.349066, r=0.002)  # [Transform: move to [903.382, -50.154, -60] mm and rotate to [[-1, 0, 0], [0, 1, 0], [0, 0, -1]]]
  movej(p[0.903882,-0.049761,-0.06,0,3.141593,0], a=0.523599, v=0.349066, r=0.002)  # [Transform: move to [903.882, -49.761, -60] mm and rotate to [[-1, 0, 0], [0, 1, 0], [0, 0, -1]]]
  movej(p[0.904402,-0.049394,-0.06,0,3.141593,0], a=0.523599, v=0.349066, r=0.002)  # [Transform: move to [904.402, -49.394, -60] mm and rotate to [[-1, 0, 0], [0, 1, 0], [0, 0, -1]]]
  movej(p[0.904943,-0.049059,-0.06,0,3.141593,0], a=0.523599, v=0.349066, r=0.002)  # [Transform: move to [904.943, -49.059, -60] mm and rotate to [[-1, 0, 0], [0, 1, 0], [0, 0, -1]]]
  movej(p[0.905501,-0.048755,-0.06,0,3.141593,0], a=0.523599, v=0.349066, r=0.002)  # [Transform: move to [905.501, -48.755, -60] mm and rotate to [[-1, 0, 0], [0, 1, 0], [0, 0, -1]]]
  movej(p[0.906075,-0.04848,-0.06,0,3.141593,0], a=0.523599, v=0.349066, r=0.002)  # [Transform: move to [906.075, -48.48, -60] mm and rotate to [[-1, 0, 0], [0, 1, 0], [0, 0, -1]]]
  movej(p[0.906661,-0.048233,-0.06,0,3.141593,0], a=0.523599, v=0.349066, r=0.002)  # [Transform: move to [906.661, -48.233, -60] mm and rotate to [[-1, 0, 0], [0, 1, 0], [0, 0, -1]]]
  movej(p[0.907259,-0.048016,-0.06,0,3.141593,0], a=0.523599, v=0.349066, r=0.002)  # [Transform: move to [907.259, -48.016, -60] mm and rotate to [[-1, 0, 0], [0, 1, 0], [0, 0, -1]]]
  movej(p[0.907868,-0.047829,-0.06,0,3.141593,0], a=0.523599, v=0.349066, r=0.002)  # [Transform: move to [907.868, -47.829, -60] mm and rotate to [[-1, 0, 0], [0, 1, 0], [0, 0, -1]]]
  movej(p[0.908484,-0.047673,-0.06,0,3.141593,0], a=0.523599, v=0.349066, r=0.002)  # [Transform: move to [908.484, -47.673, -60] mm and rotate to [[-1, 0, 0], [0, 1, 0], [0, 0, -1]]]
  movej(p[0.909109,-0.047551,-0.06,0,3.141593,0], a=0.523599, v=0.349066, r=0.002)  # [Transform: move to [909.109, -47.551, -60] mm and rotate to [[-1, 0, 0], [0, 1, 0], [0, 0, -1]]]
  movej(p[0.909739,-0.047465,-0.06,0,3.141593,0], a=0.523599, v=0.349066, r=0.002)  # [Transform: move to [909.739, -47.465, -60] mm and rotate to [[-1, 0, 0], [0, 1, 0], [0, 0, -1]]]
  movej(p[0.910374,-0.047419,-0.06,0,3.141593,0], a=0.523599, v=0.349066, r=0.002)  # [Transform: move to [910.374, -47.419, -60] mm and rotate to [[-1, 0, 0], [0, 1, 0], [0, 0, -1]]]
  movej(p[0.91101,-0.047415,-0.06,0,3.141593,0], a=0.523599, v=0.349066, r=0.002)  # [Transform: move to [911.01, -47.415, -60] mm and rotate to [[-1, 0, 0], [0, 1, 0], [0, 0, -1]]]
  movej(p[0.911644,-0.047459,-0.06,0,3.141593,0], a=0.523599, v=0.349066, r=0.002)  # [Transform: move to [911.644, -47.459, -60] mm and rotate to [[-1, 0, 0], [0, 1, 0], [0, 0, -1]]]
  movej(p[0.912273,-0.047556,-0.06,0,3.141593,0], a=0.523599, v=0.349066, r=0.002)  # [Transform: move to [912.273, -47.556, -60] mm and rotate to [[-1, 0, 0], [0, 1, 0], [0, 0, -1]]]
  movej(p[0.91289,-0.04771,-0.06,0,3.141593,0], a=0.523599, v=0.349066, r=0.002)  # [Transform: move to [912.89, -47.71, -60] mm and rotate to [[-1, 0, 0], [0, 1, 0], [0, 0, -1]]]
  movej(p[0.913488,-0.047926,-0.06,0,3.141593,0], a=0.523599, v=0.349066, r=0.002)  # [Transform: move to [913.488, -47.926, -60] mm and rotate to [[-1, 0, 0], [0, 1, 0], [0, 0, -1]]]
  movej(p[0.914059,-0.048205,-0.06,0,3.141593,0], a=0.523599, v=0.349066, r=0.002)  # [Transform: move to [914.059, -48.205, -60] mm and rotate to [[-1, 0, 0], [0, 1, 0], [0, 0, -1]]]
  movej(p[0.914594,-0.04855,-0.06,0,3.141593,0], a=0.523599, v=0.349066, r=0.002)  # [Transform: move to [914.594, -48.55, -60] mm and rotate to [[-1, 0, 0], [0, 1, 0], [0, 0, -1]]]
  movej(p[0.915083,-0.048956,-0.06,0,3.141593,0], a=0.523599, v=0.349066, r=0.002)  # [Transform: move to [915.083, -48.956, -60] mm and rotate to [[-1, 0, 0], [0, 1, 0], [0, 0, -1]]]
  movej(p[0.915518,-0.04942,-0.06,0,3.141593,0], a=0.523599, v=0.349066, r=0.002)  # [Transform: move to [915.518, -49.42, -60] mm and rotate to [[-1, 0, 0], [0, 1, 0], [0, 0, -1]]]
  movej(p[0.915883,-0.04994,-0.06,0,3.141593,0], a=0.523599, v=0.349066, r=0.002)  # [Transform: move to [915.883, -49.94, -60] mm and rotate to [[-1, 0, 0], [0, 1, 0], [0, 0, -1]]]
  movej(p[0.916167,-0.050509,-0.06,0,3.141593,0], a=0.523599, v=0.349066, r=0.002)  # [Transform: move to [916.167, -50.509, -60] mm and rotate to [[-1, 0, 0], [0, 1, 0], [0, 0, -1]]]
  movej(p[0.916364,-0.051114,-0.06,0,3.141593,0], a=0.523599, v=0.349066, r=0.002)  # [Transform: move to [916.364, -51.114, -60] mm and rotate to [[-1, 0, 0], [0, 1, 0], [0, 0, -1]]]
  movej(p[0.916476,-0.051739,-0.06,0,3.141593,0], a=0.523599, v=0.349066, r=0.002)  # [Transform: move to [916.476, -51.739, -60] mm and rotate to [[-1, 0, 0], [0, 1, 0], [0, 0, -1]]]
  movej(p[0.916512,-0.052374,-0.06,0,3.141593,0], a=0.523599, v=0.349066, r=0.002)  # [Transform: move to [916.512, -52.374, -60] mm and rotate to [[-1, 0, 0], [0, 1, 0], [0, 0, -1]]]
  movej(p[0.916482,-0.05301,-0.06,0,3.141593,0], a=0.523599, v=0.349066, r=0.002)  # [Transform: move to [916.482, -53.01, -60] mm and rotate to [[-1, 0, 0], [0, 1, 0], [0, 0, -1]]]
  movej(p[0.916396,-0.05364,-0.06,0,3.141593,0], a=0.523599, v=0.349066, r=0.002)  # [Transform: move to [916.396, -53.64, -60] mm and rotate to [[-1, 0, 0], [0, 1, 0], [0, 0, -1]]]
  movej(p[0.916265,-0.054262,-0.06,0,3.141593,0], a=0.523599, v=0.349066, r=0.002)  # [Transform: move to [916.265, -54.262, -60] mm and rotate to [[-1, 0, 0], [0, 1, 0], [0, 0, -1]]]
  movej(p[0.916096,-0.054876,-0.06,0,3.141593,0], a=0.523599, v=0.349066, r=0.002)  # [Transform: move to [916.096, -54.876, -60] mm and rotate to [[-1, 0, 0], [0, 1, 0], [0, 0, -1]]]
  movej(p[0.915895,-0.05548,-0.06,0,3.141593,0], a=0.523599, v=0.349066, r=0.002)  # [Transform: move to [915.895, -55.48, -60] mm and rotate to [[-1, 0, 0], [0, 1, 0], [0, 0, -1]]]
  movej(p[0.915669,-0.056074,-0.06,0,3.141593,0], a=0.523599, v=0.349066, r=0.002)  # [Transform: move to [915.669, -56.074, -60] mm and rotate to [[-1, 0, 0], [0, 1, 0], [0, 0, -1]]]
  movej(p[0.915421,-0.05666,-0.06,0,3.141593,0], a=0.523599, v=0.349066, r=0.002)  # [Transform: move to [915.421, -56.66, -60] mm and rotate to [[-1, 0, 0], [0, 1, 0], [0, 0, -1]]]
  movej(p[0.915155,-0.057238,-0.06,0,3.141593,0], a=0.523599, v=0.349066, r=0.002)  # [Transform: move to [915.155, -57.238, -60] mm and rotate to [[-1, 0, 0], [0, 1, 0], [0, 0, -1]]]
  movej(p[0.914874,-0.057809,-0.06,0,3.141593,0], a=0.523599, v=0.349066, r=0.002)  # [Transform: move to [914.874, -57.809, -60] mm and rotate to [[-1, 0, 0], [0, 1, 0], [0, 0, -1]]]
  movej(p[0.914581,-0.058374,-0.06,0,3.141593,0], a=0.523599, v=0.349066, r=0.002)  # [Transform: move to [914.581, -58.374, -60] mm and rotate to [[-1, 0, 0], [0, 1, 0], [0, 0, -1]]]
  movej(p[0.914279,-0.058934,-0.06,0,3.141593,0], a=0.523599, v=0.349066, r=0.002)  # [Transform: move to [914.279, -58.934, -60] mm and rotate to [[-1, 0, 0], [0, 1, 0], [0, 0, -1]]]
  movej(p[0.91397,-0.05949,-0.06,0,3.141593,0], a=0.523599, v=0.349066, r=0.002)  # [Transform: move to [913.97, -59.49, -60] mm and rotate to [[-1, 0, 0], [0, 1, 0], [0, 0, -1]]]
  movej(p[0.913658,-0.060044,-0.06,0,3.141593,0], a=0.523599, v=0.349066, r=0.002)  # [Transform: move to [913.658, -60.044, -60] mm and rotate to [[-1, 0, 0], [0, 1, 0], [0, 0, -1]]]
  movej(p[0.913343,-0.060597,-0.06,0,3.141593,0], a=0.523599, v=0.349066, r=0.002)  # [Transform: move to [913.343, -60.597, -60] mm and rotate to [[-1, 0, 0], [0, 1, 0], [0, 0, -1]]]
  movej(p[0.913023,-0.061147,-0.06,0,3.141593,0], a=0.523599, v=0.349066, r=0.002)  # [Transform: move to [913.023, -61.147, -60] mm and rotate to [[-1, 0, 0], [0, 1, 0], [0, 0, -1]]]
  movej(p[0.9127,-0.061695,-0.06,0,3.141593,0], a=0.523599, v=0.349066, r=0.002)  # [Transform: move to [912.7, -61.695, -60] mm and rotate to [[-1, 0, 0], [0, 1, 0], [0, 0, -1]]]
  movej(p[0.912372,-0.062241,-0.06,0,3.141593,0], a=0.523599, v=0.349066, r=0.002)  # [Transform: move to [912.372, -62.241, -60] mm and rotate to [[-1, 0, 0], [0, 1, 0], [0, 0, -1]]]
  movej(p[0.912041,-0.062784,-0.06,0,3.141593,0], a=0.523599, v=0.349066, r=0.002)  # [Transform: move to [912.041, -62.784, -60] mm and rotate to [[-1, 0, 0], [0, 1, 0], [0, 0, -1]]]
  movej(p[0.911705,-0.063324,-0.06,0,3.141593,0], a=0.523599, v=0.349066, r=0.002)  # [Transform: move to [911.705, -63.324, -60] mm and rotate to [[-1, 0, 0], [0, 1, 0], [0, 0, -1]]]
  movej(p[0.911365,-0.063862,-0.06,0,3.141593,0], a=0.523599, v=0.349066, r=0.002)  # [Transform: move to [911.365, -63.862, -60] mm and rotate to [[-1, 0, 0], [0, 1, 0], [0, 0, -1]]]
  movej(p[0.911021,-0.064397,-0.06,0,3.141593,0], a=0.523599, v=0.349066, r=0.002)  # [Transform: move to [911.021, -64.397, -60] mm and rotate to [[-1, 0, 0], [0, 1, 0], [0, 0, -1]]]
  movej(p[0.910673,-0.06493,-0.06,0,3.141593,0], a=0.523599, v=0.349066, r=0.002)  # [Transform: move to [910.673, -64.93, -60] mm and rotate to [[-1, 0, 0], [0, 1, 0], [0, 0, -1]]]
  movej(p[0.910321,-0.06546,-0.06,0,3.141593,0], a=0.523599, v=0.349066, r=0.002)  # [Transform: move to [910.321, -65.46, -60] mm and rotate to [[-1, 0, 0], [0, 1, 0], [0, 0, -1]]]
  movej(p[0.909965,-0.065987,-0.06,0,3.141593,0], a=0.523599, v=0.349066, r=0.002)  # [Transform: move to [909.965, -65.987, -60] mm and rotate to [[-1, 0, 0], [0, 1, 0], [0, 0, -1]]]
  movej(p[0.909605,-0.066512,-0.06,0,3.141593,0], a=0.523599, v=0.349066, r=0.002)  # [Transform: move to [909.605, -66.512, -60] mm and rotate to [[-1, 0, 0], [0, 1, 0], [0, 0, -1]]]
  movej(p[0.909241,-0.067034,-0.06,0,3.141593,0], a=0.523599, v=0.349066, r=0.002)  # [Transform: move to [909.241, -67.034, -60] mm and rotate to [[-1, 0, 0], [0, 1, 0], [0, 0, -1]]]
  movej(p[0.908873,-0.067553,-0.06,0,3.141593,0], a=0.523599, v=0.349066, r=0.002)  # [Transform: move to [908.873, -67.553, -60] mm and rotate to [[-1, 0, 0], [0, 1, 0], [0, 0, -1]]]
  movej(p[0.908501,-0.068069,-0.06,0,3.141593,0], a=0.523599, v=0.349066, r=0.002)  # [Transform: move to [908.501, -68.069, -60] mm and rotate to [[-1, 0, 0], [0, 1, 0], [0, 0, -1]]]
  movej(p[0.908126,-0.068583,-0.06,0,3.141593,0], a=0.523599, v=0.349066, r=0.002)  # [Transform: move to [908.126, -68.583, -60] mm and rotate to [[-1, 0, 0], [0, 1, 0], [0, 0, -1]]]
  movej(p[0.907746,-0.069093,-0.06,0,3.141593,0], a=0.523599, v=0.349066, r=0.002)  # [Transform: move to [907.746, -69.093, -60] mm and rotate to [[-1, 0, 0], [0, 1, 0], [0, 0, -1]]]
