## ###\   ###\ #####\  ######\##\  ##\##\###\   ##\ #####\ 
## ####\ ####\##\\\##\##\\\\\\##\  ##\##\####\  ##\##\\\##\
## ##\####\##\#######\##\     #######\##\##\##\ ##\#######\
## ##\\##\\##\##\\\##\##\     ##\\\##\##\##\\##\##\##\\\##\
## ##\ \\\ ##\##\  ##\\######\##\  ##\##\##\ \####\##\  ##\
## \\\     \\\\\\  \\\ \\\\\\\\\\  \\\\\\\\\  \\\\\\\\  \\\
## 
## Program name: wandering_noise
## Created: 02/17/2021 15:55:08
## 
## DISCLAIMER: WORKING WITH ROBOTS CAN BE DANGEROUS!
## When using robots in a real-time interactive environment, please make sure:
##     - You have been adequately trained to use that particular machine,
##     - you are in good physical and mental condition,
##     - you are operating the robot under the utmost security measures,
##     - you are following the facility's and facility staff's security protocols,
##     - and the robot has the appropriate guarding in place, including, but not reduced to:
##         e -stops, physical barriers, light curtains, etc.
## The Machina software framework and its generated code is provided as is;
## use at your own risk. This product is not intended for any use that may
## involve potential risks of death (including lifesaving equipment),
## personal injury, or severe property or environmental damage.
## Machina is in a very early stage of development. You are using this software
## at your own risk, no warranties are provided herewith, and unexpected
## results / bugs may arise during its use. Always test and simulate your
## applications thoroughly before running them on a real device.
## The author/s shall not be liable for any injuries, damages or losses
## consequence of using this software in any way whatsoever.
## 
## 
## Copyright(c) 2021 Jose Luis Garcia del Castillo y Lopez
## https://github.com/RobotExMachina
## 
## MIT License
## 
## Permission is hereby granted, free of charge, to any person obtaining a copy
## of this software and associated documentation files(the "Software"), to deal
## in the Software without restriction, including without limitation the rights
## to use, copy, modify, merge, publish, distribute, sublicense, and / or sell
## copies of the Software, and to permit persons to whom the Software is
## furnished to do so, subject to the following conditions:
## 
## The above copyright notice and this permission notice shall be included in all
## copies or substantial portions of the Software.
## 
## THE SOFTWARE IS PROVIDED "AS IS", WITHOUT WARRANTY OF ANY KIND, EXPRESS OR
## IMPLIED, INCLUDING BUT NOT LIMITED TO THE WARRANTIES OF MERCHANTABILITY,
## FITNESS FOR A PARTICULAR PURPOSE AND NONINFRINGEMENT. IN NO EVENT SHALL THE
## AUTHORS OR COPYRIGHT HOLDERS BE LIABLE FOR ANY CLAIM, DAMAGES OR OTHER
## LIABILITY, WHETHER IN AN ACTION OF CONTRACT, TORT OR OTHERWISE, ARISING FROM,
## OUT OF OR IN CONNECTION WITH THE SOFTWARE OR THE USE OR OTHER DEALINGS IN THE
## SOFTWARE.


def wandering_noise():

  # [Set motion type to 'Joint']
  # [Set motion speed to 36 mm/s or deg/s]
  movej(p[0.684916,-0.04606,-0.214,0,3.141593,0], a=0.523599, v=0.628319, r=0.005)  # [Transform: move to [684.916, -46.06, -214] mm and rotate to [[-1, 0, 0], [0, 1, 0], [0, 0, -1]]]
  movej(p[0.684916,-0.04606,-0.25,0,3.141593,0], a=0.523599, v=0.628319, r=0.005)  # [Transform: move to [684.916, -46.06, -250] mm and rotate to [[-1, 0, 0], [0, 1, 0], [0, 0, -1]]]
  movej(p[0.691187,-0.05385,-0.25,0,3.141593,0], a=0.523599, v=0.628319, r=0.005)  # [Transform: move to [691.187, -53.85, -250] mm and rotate to [[-1, 0, 0], [0, 1, 0], [0, 0, -1]]]
  movej(p[0.696974,-0.062005,-0.25,0,3.141593,0], a=0.523599, v=0.628319, r=0.005)  # [Transform: move to [696.974, -62.005, -250] mm and rotate to [[-1, 0, 0], [0, 1, 0], [0, 0, -1]]]
  movej(p[0.702207,-0.070527,-0.25,0,3.141593,0], a=0.523599, v=0.628319, r=0.005)  # [Transform: move to [702.207, -70.527, -250] mm and rotate to [[-1, 0, 0], [0, 1, 0], [0, 0, -1]]]
  movej(p[0.706786,-0.079416,-0.25,0,3.141593,0], a=0.523599, v=0.628319, r=0.005)  # [Transform: move to [706.786, -79.416, -250] mm and rotate to [[-1, 0, 0], [0, 1, 0], [0, 0, -1]]]
  movej(p[0.710582,-0.088668,-0.25,0,3.141593,0], a=0.523599, v=0.628319, r=0.005)  # [Transform: move to [710.582, -88.668, -250] mm and rotate to [[-1, 0, 0], [0, 1, 0], [0, 0, -1]]]
  movej(p[0.713444,-0.09825,-0.25,0,3.141593,0], a=0.523599, v=0.628319, r=0.005)  # [Transform: move to [713.444, -98.25, -250] mm and rotate to [[-1, 0, 0], [0, 1, 0], [0, 0, -1]]]
  movej(p[0.715217,-0.108091,-0.25,0,3.141593,0], a=0.523599, v=0.628319, r=0.005)  # [Transform: move to [715.217, -108.091, -250] mm and rotate to [[-1, 0, 0], [0, 1, 0], [0, 0, -1]]]
  movej(p[0.715217,-0.108091,-0.214,0,3.141593,0], a=0.523599, v=0.628319, r=0.005)  # [Transform: move to [715.217, -108.091, -214] mm and rotate to [[-1, 0, 0], [0, 1, 0], [0, 0, -1]]]
  movej(p[0.625,-0.3,-0.214,0,3.141593,0], a=0.523599, v=0.628319, r=0.005)  # [Transform: move to [625, -300, -214] mm and rotate to [[-1, 0, 0], [0, 1, 0], [0, 0, -1]]]
  movej(p[0.625,-0.3,-0.25,0,3.141593,0], a=0.523599, v=0.628319, r=0.005)  # [Transform: move to [625, -300, -250] mm and rotate to [[-1, 0, 0], [0, 1, 0], [0, 0, -1]]]
  movej(p[0.625,-0.3,-0.214,0,3.141593,0], a=0.523599, v=0.628319, r=0.005)  # [Transform: move to [625, -300, -214] mm and rotate to [[-1, 0, 0], [0, 1, 0], [0, 0, -1]]]
  movej(p[0.677996,-0.006017,-0.213981,0,3.141593,0], a=0.523599, v=0.628319, r=0.005)  # [Transform: move to [677.996, -6.017, -213.981] mm and rotate to [[-1, 0, 0], [0, 1, 0], [0, 0, -1]]]
  movej(p[0.677996,-0.006017,-0.249981,0,3.141593,0], a=0.523599, v=0.628319, r=0.005)  # [Transform: move to [677.996, -6.017, -249.981] mm and rotate to [[-1, 0, 0], [0, 1, 0], [0, 0, -1]]]
  movej(p[0.681723,-0.015296,-0.249981,0,3.141593,0], a=0.523599, v=0.628319, r=0.005)  # [Transform: move to [681.723, -15.296, -249.981] mm and rotate to [[-1, 0, 0], [0, 1, 0], [0, 0, -1]]]
  movej(p[0.686064,-0.024305,-0.249981,0,3.141593,0], a=0.523599, v=0.628319, r=0.005)  # [Transform: move to [686.064, -24.305, -249.981] mm and rotate to [[-1, 0, 0], [0, 1, 0], [0, 0, -1]]]
  movej(p[0.690785,-0.033121,-0.249981,0,3.141593,0], a=0.523599, v=0.628319, r=0.005)  # [Transform: move to [690.785, -33.121, -249.981] mm and rotate to [[-1, 0, 0], [0, 1, 0], [0, 0, -1]]]
  movej(p[0.69569,-0.041835,-0.249981,0,3.141593,0], a=0.523599, v=0.628319, r=0.005)  # [Transform: move to [695.69, -41.835, -249.981] mm and rotate to [[-1, 0, 0], [0, 1, 0], [0, 0, -1]]]
  movej(p[0.700618,-0.050536,-0.249981,0,3.141593,0], a=0.523599, v=0.628319, r=0.005)  # [Transform: move to [700.618, -50.536, -249.981] mm and rotate to [[-1, 0, 0], [0, 1, 0], [0, 0, -1]]]
  movej(p[0.705422,-0.059307,-0.249981,0,3.141593,0], a=0.523599, v=0.628319, r=0.005)  # [Transform: move to [705.422, -59.307, -249.981] mm and rotate to [[-1, 0, 0], [0, 1, 0], [0, 0, -1]]]
  movej(p[0.709955,-0.06822,-0.249981,0,3.141593,0], a=0.523599, v=0.628319, r=0.005)  # [Transform: move to [709.955, -68.22, -249.981] mm and rotate to [[-1, 0, 0], [0, 1, 0], [0, 0, -1]]]
  movej(p[0.714064,-0.077337,-0.249981,0,3.141593,0], a=0.523599, v=0.628319, r=0.005)  # [Transform: move to [714.064, -77.337, -249.981] mm and rotate to [[-1, 0, 0], [0, 1, 0], [0, 0, -1]]]
  movej(p[0.717574,-0.086701,-0.249981,0,3.141593,0], a=0.523599, v=0.628319, r=0.005)  # [Transform: move to [717.574, -86.701, -249.981] mm and rotate to [[-1, 0, 0], [0, 1, 0], [0, 0, -1]]]
  movej(p[0.720299,-0.096323,-0.249981,0,3.141593,0], a=0.523599, v=0.628319, r=0.005)  # [Transform: move to [720.299, -96.323, -249.981] mm and rotate to [[-1, 0, 0], [0, 1, 0], [0, 0, -1]]]
  movej(p[0.722051,-0.106168,-0.249981,0,3.141593,0], a=0.523599, v=0.628319, r=0.005)  # [Transform: move to [722.051, -106.168, -249.981] mm and rotate to [[-1, 0, 0], [0, 1, 0], [0, 0, -1]]]
  movej(p[0.722677,-0.116148,-0.249981,0,3.141593,0], a=0.523599, v=0.628319, r=0.005)  # [Transform: move to [722.677, -116.148, -249.981] mm and rotate to [[-1, 0, 0], [0, 1, 0], [0, 0, -1]]]
  movej(p[0.722677,-0.116148,-0.213981,0,3.141593,0], a=0.523599, v=0.628319, r=0.005)  # [Transform: move to [722.677, -116.148, -213.981] mm and rotate to [[-1, 0, 0], [0, 1, 0], [0, 0, -1]]]
  movej(p[0.625,-0.3,-0.214,0,3.141593,0], a=0.523599, v=0.628319, r=0.005)  # [Transform: move to [625, -300, -214] mm and rotate to [[-1, 0, 0], [0, 1, 0], [0, 0, -1]]]
  movej(p[0.625,-0.3,-0.25,0,3.141593,0], a=0.523599, v=0.628319, r=0.005)  # [Transform: move to [625, -300, -250] mm and rotate to [[-1, 0, 0], [0, 1, 0], [0, 0, -1]]]
  movej(p[0.625,-0.3,-0.214,0,3.141593,0], a=0.523599, v=0.628319, r=0.005)  # [Transform: move to [625, -300, -214] mm and rotate to [[-1, 0, 0], [0, 1, 0], [0, 0, -1]]]
  movej(p[0.677039,-0.001836,-0.213962,0,3.141593,0], a=0.523599, v=0.628319, r=0.005)  # [Transform: move to [677.039, -1.836, -213.962] mm and rotate to [[-1, 0, 0], [0, 1, 0], [0, 0, -1]]]
  movej(p[0.677039,-0.001836,-0.249962,0,3.141593,0], a=0.523599, v=0.628319, r=0.005)  # [Transform: move to [677.039, -1.836, -249.962] mm and rotate to [[-1, 0, 0], [0, 1, 0], [0, 0, -1]]]
  movej(p[0.680352,-0.011271,-0.249962,0,3.141593,0], a=0.523599, v=0.628319, r=0.005)  # [Transform: move to [680.352, -11.271, -249.962] mm and rotate to [[-1, 0, 0], [0, 1, 0], [0, 0, -1]]]
  movej(p[0.684408,-0.020411,-0.249962,0,3.141593,0], a=0.523599, v=0.628319, r=0.005)  # [Transform: move to [684.408, -20.411, -249.962] mm and rotate to [[-1, 0, 0], [0, 1, 0], [0, 0, -1]]]
  movej(p[0.688952,-0.029319,-0.249962,0,3.141593,0], a=0.523599, v=0.628319, r=0.005)  # [Transform: move to [688.952, -29.319, -249.962] mm and rotate to [[-1, 0, 0], [0, 1, 0], [0, 0, -1]]]
  movej(p[0.69377,-0.038082,-0.249962,0,3.141593,0], a=0.523599, v=0.628319, r=0.005)  # [Transform: move to [693.77, -38.082, -249.962] mm and rotate to [[-1, 0, 0], [0, 1, 0], [0, 0, -1]]]
  movej(p[0.698685,-0.046791,-0.249962,0,3.141593,0], a=0.523599, v=0.628319, r=0.005)  # [Transform: move to [698.685, -46.791, -249.962] mm and rotate to [[-1, 0, 0], [0, 1, 0], [0, 0, -1]]]
  movej(p[0.703543,-0.055531,-0.249962,0,3.141593,0], a=0.523599, v=0.628319, r=0.005)  # [Transform: move to [703.543, -55.531, -249.962] mm and rotate to [[-1, 0, 0], [0, 1, 0], [0, 0, -1]]]
  movej(p[0.708199,-0.064382,-0.249962,0,3.141593,0], a=0.523599, v=0.628319, r=0.005)  # [Transform: move to [708.199, -64.382, -249.962] mm and rotate to [[-1, 0, 0], [0, 1, 0], [0, 0, -1]]]
  movej(p[0.7125,-0.073409,-0.249962,0,3.141593,0], a=0.523599, v=0.628319, r=0.005)  # [Transform: move to [712.5, -73.409, -249.962] mm and rotate to [[-1, 0, 0], [0, 1, 0], [0, 0, -1]]]
  movej(p[0.716282,-0.082666,-0.249962,0,3.141593,0], a=0.523599, v=0.628319, r=0.005)  # [Transform: move to [716.282, -82.666, -249.962] mm and rotate to [[-1, 0, 0], [0, 1, 0], [0, 0, -1]]]
  movej(p[0.719363,-0.09218,-0.249962,0,3.141593,0], a=0.523599, v=0.628319, r=0.005)  # [Transform: move to [719.363, -92.18, -249.962] mm and rotate to [[-1, 0, 0], [0, 1, 0], [0, 0, -1]]]
  movej(p[0.721549,-0.101938,-0.249962,0,3.141593,0], a=0.523599, v=0.628319, r=0.005)  # [Transform: move to [721.549, -101.938, -249.962] mm and rotate to [[-1, 0, 0], [0, 1, 0], [0, 0, -1]]]
  movej(p[0.72267,-0.111875,-0.249962,0,3.141593,0], a=0.523599, v=0.628319, r=0.005)  # [Transform: move to [722.67, -111.875, -249.962] mm and rotate to [[-1, 0, 0], [0, 1, 0], [0, 0, -1]]]
  movej(p[0.72267,-0.111875,-0.213962,0,3.141593,0], a=0.523599, v=0.628319, r=0.005)  # [Transform: move to [722.67, -111.875, -213.962] mm and rotate to [[-1, 0, 0], [0, 1, 0], [0, 0, -1]]]
  movej(p[0.625,-0.3,-0.214,0,3.141593,0], a=0.523599, v=0.628319, r=0.005)  # [Transform: move to [625, -300, -214] mm and rotate to [[-1, 0, 0], [0, 1, 0], [0, 0, -1]]]
  movej(p[0.625,-0.3,-0.25,0,3.141593,0], a=0.523599, v=0.628319, r=0.005)  # [Transform: move to [625, -300, -250] mm and rotate to [[-1, 0, 0], [0, 1, 0], [0, 0, -1]]]
  movej(p[0.625,-0.3,-0.214,0,3.141593,0], a=0.523599, v=0.628319, r=0.005)  # [Transform: move to [625, -300, -214] mm and rotate to [[-1, 0, 0], [0, 1, 0], [0, 0, -1]]]
  movej(p[0.678298,-0.022122,-0.213943,0,3.141593,0], a=0.523599, v=0.628319, r=0.005)  # [Transform: move to [678.298, -22.122, -213.943] mm and rotate to [[-1, 0, 0], [0, 1, 0], [0, 0, -1]]]
  movej(p[0.678298,-0.022122,-0.249943,0,3.141593,0], a=0.523599, v=0.628319, r=0.005)  # [Transform: move to [678.298, -22.122, -249.943] mm and rotate to [[-1, 0, 0], [0, 1, 0], [0, 0, -1]]]
  movej(p[0.683785,-0.030483,-0.249943,0,3.141593,0], a=0.523599, v=0.628319, r=0.005)  # [Transform: move to [683.785, -30.483, -249.943] mm and rotate to [[-1, 0, 0], [0, 1, 0], [0, 0, -1]]]
  movej(p[0.689311,-0.038817,-0.249943,0,3.141593,0], a=0.523599, v=0.628319, r=0.005)  # [Transform: move to [689.311, -38.817, -249.943] mm and rotate to [[-1, 0, 0], [0, 1, 0], [0, 0, -1]]]
  movej(p[0.694755,-0.047205,-0.249943,0,3.141593,0], a=0.523599, v=0.628319, r=0.005)  # [Transform: move to [694.755, -47.205, -249.943] mm and rotate to [[-1, 0, 0], [0, 1, 0], [0, 0, -1]]]
  movej(p[0.700007,-0.055714,-0.249943,0,3.141593,0], a=0.523599, v=0.628319, r=0.005)  # [Transform: move to [700.007, -55.714, -249.943] mm and rotate to [[-1, 0, 0], [0, 1, 0], [0, 0, -1]]]
  movej(p[0.704957,-0.064404,-0.249943,0,3.141593,0], a=0.523599, v=0.628319, r=0.005)  # [Transform: move to [704.957, -64.404, -249.943] mm and rotate to [[-1, 0, 0], [0, 1, 0], [0, 0, -1]]]
  movej(p[0.709479,-0.073323,-0.249943,0,3.141593,0], a=0.523599, v=0.628319, r=0.005)  # [Transform: move to [709.479, -73.323, -249.943] mm and rotate to [[-1, 0, 0], [0, 1, 0], [0, 0, -1]]]
  movej(p[0.713425,-0.082511,-0.249943,0,3.141593,0], a=0.523599, v=0.628319, r=0.005)  # [Transform: move to [713.425, -82.511, -249.943] mm and rotate to [[-1, 0, 0], [0, 1, 0], [0, 0, -1]]]
  movej(p[0.716629,-0.091984,-0.249943,0,3.141593,0], a=0.523599, v=0.628319, r=0.005)  # [Transform: move to [716.629, -91.984, -249.943] mm and rotate to [[-1, 0, 0], [0, 1, 0], [0, 0, -1]]]
  movej(p[0.71891,-0.101721,-0.249943,0,3.141593,0], a=0.523599, v=0.628319, r=0.005)  # [Transform: move to [718.91, -101.721, -249.943] mm and rotate to [[-1, 0, 0], [0, 1, 0], [0, 0, -1]]]
  movej(p[0.720103,-0.111649,-0.249943,0,3.141593,0], a=0.523599, v=0.628319, r=0.005)  # [Transform: move to [720.103, -111.649, -249.943] mm and rotate to [[-1, 0, 0], [0, 1, 0], [0, 0, -1]]]
  movej(p[0.720103,-0.111649,-0.213943,0,3.141593,0], a=0.523599, v=0.628319, r=0.005)  # [Transform: move to [720.103, -111.649, -213.943] mm and rotate to [[-1, 0, 0], [0, 1, 0], [0, 0, -1]]]
  movej(p[0.625,-0.3,-0.214,0,3.141593,0], a=0.523599, v=0.628319, r=0.005)  # [Transform: move to [625, -300, -214] mm and rotate to [[-1, 0, 0], [0, 1, 0], [0, 0, -1]]]
  movej(p[0.625,-0.3,-0.25,0,3.141593,0], a=0.523599, v=0.628319, r=0.005)  # [Transform: move to [625, -300, -250] mm and rotate to [[-1, 0, 0], [0, 1, 0], [0, 0, -1]]]
  movej(p[0.625,-0.3,-0.214,0,3.141593,0], a=0.523599, v=0.628319, r=0.005)  # [Transform: move to [625, -300, -214] mm and rotate to [[-1, 0, 0], [0, 1, 0], [0, 0, -1]]]
  movej(p[0.681376,-0.035725,-0.213925,0,3.141593,0], a=0.523599, v=0.628319, r=0.005)  # [Transform: move to [681.376, -35.725, -213.925] mm and rotate to [[-1, 0, 0], [0, 1, 0], [0, 0, -1]]]
  movej(p[0.681376,-0.035725,-0.249925,0,3.141593,0], a=0.523599, v=0.628319, r=0.005)  # [Transform: move to [681.376, -35.725, -249.925] mm and rotate to [[-1, 0, 0], [0, 1, 0], [0, 0, -1]]]
  movej(p[0.687548,-0.043593,-0.249925,0,3.141593,0], a=0.523599, v=0.628319, r=0.005)  # [Transform: move to [687.548, -43.593, -249.925] mm and rotate to [[-1, 0, 0], [0, 1, 0], [0, 0, -1]]]
  movej(p[0.693429,-0.051681,-0.249925,0,3.141593,0], a=0.523599, v=0.628319, r=0.005)  # [Transform: move to [693.429, -51.681, -249.925] mm and rotate to [[-1, 0, 0], [0, 1, 0], [0, 0, -1]]]
  movej(p[0.698942,-0.060024,-0.249925,0,3.141593,0], a=0.523599, v=0.628319, r=0.005)  # [Transform: move to [698.942, -60.024, -249.925] mm and rotate to [[-1, 0, 0], [0, 1, 0], [0, 0, -1]]]
  movej(p[0.704003,-0.068649,-0.249925,0,3.141593,0], a=0.523599, v=0.628319, r=0.005)  # [Transform: move to [704.003, -68.649, -249.925] mm and rotate to [[-1, 0, 0], [0, 1, 0], [0, 0, -1]]]
  movej(p[0.708498,-0.077582,-0.249925,0,3.141593,0], a=0.523599, v=0.628319, r=0.005)  # [Transform: move to [708.498, -77.582, -249.925] mm and rotate to [[-1, 0, 0], [0, 1, 0], [0, 0, -1]]]
  movej(p[0.712288,-0.086835,-0.249925,0,3.141593,0], a=0.523599, v=0.628319, r=0.005)  # [Transform: move to [712.288, -86.835, -249.925] mm and rotate to [[-1, 0, 0], [0, 1, 0], [0, 0, -1]]]
  movej(p[0.715212,-0.096398,-0.249925,0,3.141593,0], a=0.523599, v=0.628319, r=0.005)  # [Transform: move to [715.212, -96.398, -249.925] mm and rotate to [[-1, 0, 0], [0, 1, 0], [0, 0, -1]]]
  movej(p[0.717102,-0.106218,-0.249925,0,3.141593,0], a=0.523599, v=0.628319, r=0.005)  # [Transform: move to [717.102, -106.218, -249.925] mm and rotate to [[-1, 0, 0], [0, 1, 0], [0, 0, -1]]]
  movej(p[0.717102,-0.106218,-0.213925,0,3.141593,0], a=0.523599, v=0.628319, r=0.005)  # [Transform: move to [717.102, -106.218, -213.925] mm and rotate to [[-1, 0, 0], [0, 1, 0], [0, 0, -1]]]
  movej(p[0.625,-0.3,-0.214,0,3.141593,0], a=0.523599, v=0.628319, r=0.005)  # [Transform: move to [625, -300, -214] mm and rotate to [[-1, 0, 0], [0, 1, 0], [0, 0, -1]]]
  movej(p[0.625,-0.3,-0.25,0,3.141593,0], a=0.523599, v=0.628319, r=0.005)  # [Transform: move to [625, -300, -250] mm and rotate to [[-1, 0, 0], [0, 1, 0], [0, 0, -1]]]
  movej(p[0.625,-0.3,-0.214,0,3.141593,0], a=0.523599, v=0.628319, r=0.005)  # [Transform: move to [625, -300, -214] mm and rotate to [[-1, 0, 0], [0, 1, 0], [0, 0, -1]]]
  movej(p[0.683188,-0.040399,-0.213906,0,3.141593,0], a=0.523599, v=0.628319, r=0.005)  # [Transform: move to [683.188, -40.399, -213.906] mm and rotate to [[-1, 0, 0], [0, 1, 0], [0, 0, -1]]]
  movej(p[0.683188,-0.040399,-0.249906,0,3.141593,0], a=0.523599, v=0.628319, r=0.005)  # [Transform: move to [683.188, -40.399, -249.906] mm and rotate to [[-1, 0, 0], [0, 1, 0], [0, 0, -1]]]
  movej(p[0.689412,-0.048226,-0.249906,0,3.141593,0], a=0.523599, v=0.628319, r=0.005)  # [Transform: move to [689.412, -48.226, -249.906] mm and rotate to [[-1, 0, 0], [0, 1, 0], [0, 0, -1]]]
  movej(p[0.695259,-0.056338,-0.249906,0,3.141593,0], a=0.523599, v=0.628319, r=0.005)  # [Transform: move to [695.259, -56.338, -249.906] mm and rotate to [[-1, 0, 0], [0, 1, 0], [0, 0, -1]]]
  movej(p[0.700659,-0.064755,-0.249906,0,3.141593,0], a=0.523599, v=0.628319, r=0.005)  # [Transform: move to [700.659, -64.755, -249.906] mm and rotate to [[-1, 0, 0], [0, 1, 0], [0, 0, -1]]]
  movej(p[0.705519,-0.073494,-0.249906,0,3.141593,0], a=0.523599, v=0.628319, r=0.005)  # [Transform: move to [705.519, -73.494, -249.906] mm and rotate to [[-1, 0, 0], [0, 1, 0], [0, 0, -1]]]
  movej(p[0.709721,-0.082569,-0.249906,0,3.141593,0], a=0.523599, v=0.628319, r=0.005)  # [Transform: move to [709.721, -82.569, -249.906] mm and rotate to [[-1, 0, 0], [0, 1, 0], [0, 0, -1]]]
  movej(p[0.713116,-0.091975,-0.249906,0,3.141593,0], a=0.523599, v=0.628319, r=0.005)  # [Transform: move to [713.116, -91.975, -249.906] mm and rotate to [[-1, 0, 0], [0, 1, 0], [0, 0, -1]]]
  movej(p[0.715542,-0.101676,-0.249906,0,3.141593,0], a=0.523599, v=0.628319, r=0.005)  # [Transform: move to [715.542, -101.676, -249.906] mm and rotate to [[-1, 0, 0], [0, 1, 0], [0, 0, -1]]]
  movej(p[0.715542,-0.101676,-0.213906,0,3.141593,0], a=0.523599, v=0.628319, r=0.005)  # [Transform: move to [715.542, -101.676, -213.906] mm and rotate to [[-1, 0, 0], [0, 1, 0], [0, 0, -1]]]
  movej(p[0.625,-0.3,-0.214,0,3.141593,0], a=0.523599, v=0.628319, r=0.005)  # [Transform: move to [625, -300, -214] mm and rotate to [[-1, 0, 0], [0, 1, 0], [0, 0, -1]]]
  movej(p[0.625,-0.3,-0.25,0,3.141593,0], a=0.523599, v=0.628319, r=0.005)  # [Transform: move to [625, -300, -250] mm and rotate to [[-1, 0, 0], [0, 1, 0], [0, 0, -1]]]
  movej(p[0.625,-0.3,-0.214,0,3.141593,0], a=0.523599, v=0.628319, r=0.005)  # [Transform: move to [625, -300, -214] mm and rotate to [[-1, 0, 0], [0, 1, 0], [0, 0, -1]]]
  movej(p[0.682083,-0.039638,-0.213887,0,3.141593,0], a=0.523599, v=0.628319, r=0.005)  # [Transform: move to [682.083, -39.638, -213.887] mm and rotate to [[-1, 0, 0], [0, 1, 0], [0, 0, -1]]]
  movej(p[0.682083,-0.039638,-0.249887,0,3.141593,0], a=0.523599, v=0.628319, r=0.005)  # [Transform: move to [682.083, -39.638, -249.887] mm and rotate to [[-1, 0, 0], [0, 1, 0], [0, 0, -1]]]
  movej(p[0.688395,-0.047395,-0.249887,0,3.141593,0], a=0.523599, v=0.628319, r=0.005)  # [Transform: move to [688.395, -47.395, -249.887] mm and rotate to [[-1, 0, 0], [0, 1, 0], [0, 0, -1]]]
  movej(p[0.694326,-0.055446,-0.249887,0,3.141593,0], a=0.523599, v=0.628319, r=0.005)  # [Transform: move to [694.326, -55.446, -249.887] mm and rotate to [[-1, 0, 0], [0, 1, 0], [0, 0, -1]]]
  movej(p[0.69981,-0.063808,-0.249887,0,3.141593,0], a=0.523599, v=0.628319, r=0.005)  # [Transform: move to [699.81, -63.808, -249.887] mm and rotate to [[-1, 0, 0], [0, 1, 0], [0, 0, -1]]]
  movej(p[0.70476,-0.072497,-0.249887,0,3.141593,0], a=0.523599, v=0.628319, r=0.005)  # [Transform: move to [704.76, -72.497, -249.887] mm and rotate to [[-1, 0, 0], [0, 1, 0], [0, 0, -1]]]
  movej(p[0.709061,-0.081525,-0.249887,0,3.141593,0], a=0.523599, v=0.628319, r=0.005)  # [Transform: move to [709.061, -81.525, -249.887] mm and rotate to [[-1, 0, 0], [0, 1, 0], [0, 0, -1]]]
  movej(p[0.712569,-0.090889,-0.249887,0,3.141593,0], a=0.523599, v=0.628319, r=0.005)  # [Transform: move to [712.569, -90.889, -249.887] mm and rotate to [[-1, 0, 0], [0, 1, 0], [0, 0, -1]]]
  movej(p[0.715124,-0.100557,-0.249887,0,3.141593,0], a=0.523599, v=0.628319, r=0.005)  # [Transform: move to [715.124, -100.557, -249.887] mm and rotate to [[-1, 0, 0], [0, 1, 0], [0, 0, -1]]]
  movej(p[0.715124,-0.100557,-0.213887,0,3.141593,0], a=0.523599, v=0.628319, r=0.005)  # [Transform: move to [715.124, -100.557, -213.887] mm and rotate to [[-1, 0, 0], [0, 1, 0], [0, 0, -1]]]
  movej(p[0.625,-0.3,-0.214,0,3.141593,0], a=0.523599, v=0.628319, r=0.005)  # [Transform: move to [625, -300, -214] mm and rotate to [[-1, 0, 0], [0, 1, 0], [0, 0, -1]]]
  movej(p[0.625,-0.3,-0.25,0,3.141593,0], a=0.523599, v=0.628319, r=0.005)  # [Transform: move to [625, -300, -250] mm and rotate to [[-1, 0, 0], [0, 1, 0], [0, 0, -1]]]
  movej(p[0.625,-0.3,-0.214,0,3.141593,0], a=0.523599, v=0.628319, r=0.005)  # [Transform: move to [625, -300, -214] mm and rotate to [[-1, 0, 0], [0, 1, 0], [0, 0, -1]]]
  movej(p[0.680751,-0.038224,-0.213868,0,3.141593,0], a=0.523599, v=0.628319, r=0.005)  # [Transform: move to [680.751, -38.224, -213.868] mm and rotate to [[-1, 0, 0], [0, 1, 0], [0, 0, -1]]]
  movej(p[0.680751,-0.038224,-0.249868,0,3.141593,0], a=0.523599, v=0.628319, r=0.005)  # [Transform: move to [680.751, -38.224, -249.868] mm and rotate to [[-1, 0, 0], [0, 1, 0], [0, 0, -1]]]
  movej(p[0.68714,-0.045917,-0.249868,0,3.141593,0], a=0.523599, v=0.628319, r=0.005)  # [Transform: move to [687.14, -45.917, -249.868] mm and rotate to [[-1, 0, 0], [0, 1, 0], [0, 0, -1]]]
  movej(p[0.693159,-0.053903,-0.249868,0,3.141593,0], a=0.523599, v=0.628319, r=0.005)  # [Transform: move to [693.159, -53.903, -249.868] mm and rotate to [[-1, 0, 0], [0, 1, 0], [0, 0, -1]]]
  movej(p[0.698741,-0.0622,-0.249868,0,3.141593,0], a=0.523599, v=0.628319, r=0.005)  # [Transform: move to [698.741, -62.2, -249.868] mm and rotate to [[-1, 0, 0], [0, 1, 0], [0, 0, -1]]]
  movej(p[0.703807,-0.070822,-0.249868,0,3.141593,0], a=0.523599, v=0.628319, r=0.005)  # [Transform: move to [703.807, -70.822, -249.868] mm and rotate to [[-1, 0, 0], [0, 1, 0], [0, 0, -1]]]
  movej(p[0.708246,-0.079783,-0.249868,0,3.141593,0], a=0.523599, v=0.628319, r=0.005)  # [Transform: move to [708.246, -79.783, -249.868] mm and rotate to [[-1, 0, 0], [0, 1, 0], [0, 0, -1]]]
  movej(p[0.71192,-0.089083,-0.249868,0,3.141593,0], a=0.523599, v=0.628319, r=0.005)  # [Transform: move to [711.92, -89.083, -249.868] mm and rotate to [[-1, 0, 0], [0, 1, 0], [0, 0, -1]]]
  movej(p[0.714671,-0.098698,-0.249868,0,3.141593,0], a=0.523599, v=0.628319, r=0.005)  # [Transform: move to [714.671, -98.698, -249.868] mm and rotate to [[-1, 0, 0], [0, 1, 0], [0, 0, -1]]]
  movej(p[0.714671,-0.098698,-0.213868,0,3.141593,0], a=0.523599, v=0.628319, r=0.005)  # [Transform: move to [714.671, -98.698, -213.868] mm and rotate to [[-1, 0, 0], [0, 1, 0], [0, 0, -1]]]
  movej(p[0.625,-0.3,-0.214,0,3.141593,0], a=0.523599, v=0.628319, r=0.005)  # [Transform: move to [625, -300, -214] mm and rotate to [[-1, 0, 0], [0, 1, 0], [0, 0, -1]]]
  movej(p[0.625,-0.3,-0.25,0,3.141593,0], a=0.523599, v=0.628319, r=0.005)  # [Transform: move to [625, -300, -250] mm and rotate to [[-1, 0, 0], [0, 1, 0], [0, 0, -1]]]
  movej(p[0.625,-0.3,-0.214,0,3.141593,0], a=0.523599, v=0.628319, r=0.005)  # [Transform: move to [625, -300, -214] mm and rotate to [[-1, 0, 0], [0, 1, 0], [0, 0, -1]]]
  movej(p[0.684175,-0.042171,-0.213849,0,3.141593,0], a=0.523599, v=0.628319, r=0.005)  # [Transform: move to [684.175, -42.171, -213.849] mm and rotate to [[-1, 0, 0], [0, 1, 0], [0, 0, -1]]]
  movej(p[0.684175,-0.042171,-0.249849,0,3.141593,0], a=0.523599, v=0.628319, r=0.005)  # [Transform: move to [684.175, -42.171, -249.849] mm and rotate to [[-1, 0, 0], [0, 1, 0], [0, 0, -1]]]
  movej(p[0.690371,-0.05002,-0.249849,0,3.141593,0], a=0.523599, v=0.628319, r=0.005)  # [Transform: move to [690.371, -50.02, -249.849] mm and rotate to [[-1, 0, 0], [0, 1, 0], [0, 0, -1]]]
  movej(p[0.696166,-0.058169,-0.249849,0,3.141593,0], a=0.523599, v=0.628319, r=0.005)  # [Transform: move to [696.166, -58.169, -249.849] mm and rotate to [[-1, 0, 0], [0, 1, 0], [0, 0, -1]]]
  movej(p[0.701487,-0.066636,-0.249849,0,3.141593,0], a=0.523599, v=0.628319, r=0.005)  # [Transform: move to [701.487, -66.636, -249.849] mm and rotate to [[-1, 0, 0], [0, 1, 0], [0, 0, -1]]]
  movej(p[0.706239,-0.075435,-0.249849,0,3.141593,0], a=0.523599, v=0.628319, r=0.005)  # [Transform: move to [706.239, -75.435, -249.849] mm and rotate to [[-1, 0, 0], [0, 1, 0], [0, 0, -1]]]
  movej(p[0.710297,-0.084575,-0.249849,0,3.141593,0], a=0.523599, v=0.628319, r=0.005)  # [Transform: move to [710.297, -84.575, -249.849] mm and rotate to [[-1, 0, 0], [0, 1, 0], [0, 0, -1]]]
  movej(p[0.713509,-0.094045,-0.249849,0,3.141593,0], a=0.523599, v=0.628319, r=0.005)  # [Transform: move to [713.509, -94.045, -249.849] mm and rotate to [[-1, 0, 0], [0, 1, 0], [0, 0, -1]]]
  movej(p[0.715716,-0.103798,-0.249849,0,3.141593,0], a=0.523599, v=0.628319, r=0.005)  # [Transform: move to [715.716, -103.798, -249.849] mm and rotate to [[-1, 0, 0], [0, 1, 0], [0, 0, -1]]]
  movej(p[0.715716,-0.103798,-0.213849,0,3.141593,0], a=0.523599, v=0.628319, r=0.005)  # [Transform: move to [715.716, -103.798, -213.849] mm and rotate to [[-1, 0, 0], [0, 1, 0], [0, 0, -1]]]
  movej(p[0.625,-0.3,-0.214,0,3.141593,0], a=0.523599, v=0.628319, r=0.005)  # [Transform: move to [625, -300, -214] mm and rotate to [[-1, 0, 0], [0, 1, 0], [0, 0, -1]]]
  movej(p[0.625,-0.3,-0.25,0,3.141593,0], a=0.523599, v=0.628319, r=0.005)  # [Transform: move to [625, -300, -250] mm and rotate to [[-1, 0, 0], [0, 1, 0], [0, 0, -1]]]
  movej(p[0.625,-0.3,-0.214,0,3.141593,0], a=0.523599, v=0.628319, r=0.005)  # [Transform: move to [625, -300, -214] mm and rotate to [[-1, 0, 0], [0, 1, 0], [0, 0, -1]]]
  movej(p[0.715055,-0.079184,-0.21383,0,3.141593,0], a=0.523599, v=0.628319, r=0.005)  # [Transform: move to [715.055, -79.184, -213.83] mm and rotate to [[-1, 0, 0], [0, 1, 0], [0, 0, -1]]]
  movej(p[0.715055,-0.079184,-0.24983,0,3.141593,0], a=0.523599, v=0.628319, r=0.005)  # [Transform: move to [715.055, -79.184, -249.83] mm and rotate to [[-1, 0, 0], [0, 1, 0], [0, 0, -1]]]
  movej(p[0.718414,-0.088603,-0.24983,0,3.141593,0], a=0.523599, v=0.628319, r=0.005)  # [Transform: move to [718.414, -88.603, -249.83] mm and rotate to [[-1, 0, 0], [0, 1, 0], [0, 0, -1]]]
  movej(p[0.720954,-0.098275,-0.24983,0,3.141593,0], a=0.523599, v=0.628319, r=0.005)  # [Transform: move to [720.954, -98.275, -249.83] mm and rotate to [[-1, 0, 0], [0, 1, 0], [0, 0, -1]]]
  movej(p[0.722488,-0.108157,-0.24983,0,3.141593,0], a=0.523599, v=0.628319, r=0.005)  # [Transform: move to [722.488, -108.157, -249.83] mm and rotate to [[-1, 0, 0], [0, 1, 0], [0, 0, -1]]]
  movej(p[0.722488,-0.108157,-0.21383,0,3.141593,0], a=0.523599, v=0.628319, r=0.005)  # [Transform: move to [722.488, -108.157, -213.83] mm and rotate to [[-1, 0, 0], [0, 1, 0], [0, 0, -1]]]
  movej(p[0.625,-0.3,-0.214,0,3.141593,0], a=0.523599, v=0.628319, r=0.005)  # [Transform: move to [625, -300, -214] mm and rotate to [[-1, 0, 0], [0, 1, 0], [0, 0, -1]]]
  movej(p[0.625,-0.3,-0.25,0,3.141593,0], a=0.523599, v=0.628319, r=0.005)  # [Transform: move to [625, -300, -250] mm and rotate to [[-1, 0, 0], [0, 1, 0], [0, 0, -1]]]
  movej(p[0.625,-0.3,-0.214,0,3.141593,0], a=0.523599, v=0.628319, r=0.005)  # [Transform: move to [625, -300, -214] mm and rotate to [[-1, 0, 0], [0, 1, 0], [0, 0, -1]]]
  movej(p[0.714286,-0.042528,-0.213811,0,3.141593,0], a=0.523599, v=0.628319, r=0.005)  # [Transform: move to [714.286, -42.528, -213.811] mm and rotate to [[-1, 0, 0], [0, 1, 0], [0, 0, -1]]]
  movej(p[0.714286,-0.042528,-0.249811,0,3.141593,0], a=0.523599, v=0.628319, r=0.005)  # [Transform: move to [714.286, -42.528, -249.811] mm and rotate to [[-1, 0, 0], [0, 1, 0], [0, 0, -1]]]
  movej(p[0.7179,-0.051852,-0.249811,0,3.141593,0], a=0.523599, v=0.628319, r=0.005)  # [Transform: move to [717.9, -51.852, -249.811] mm and rotate to [[-1, 0, 0], [0, 1, 0], [0, 0, -1]]]
  movej(p[0.721751,-0.06108,-0.249811,0,3.141593,0], a=0.523599, v=0.628319, r=0.005)  # [Transform: move to [721.751, -61.08, -249.811] mm and rotate to [[-1, 0, 0], [0, 1, 0], [0, 0, -1]]]
  movej(p[0.725609,-0.070306,-0.249811,0,3.141593,0], a=0.523599, v=0.628319, r=0.005)  # [Transform: move to [725.609, -70.306, -249.811] mm and rotate to [[-1, 0, 0], [0, 1, 0], [0, 0, -1]]]
  movej(p[0.729258,-0.079617,-0.249811,0,3.141593,0], a=0.523599, v=0.628319, r=0.005)  # [Transform: move to [729.258, -79.617, -249.811] mm and rotate to [[-1, 0, 0], [0, 1, 0], [0, 0, -1]]]
  movej(p[0.73248,-0.089083,-0.249811,0,3.141593,0], a=0.523599, v=0.628319, r=0.005)  # [Transform: move to [732.48, -89.083, -249.811] mm and rotate to [[-1, 0, 0], [0, 1, 0], [0, 0, -1]]]
  movej(p[0.735052,-0.098747,-0.249811,0,3.141593,0], a=0.523599, v=0.628319, r=0.005)  # [Transform: move to [735.052, -98.747, -249.811] mm and rotate to [[-1, 0, 0], [0, 1, 0], [0, 0, -1]]]
  movej(p[0.736754,-0.108601,-0.249811,0,3.141593,0], a=0.523599, v=0.628319, r=0.005)  # [Transform: move to [736.754, -108.601, -249.811] mm and rotate to [[-1, 0, 0], [0, 1, 0], [0, 0, -1]]]
  movej(p[0.737401,-0.11858,-0.249811,0,3.141593,0], a=0.523599, v=0.628319, r=0.005)  # [Transform: move to [737.401, -118.58, -249.811] mm and rotate to [[-1, 0, 0], [0, 1, 0], [0, 0, -1]]]
  movej(p[0.736883,-0.128567,-0.249811,0,3.141593,0], a=0.523599, v=0.628319, r=0.005)  # [Transform: move to [736.883, -128.567, -249.811] mm and rotate to [[-1, 0, 0], [0, 1, 0], [0, 0, -1]]]
  movej(p[0.736883,-0.128567,-0.213811,0,3.141593,0], a=0.523599, v=0.628319, r=0.005)  # [Transform: move to [736.883, -128.567, -213.811] mm and rotate to [[-1, 0, 0], [0, 1, 0], [0, 0, -1]]]
  movej(p[0.625,-0.3,-0.214,0,3.141593,0], a=0.523599, v=0.628319, r=0.005)  # [Transform: move to [625, -300, -214] mm and rotate to [[-1, 0, 0], [0, 1, 0], [0, 0, -1]]]
  movej(p[0.625,-0.3,-0.25,0,3.141593,0], a=0.523599, v=0.628319, r=0.005)  # [Transform: move to [625, -300, -250] mm and rotate to [[-1, 0, 0], [0, 1, 0], [0, 0, -1]]]
  movej(p[0.625,-0.3,-0.214,0,3.141593,0], a=0.523599, v=0.628319, r=0.005)  # [Transform: move to [625, -300, -214] mm and rotate to [[-1, 0, 0], [0, 1, 0], [0, 0, -1]]]
  movej(p[0.711596,-0.006197,-0.213792,0,3.141593,0], a=0.523599, v=0.628319, r=0.005)  # [Transform: move to [711.596, -6.197, -213.792] mm and rotate to [[-1, 0, 0], [0, 1, 0], [0, 0, -1]]]
  movej(p[0.711596,-0.006197,-0.249792,0,3.141593,0], a=0.523599, v=0.628319, r=0.005)  # [Transform: move to [711.596, -6.197, -249.792] mm and rotate to [[-1, 0, 0], [0, 1, 0], [0, 0, -1]]]
  movej(p[0.711613,-0.016197,-0.249792,0,3.141593,0], a=0.523599, v=0.628319, r=0.005)  # [Transform: move to [711.613, -16.197, -249.792] mm and rotate to [[-1, 0, 0], [0, 1, 0], [0, 0, -1]]]
  movej(p[0.712965,-0.026105,-0.249792,0,3.141593,0], a=0.523599, v=0.628319, r=0.005)  # [Transform: move to [712.965, -26.105, -249.792] mm and rotate to [[-1, 0, 0], [0, 1, 0], [0, 0, -1]]]
  movej(p[0.71537,-0.035811,-0.249792,0,3.141593,0], a=0.523599, v=0.628319, r=0.005)  # [Transform: move to [715.37, -35.811, -249.792] mm and rotate to [[-1, 0, 0], [0, 1, 0], [0, 0, -1]]]
  movej(p[0.718523,-0.045301,-0.249792,0,3.141593,0], a=0.523599, v=0.628319, r=0.005)  # [Transform: move to [718.523, -45.301, -249.792] mm and rotate to [[-1, 0, 0], [0, 1, 0], [0, 0, -1]]]
  movej(p[0.722143,-0.054623,-0.249792,0,3.141593,0], a=0.523599, v=0.628319, r=0.005)  # [Transform: move to [722.143, -54.623, -249.792] mm and rotate to [[-1, 0, 0], [0, 1, 0], [0, 0, -1]]]
  movej(p[0.725979,-0.063858,-0.249792,0,3.141593,0], a=0.523599, v=0.628319, r=0.005)  # [Transform: move to [725.979, -63.858, -249.792] mm and rotate to [[-1, 0, 0], [0, 1, 0], [0, 0, -1]]]
  movej(p[0.729806,-0.073097,-0.249792,0,3.141593,0], a=0.523599, v=0.628319, r=0.005)  # [Transform: move to [729.806, -73.097, -249.792] mm and rotate to [[-1, 0, 0], [0, 1, 0], [0, 0, -1]]]
  movej(p[0.733405,-0.082427,-0.249792,0,3.141593,0], a=0.523599, v=0.628319, r=0.005)  # [Transform: move to [733.405, -82.427, -249.792] mm and rotate to [[-1, 0, 0], [0, 1, 0], [0, 0, -1]]]
  movej(p[0.736559,-0.091916,-0.249792,0,3.141593,0], a=0.523599, v=0.628319, r=0.005)  # [Transform: move to [736.559, -91.916, -249.792] mm and rotate to [[-1, 0, 0], [0, 1, 0], [0, 0, -1]]]
  movej(p[0.739042,-0.101603,-0.249792,0,3.141593,0], a=0.523599, v=0.628319, r=0.005)  # [Transform: move to [739.042, -101.603, -249.792] mm and rotate to [[-1, 0, 0], [0, 1, 0], [0, 0, -1]]]
  movej(p[0.740638,-0.111475,-0.249792,0,3.141593,0], a=0.523599, v=0.628319, r=0.005)  # [Transform: move to [740.638, -111.475, -249.792] mm and rotate to [[-1, 0, 0], [0, 1, 0], [0, 0, -1]]]
  movej(p[0.741169,-0.121461,-0.249792,0,3.141593,0], a=0.523599, v=0.628319, r=0.005)  # [Transform: move to [741.169, -121.461, -249.792] mm and rotate to [[-1, 0, 0], [0, 1, 0], [0, 0, -1]]]
  movej(p[0.741169,-0.121461,-0.213792,0,3.141593,0], a=0.523599, v=0.628319, r=0.005)  # [Transform: move to [741.169, -121.461, -213.792] mm and rotate to [[-1, 0, 0], [0, 1, 0], [0, 0, -1]]]
  movej(p[0.625,-0.3,-0.214,0,3.141593,0], a=0.523599, v=0.628319, r=0.005)  # [Transform: move to [625, -300, -214] mm and rotate to [[-1, 0, 0], [0, 1, 0], [0, 0, -1]]]
  movej(p[0.625,-0.3,-0.25,0,3.141593,0], a=0.523599, v=0.628319, r=0.005)  # [Transform: move to [625, -300, -250] mm and rotate to [[-1, 0, 0], [0, 1, 0], [0, 0, -1]]]
  movej(p[0.625,-0.3,-0.214,0,3.141593,0], a=0.523599, v=0.628319, r=0.005)  # [Transform: move to [625, -300, -214] mm and rotate to [[-1, 0, 0], [0, 1, 0], [0, 0, -1]]]
  movej(p[0.708973,0.031416,-0.213774,0,3.141593,0], a=0.523599, v=0.628319, r=0.005)  # [Transform: move to [708.973, 31.416, -213.774] mm and rotate to [[-1, 0, 0], [0, 1, 0], [0, 0, -1]]]
  movej(p[0.708973,0.031416,-0.249774,0,3.141593,0], a=0.523599, v=0.628319, r=0.005)  # [Transform: move to [708.973, 31.416, -249.774] mm and rotate to [[-1, 0, 0], [0, 1, 0], [0, 0, -1]]]
  movej(p[0.703673,0.022936,-0.249774,0,3.141593,0], a=0.523599, v=0.628319, r=0.005)  # [Transform: move to [703.673, 22.936, -249.774] mm and rotate to [[-1, 0, 0], [0, 1, 0], [0, 0, -1]]]
  movej(p[0.699976,0.013645,-0.249774,0,3.141593,0], a=0.523599, v=0.628319, r=0.005)  # [Transform: move to [699.976, 13.645, -249.774] mm and rotate to [[-1, 0, 0], [0, 1, 0], [0, 0, -1]]]
  movej(p[0.698005,0.003841,-0.249774,0,3.141593,0], a=0.523599, v=0.628319, r=0.005)  # [Transform: move to [698.005, 3.841, -249.774] mm and rotate to [[-1, 0, 0], [0, 1, 0], [0, 0, -1]]]
  movej(p[0.697715,-0.006155,-0.249774,0,3.141593,0], a=0.523599, v=0.628319, r=0.005)  # [Transform: move to [697.715, -6.155, -249.774] mm and rotate to [[-1, 0, 0], [0, 1, 0], [0, 0, -1]]]
  movej(p[0.698898,-0.016085,-0.249774,0,3.141593,0], a=0.523599, v=0.628319, r=0.005)  # [Transform: move to [698.898, -16.085, -249.774] mm and rotate to [[-1, 0, 0], [0, 1, 0], [0, 0, -1]]]
  movej(p[0.701249,-0.025804,-0.249774,0,3.141593,0], a=0.523599, v=0.628319, r=0.005)  # [Transform: move to [701.249, -25.804, -249.774] mm and rotate to [[-1, 0, 0], [0, 1, 0], [0, 0, -1]]]
  movej(p[0.704442,-0.035281,-0.249774,0,3.141593,0], a=0.523599, v=0.628319, r=0.005)  # [Transform: move to [704.442, -35.281, -249.774] mm and rotate to [[-1, 0, 0], [0, 1, 0], [0, 0, -1]]]
  movej(p[0.70818,-0.044556,-0.249774,0,3.141593,0], a=0.523599, v=0.628319, r=0.005)  # [Transform: move to [708.18, -44.556, -249.774] mm and rotate to [[-1, 0, 0], [0, 1, 0], [0, 0, -1]]]
  movej(p[0.712205,-0.05371,-0.249774,0,3.141593,0], a=0.523599, v=0.628319, r=0.005)  # [Transform: move to [712.205, -53.71, -249.774] mm and rotate to [[-1, 0, 0], [0, 1, 0], [0, 0, -1]]]
  movej(p[0.716294,-0.062836,-0.249774,0,3.141593,0], a=0.523599, v=0.628319, r=0.005)  # [Transform: move to [716.294, -62.836, -249.774] mm and rotate to [[-1, 0, 0], [0, 1, 0], [0, 0, -1]]]
  movej(p[0.72024,-0.072025,-0.249774,0,3.141593,0], a=0.523599, v=0.628319, r=0.005)  # [Transform: move to [720.24, -72.025, -249.774] mm and rotate to [[-1, 0, 0], [0, 1, 0], [0, 0, -1]]]
  movej(p[0.72384,-0.081354,-0.249774,0,3.141593,0], a=0.523599, v=0.628319, r=0.005)  # [Transform: move to [723.84, -81.354, -249.774] mm and rotate to [[-1, 0, 0], [0, 1, 0], [0, 0, -1]]]
  movej(p[0.726886,-0.090879,-0.249774,0,3.141593,0], a=0.523599, v=0.628319, r=0.005)  # [Transform: move to [726.886, -90.879, -249.774] mm and rotate to [[-1, 0, 0], [0, 1, 0], [0, 0, -1]]]
  movej(p[0.72916,-0.100617,-0.249774,0,3.141593,0], a=0.523599, v=0.628319, r=0.005)  # [Transform: move to [729.16, -100.617, -249.774] mm and rotate to [[-1, 0, 0], [0, 1, 0], [0, 0, -1]]]
  movej(p[0.73046,-0.110532,-0.249774,0,3.141593,0], a=0.523599, v=0.628319, r=0.005)  # [Transform: move to [730.46, -110.532, -249.774] mm and rotate to [[-1, 0, 0], [0, 1, 0], [0, 0, -1]]]
  movej(p[0.730631,-0.12053,-0.249774,0,3.141593,0], a=0.523599, v=0.628319, r=0.005)  # [Transform: move to [730.631, -120.53, -249.774] mm and rotate to [[-1, 0, 0], [0, 1, 0], [0, 0, -1]]]
  movej(p[0.730631,-0.12053,-0.213774,0,3.141593,0], a=0.523599, v=0.628319, r=0.005)  # [Transform: move to [730.631, -120.53, -213.774] mm and rotate to [[-1, 0, 0], [0, 1, 0], [0, 0, -1]]]
  movej(p[0.625,-0.3,-0.214,0,3.141593,0], a=0.523599, v=0.628319, r=0.005)  # [Transform: move to [625, -300, -214] mm and rotate to [[-1, 0, 0], [0, 1, 0], [0, 0, -1]]]
  movej(p[0.625,-0.3,-0.25,0,3.141593,0], a=0.523599, v=0.628319, r=0.005)  # [Transform: move to [625, -300, -250] mm and rotate to [[-1, 0, 0], [0, 1, 0], [0, 0, -1]]]
  movej(p[0.625,-0.3,-0.214,0,3.141593,0], a=0.523599, v=0.628319, r=0.005)  # [Transform: move to [625, -300, -214] mm and rotate to [[-1, 0, 0], [0, 1, 0], [0, 0, -1]]]
  movej(p[0.707588,0.070325,-0.213755,0,3.141593,0], a=0.523599, v=0.628319, r=0.005)  # [Transform: move to [707.588, 70.325, -213.755] mm and rotate to [[-1, 0, 0], [0, 1, 0], [0, 0, -1]]]
  movej(p[0.707588,0.070325,-0.249755,0,3.141593,0], a=0.523599, v=0.628319, r=0.005)  # [Transform: move to [707.588, 70.325, -249.755] mm and rotate to [[-1, 0, 0], [0, 1, 0], [0, 0, -1]]]
  movej(p[0.698016,0.067431,-0.249755,0,3.141593,0], a=0.523599, v=0.628319, r=0.005)  # [Transform: move to [698.016, 67.431, -249.755] mm and rotate to [[-1, 0, 0], [0, 1, 0], [0, 0, -1]]]
  movej(p[0.688952,0.063208,-0.249755,0,3.141593,0], a=0.523599, v=0.628319, r=0.005)  # [Transform: move to [688.952, 63.208, -249.755] mm and rotate to [[-1, 0, 0], [0, 1, 0], [0, 0, -1]]]
  movej(p[0.681446,0.0566,-0.249755,0,3.141593,0], a=0.523599, v=0.628319, r=0.005)  # [Transform: move to [681.446, 56.6, -249.755] mm and rotate to [[-1, 0, 0], [0, 1, 0], [0, 0, -1]]]
  movej(p[0.676146,0.04812,-0.249755,0,3.141593,0], a=0.523599, v=0.628319, r=0.005)  # [Transform: move to [676.146, 48.12, -249.755] mm and rotate to [[-1, 0, 0], [0, 1, 0], [0, 0, -1]]]
  movej(p[0.672813,0.038692,-0.249755,0,3.141593,0], a=0.523599, v=0.628319, r=0.005)  # [Transform: move to [672.813, 38.692, -249.755] mm and rotate to [[-1, 0, 0], [0, 1, 0], [0, 0, -1]]]
  movej(p[0.671075,0.028844,-0.249755,0,3.141593,0], a=0.523599, v=0.628319, r=0.005)  # [Transform: move to [671.075, 28.844, -249.755] mm and rotate to [[-1, 0, 0], [0, 1, 0], [0, 0, -1]]]
  movej(p[0.670668,0.018853,-0.249755,0,3.141593,0], a=0.523599, v=0.628319, r=0.005)  # [Transform: move to [670.668, 18.853, -249.755] mm and rotate to [[-1, 0, 0], [0, 1, 0], [0, 0, -1]]]
  movej(p[0.671451,0.008883,-0.249755,0,3.141593,0], a=0.523599, v=0.628319, r=0.005)  # [Transform: move to [671.451, 8.883, -249.755] mm and rotate to [[-1, 0, 0], [0, 1, 0], [0, 0, -1]]]
  movej(p[0.673404,-0.000924,-0.249755,0,3.141593,0], a=0.523599, v=0.628319, r=0.005)  # [Transform: move to [673.404, -0.924, -249.755] mm and rotate to [[-1, 0, 0], [0, 1, 0], [0, 0, -1]]]
  movej(p[0.676636,-0.010388,-0.249755,0,3.141593,0], a=0.523599, v=0.628319, r=0.005)  # [Transform: move to [676.636, -10.388, -249.755] mm and rotate to [[-1, 0, 0], [0, 1, 0], [0, 0, -1]]]
  movej(p[0.681081,-0.019345,-0.249755,0,3.141593,0], a=0.523599, v=0.628319, r=0.005)  # [Transform: move to [681.081, -19.345, -249.755] mm and rotate to [[-1, 0, 0], [0, 1, 0], [0, 0, -1]]]
  movej(p[0.685939,-0.028086,-0.249755,0,3.141593,0], a=0.523599, v=0.628319, r=0.005)  # [Transform: move to [685.939, -28.086, -249.755] mm and rotate to [[-1, 0, 0], [0, 1, 0], [0, 0, -1]]]
  movej(p[0.691012,-0.036704,-0.249755,0,3.141593,0], a=0.523599, v=0.628319, r=0.005)  # [Transform: move to [691.012, -36.704, -249.755] mm and rotate to [[-1, 0, 0], [0, 1, 0], [0, 0, -1]]]
  movej(p[0.696139,-0.045289,-0.249755,0,3.141593,0], a=0.523599, v=0.628319, r=0.005)  # [Transform: move to [696.139, -45.289, -249.755] mm and rotate to [[-1, 0, 0], [0, 1, 0], [0, 0, -1]]]
  movej(p[0.701181,-0.053925,-0.249755,0,3.141593,0], a=0.523599, v=0.628319, r=0.005)  # [Transform: move to [701.181, -53.925, -249.755] mm and rotate to [[-1, 0, 0], [0, 1, 0], [0, 0, -1]]]
  movej(p[0.706007,-0.062684,-0.249755,0,3.141593,0], a=0.523599, v=0.628319, r=0.005)  # [Transform: move to [706.007, -62.684, -249.755] mm and rotate to [[-1, 0, 0], [0, 1, 0], [0, 0, -1]]]
  movej(p[0.710477,-0.071629,-0.249755,0,3.141593,0], a=0.523599, v=0.628319, r=0.005)  # [Transform: move to [710.477, -71.629, -249.755] mm and rotate to [[-1, 0, 0], [0, 1, 0], [0, 0, -1]]]
  movej(p[0.714439,-0.080811,-0.249755,0,3.141593,0], a=0.523599, v=0.628319, r=0.005)  # [Transform: move to [714.439, -80.811, -249.755] mm and rotate to [[-1, 0, 0], [0, 1, 0], [0, 0, -1]]]
  movej(p[0.717717,-0.090258,-0.249755,0,3.141593,0], a=0.523599, v=0.628319, r=0.005)  # [Transform: move to [717.717, -90.258, -249.755] mm and rotate to [[-1, 0, 0], [0, 1, 0], [0, 0, -1]]]
  movej(p[0.720126,-0.099964,-0.249755,0,3.141593,0], a=0.523599, v=0.628319, r=0.005)  # [Transform: move to [720.126, -99.964, -249.755] mm and rotate to [[-1, 0, 0], [0, 1, 0], [0, 0, -1]]]
  movej(p[0.72149,-0.10987,-0.249755,0,3.141593,0], a=0.523599, v=0.628319, r=0.005)  # [Transform: move to [721.49, -109.87, -249.755] mm and rotate to [[-1, 0, 0], [0, 1, 0], [0, 0, -1]]]
  movej(p[0.72149,-0.10987,-0.213755,0,3.141593,0], a=0.523599, v=0.628319, r=0.005)  # [Transform: move to [721.49, -109.87, -213.755] mm and rotate to [[-1, 0, 0], [0, 1, 0], [0, 0, -1]]]
  movej(p[0.625,-0.3,-0.214,0,3.141593,0], a=0.523599, v=0.628319, r=0.005)  # [Transform: move to [625, -300, -214] mm and rotate to [[-1, 0, 0], [0, 1, 0], [0, 0, -1]]]
  movej(p[0.625,-0.3,-0.25,0,3.141593,0], a=0.523599, v=0.628319, r=0.005)  # [Transform: move to [625, -300, -250] mm and rotate to [[-1, 0, 0], [0, 1, 0], [0, 0, -1]]]
  movej(p[0.625,-0.3,-0.214,0,3.141593,0], a=0.523599, v=0.628319, r=0.005)  # [Transform: move to [625, -300, -214] mm and rotate to [[-1, 0, 0], [0, 1, 0], [0, 0, -1]]]
  movej(p[0.680637,-0.035338,-0.213736,0,3.141593,0], a=0.523599, v=0.628319, r=0.005)  # [Transform: move to [680.637, -35.338, -213.736] mm and rotate to [[-1, 0, 0], [0, 1, 0], [0, 0, -1]]]
  movej(p[0.680637,-0.035338,-0.249736,0,3.141593,0], a=0.523599, v=0.628319, r=0.005)  # [Transform: move to [680.637, -35.338, -249.736] mm and rotate to [[-1, 0, 0], [0, 1, 0], [0, 0, -1]]]
  movej(p[0.686871,-0.043157,-0.249736,0,3.141593,0], a=0.523599, v=0.628319, r=0.005)  # [Transform: move to [686.871, -43.157, -249.736] mm and rotate to [[-1, 0, 0], [0, 1, 0], [0, 0, -1]]]
  movej(p[0.692808,-0.051204,-0.249736,0,3.141593,0], a=0.523599, v=0.628319, r=0.005)  # [Transform: move to [692.808, -51.204, -249.736] mm and rotate to [[-1, 0, 0], [0, 1, 0], [0, 0, -1]]]
  movej(p[0.698375,-0.059511,-0.249736,0,3.141593,0], a=0.523599, v=0.628319, r=0.005)  # [Transform: move to [698.375, -59.511, -249.736] mm and rotate to [[-1, 0, 0], [0, 1, 0], [0, 0, -1]]]
  movej(p[0.703488,-0.068105,-0.249736,0,3.141593,0], a=0.523599, v=0.628319, r=0.005)  # [Transform: move to [703.488, -68.105, -249.736] mm and rotate to [[-1, 0, 0], [0, 1, 0], [0, 0, -1]]]
  movej(p[0.708039,-0.077009,-0.249736,0,3.141593,0], a=0.523599, v=0.628319, r=0.005)  # [Transform: move to [708.039, -77.009, -249.736] mm and rotate to [[-1, 0, 0], [0, 1, 0], [0, 0, -1]]]
  movej(p[0.711891,-0.086237,-0.249736,0,3.141593,0], a=0.523599, v=0.628319, r=0.005)  # [Transform: move to [711.891, -86.237, -249.736] mm and rotate to [[-1, 0, 0], [0, 1, 0], [0, 0, -1]]]
  movej(p[0.714884,-0.095779,-0.249736,0,3.141593,0], a=0.523599, v=0.628319, r=0.005)  # [Transform: move to [714.884, -95.779, -249.736] mm and rotate to [[-1, 0, 0], [0, 1, 0], [0, 0, -1]]]
  movej(p[0.716852,-0.105583,-0.249736,0,3.141593,0], a=0.523599, v=0.628319, r=0.005)  # [Transform: move to [716.852, -105.583, -249.736] mm and rotate to [[-1, 0, 0], [0, 1, 0], [0, 0, -1]]]
  movej(p[0.716852,-0.105583,-0.213736,0,3.141593,0], a=0.523599, v=0.628319, r=0.005)  # [Transform: move to [716.852, -105.583, -213.736] mm and rotate to [[-1, 0, 0], [0, 1, 0], [0, 0, -1]]]
  movej(p[0.625,-0.3,-0.214,0,3.141593,0], a=0.523599, v=0.628319, r=0.005)  # [Transform: move to [625, -300, -214] mm and rotate to [[-1, 0, 0], [0, 1, 0], [0, 0, -1]]]
  movej(p[0.625,-0.3,-0.25,0,3.141593,0], a=0.523599, v=0.628319, r=0.005)  # [Transform: move to [625, -300, -250] mm and rotate to [[-1, 0, 0], [0, 1, 0], [0, 0, -1]]]
  movej(p[0.625,-0.3,-0.214,0,3.141593,0], a=0.523599, v=0.628319, r=0.005)  # [Transform: move to [625, -300, -214] mm and rotate to [[-1, 0, 0], [0, 1, 0], [0, 0, -1]]]
  movej(p[0.681196,-0.03792,-0.213717,0,3.141593,0], a=0.523599, v=0.628319, r=0.005)  # [Transform: move to [681.196, -37.92, -213.717] mm and rotate to [[-1, 0, 0], [0, 1, 0], [0, 0, -1]]]
  movej(p[0.681196,-0.03792,-0.249717,0,3.141593,0], a=0.523599, v=0.628319, r=0.005)  # [Transform: move to [681.196, -37.92, -249.717] mm and rotate to [[-1, 0, 0], [0, 1, 0], [0, 0, -1]]]
  movej(p[0.687517,-0.045669,-0.249717,0,3.141593,0], a=0.523599, v=0.628319, r=0.005)  # [Transform: move to [687.517, -45.669, -249.717] mm and rotate to [[-1, 0, 0], [0, 1, 0], [0, 0, -1]]]
  movej(p[0.693485,-0.053693,-0.249717,0,3.141593,0], a=0.523599, v=0.628319, r=0.005)  # [Transform: move to [693.485, -53.693, -249.717] mm and rotate to [[-1, 0, 0], [0, 1, 0], [0, 0, -1]]]
  movej(p[0.699031,-0.062014,-0.249717,0,3.141593,0], a=0.523599, v=0.628319, r=0.005)  # [Transform: move to [699.031, -62.014, -249.717] mm and rotate to [[-1, 0, 0], [0, 1, 0], [0, 0, -1]]]
  movej(p[0.704071,-0.070651,-0.249717,0,3.141593,0], a=0.523599, v=0.628319, r=0.005)  # [Transform: move to [704.071, -70.651, -249.717] mm and rotate to [[-1, 0, 0], [0, 1, 0], [0, 0, -1]]]
  movej(p[0.708496,-0.079619,-0.249717,0,3.141593,0], a=0.523599, v=0.628319, r=0.005)  # [Transform: move to [708.496, -79.619, -249.717] mm and rotate to [[-1, 0, 0], [0, 1, 0], [0, 0, -1]]]
  movej(p[0.712165,-0.088921,-0.249717,0,3.141593,0], a=0.523599, v=0.628319, r=0.005)  # [Transform: move to [712.165, -88.921, -249.717] mm and rotate to [[-1, 0, 0], [0, 1, 0], [0, 0, -1]]]
  movej(p[0.714917,-0.098535,-0.249717,0,3.141593,0], a=0.523599, v=0.628319, r=0.005)  # [Transform: move to [714.917, -98.535, -249.717] mm and rotate to [[-1, 0, 0], [0, 1, 0], [0, 0, -1]]]
  movej(p[0.716595,-0.108393,-0.249717,0,3.141593,0], a=0.523599, v=0.628319, r=0.005)  # [Transform: move to [716.595, -108.393, -249.717] mm and rotate to [[-1, 0, 0], [0, 1, 0], [0, 0, -1]]]
  movej(p[0.716595,-0.108393,-0.213717,0,3.141593,0], a=0.523599, v=0.628319, r=0.005)  # [Transform: move to [716.595, -108.393, -213.717] mm and rotate to [[-1, 0, 0], [0, 1, 0], [0, 0, -1]]]
  movej(p[0.625,-0.3,-0.214,0,3.141593,0], a=0.523599, v=0.628319, r=0.005)  # [Transform: move to [625, -300, -214] mm and rotate to [[-1, 0, 0], [0, 1, 0], [0, 0, -1]]]
  movej(p[0.625,-0.3,-0.25,0,3.141593,0], a=0.523599, v=0.628319, r=0.005)  # [Transform: move to [625, -300, -250] mm and rotate to [[-1, 0, 0], [0, 1, 0], [0, 0, -1]]]
  movej(p[0.625,-0.3,-0.214,0,3.141593,0], a=0.523599, v=0.628319, r=0.005)  # [Transform: move to [625, -300, -214] mm and rotate to [[-1, 0, 0], [0, 1, 0], [0, 0, -1]]]
  movej(p[0.679985,-0.0369,-0.213698,0,3.141593,0], a=0.523599, v=0.628319, r=0.005)  # [Transform: move to [679.985, -36.9, -213.698] mm and rotate to [[-1, 0, 0], [0, 1, 0], [0, 0, -1]]]
  movej(p[0.679985,-0.0369,-0.249698,0,3.141593,0], a=0.523599, v=0.628319, r=0.005)  # [Transform: move to [679.985, -36.9, -249.698] mm and rotate to [[-1, 0, 0], [0, 1, 0], [0, 0, -1]]]
  movej(p[0.686388,-0.044581,-0.249698,0,3.141593,0], a=0.523599, v=0.628319, r=0.005)  # [Transform: move to [686.388, -44.581, -249.698] mm and rotate to [[-1, 0, 0], [0, 1, 0], [0, 0, -1]]]
  movej(p[0.692439,-0.052543,-0.249698,0,3.141593,0], a=0.523599, v=0.628319, r=0.005)  # [Transform: move to [692.439, -52.543, -249.698] mm and rotate to [[-1, 0, 0], [0, 1, 0], [0, 0, -1]]]
  movej(p[0.698072,-0.060805,-0.249698,0,3.141593,0], a=0.523599, v=0.628319, r=0.005)  # [Transform: move to [698.072, -60.805, -249.698] mm and rotate to [[-1, 0, 0], [0, 1, 0], [0, 0, -1]]]
  movej(p[0.703209,-0.069385,-0.249698,0,3.141593,0], a=0.523599, v=0.628319, r=0.005)  # [Transform: move to [703.209, -69.385, -249.698] mm and rotate to [[-1, 0, 0], [0, 1, 0], [0, 0, -1]]]
  movej(p[0.707744,-0.078297,-0.249698,0,3.141593,0], a=0.523599, v=0.628319, r=0.005)  # [Transform: move to [707.744, -78.297, -249.698] mm and rotate to [[-1, 0, 0], [0, 1, 0], [0, 0, -1]]]
  movej(p[0.711543,-0.087548,-0.249698,0,3.141593,0], a=0.523599, v=0.628319, r=0.005)  # [Transform: move to [711.543, -87.548, -249.698] mm and rotate to [[-1, 0, 0], [0, 1, 0], [0, 0, -1]]]
  movej(p[0.714446,-0.097117,-0.249698,0,3.141593,0], a=0.523599, v=0.628319, r=0.005)  # [Transform: move to [714.446, -97.117, -249.698] mm and rotate to [[-1, 0, 0], [0, 1, 0], [0, 0, -1]]]
  movej(p[0.716294,-0.106945,-0.249698,0,3.141593,0], a=0.523599, v=0.628319, r=0.005)  # [Transform: move to [716.294, -106.945, -249.698] mm and rotate to [[-1, 0, 0], [0, 1, 0], [0, 0, -1]]]
  movej(p[0.716294,-0.106945,-0.213698,0,3.141593,0], a=0.523599, v=0.628319, r=0.005)  # [Transform: move to [716.294, -106.945, -213.698] mm and rotate to [[-1, 0, 0], [0, 1, 0], [0, 0, -1]]]
  movej(p[0.625,-0.3,-0.214,0,3.141593,0], a=0.523599, v=0.628319, r=0.005)  # [Transform: move to [625, -300, -214] mm and rotate to [[-1, 0, 0], [0, 1, 0], [0, 0, -1]]]
  movej(p[0.625,-0.3,-0.25,0,3.141593,0], a=0.523599, v=0.628319, r=0.005)  # [Transform: move to [625, -300, -250] mm and rotate to [[-1, 0, 0], [0, 1, 0], [0, 0, -1]]]
  movej(p[0.625,-0.3,-0.214,0,3.141593,0], a=0.523599, v=0.628319, r=0.005)  # [Transform: move to [625, -300, -214] mm and rotate to [[-1, 0, 0], [0, 1, 0], [0, 0, -1]]]
  movej(p[0.683464,-0.041063,-0.213679,0,3.141593,0], a=0.523599, v=0.628319, r=0.005)  # [Transform: move to [683.464, -41.063, -213.679] mm and rotate to [[-1, 0, 0], [0, 1, 0], [0, 0, -1]]]
  movej(p[0.683464,-0.041063,-0.249679,0,3.141593,0], a=0.523599, v=0.628319, r=0.005)  # [Transform: move to [683.464, -41.063, -249.679] mm and rotate to [[-1, 0, 0], [0, 1, 0], [0, 0, -1]]]
  movej(p[0.689688,-0.04889,-0.249679,0,3.141593,0], a=0.523599, v=0.628319, r=0.005)  # [Transform: move to [689.688, -48.89, -249.679] mm and rotate to [[-1, 0, 0], [0, 1, 0], [0, 0, -1]]]
  movej(p[0.695526,-0.057009,-0.249679,0,3.141593,0], a=0.523599, v=0.628319, r=0.005)  # [Transform: move to [695.526, -57.009, -249.679] mm and rotate to [[-1, 0, 0], [0, 1, 0], [0, 0, -1]]]
  movej(p[0.700904,-0.06544,-0.249679,0,3.141593,0], a=0.523599, v=0.628319, r=0.005)  # [Transform: move to [700.904, -65.44, -249.679] mm and rotate to [[-1, 0, 0], [0, 1, 0], [0, 0, -1]]]
  movej(p[0.705731,-0.074198,-0.249679,0,3.141593,0], a=0.523599, v=0.628319, r=0.005)  # [Transform: move to [705.731, -74.198, -249.679] mm and rotate to [[-1, 0, 0], [0, 1, 0], [0, 0, -1]]]
  movej(p[0.709885,-0.083294,-0.249679,0,3.141593,0], a=0.523599, v=0.628319, r=0.005)  # [Transform: move to [709.885, -83.294, -249.679] mm and rotate to [[-1, 0, 0], [0, 1, 0], [0, 0, -1]]]
  movej(p[0.713218,-0.092722,-0.249679,0,3.141593,0], a=0.523599, v=0.628319, r=0.005)  # [Transform: move to [713.218, -92.722, -249.679] mm and rotate to [[-1, 0, 0], [0, 1, 0], [0, 0, -1]]]
  movej(p[0.715567,-0.102442,-0.249679,0,3.141593,0], a=0.523599, v=0.628319, r=0.005)  # [Transform: move to [715.567, -102.442, -249.679] mm and rotate to [[-1, 0, 0], [0, 1, 0], [0, 0, -1]]]
  movej(p[0.715567,-0.102442,-0.213679,0,3.141593,0], a=0.523599, v=0.628319, r=0.005)  # [Transform: move to [715.567, -102.442, -213.679] mm and rotate to [[-1, 0, 0], [0, 1, 0], [0, 0, -1]]]
  movej(p[0.625,-0.3,-0.214,0,3.141593,0], a=0.523599, v=0.628319, r=0.005)  # [Transform: move to [625, -300, -214] mm and rotate to [[-1, 0, 0], [0, 1, 0], [0, 0, -1]]]
  movej(p[0.625,-0.3,-0.25,0,3.141593,0], a=0.523599, v=0.628319, r=0.005)  # [Transform: move to [625, -300, -250] mm and rotate to [[-1, 0, 0], [0, 1, 0], [0, 0, -1]]]
  movej(p[0.625,-0.3,-0.214,0,3.141593,0], a=0.523599, v=0.628319, r=0.005)  # [Transform: move to [625, -300, -214] mm and rotate to [[-1, 0, 0], [0, 1, 0], [0, 0, -1]]]
  movej(p[0.68097,-0.03791,-0.21366,0,3.141593,0], a=0.523599, v=0.628319, r=0.005)  # [Transform: move to [680.97, -37.91, -213.66] mm and rotate to [[-1, 0, 0], [0, 1, 0], [0, 0, -1]]]
  movej(p[0.68097,-0.03791,-0.24966,0,3.141593,0], a=0.523599, v=0.628319, r=0.005)  # [Transform: move to [680.97, -37.91, -249.66] mm and rotate to [[-1, 0, 0], [0, 1, 0], [0, 0, -1]]]
  movej(p[0.687317,-0.045638,-0.24966,0,3.141593,0], a=0.523599, v=0.628319, r=0.005)  # [Transform: move to [687.317, -45.638, -249.66] mm and rotate to [[-1, 0, 0], [0, 1, 0], [0, 0, -1]]]
  movej(p[0.693306,-0.053647,-0.24966,0,3.141593,0], a=0.523599, v=0.628319, r=0.005)  # [Transform: move to [693.306, -53.647, -249.66] mm and rotate to [[-1, 0, 0], [0, 1, 0], [0, 0, -1]]]
  movej(p[0.698869,-0.061956,-0.24966,0,3.141593,0], a=0.523599, v=0.628319, r=0.005)  # [Transform: move to [698.869, -61.956, -249.66] mm and rotate to [[-1, 0, 0], [0, 1, 0], [0, 0, -1]]]
  movej(p[0.703925,-0.070584,-0.24966,0,3.141593,0], a=0.523599, v=0.628319, r=0.005)  # [Transform: move to [703.925, -70.584, -249.66] mm and rotate to [[-1, 0, 0], [0, 1, 0], [0, 0, -1]]]
  movej(p[0.708363,-0.079545,-0.24966,0,3.141593,0], a=0.523599, v=0.628319, r=0.005)  # [Transform: move to [708.363, -79.545, -249.66] mm and rotate to [[-1, 0, 0], [0, 1, 0], [0, 0, -1]]]
  movej(p[0.712046,-0.088842,-0.24966,0,3.141593,0], a=0.523599, v=0.628319, r=0.005)  # [Transform: move to [712.046, -88.842, -249.66] mm and rotate to [[-1, 0, 0], [0, 1, 0], [0, 0, -1]]]
  movej(p[0.712046,-0.088842,-0.21366,0,3.141593,0], a=0.523599, v=0.628319, r=0.005)  # [Transform: move to [712.046, -88.842, -213.66] mm and rotate to [[-1, 0, 0], [0, 1, 0], [0, 0, -1]]]
  movej(p[0.625,-0.3,-0.214,0,3.141593,0], a=0.523599, v=0.628319, r=0.005)  # [Transform: move to [625, -300, -214] mm and rotate to [[-1, 0, 0], [0, 1, 0], [0, 0, -1]]]
  movej(p[0.625,-0.3,-0.25,0,3.141593,0], a=0.523599, v=0.628319, r=0.005)  # [Transform: move to [625, -300, -250] mm and rotate to [[-1, 0, 0], [0, 1, 0], [0, 0, -1]]]
  movej(p[0.625,-0.3,-0.214,0,3.141593,0], a=0.523599, v=0.628319, r=0.005)  # [Transform: move to [625, -300, -214] mm and rotate to [[-1, 0, 0], [0, 1, 0], [0, 0, -1]]]
  movej(p[0.749471,-0.116068,-0.213642,0,3.141593,0], a=0.523599, v=0.628319, r=0.005)  # [Transform: move to [749.471, -116.068, -213.642] mm and rotate to [[-1, 0, 0], [0, 1, 0], [0, 0, -1]]]
  movej(p[0.749471,-0.116068,-0.249642,0,3.141593,0], a=0.523599, v=0.628319, r=0.005)  # [Transform: move to [749.471, -116.068, -249.642] mm and rotate to [[-1, 0, 0], [0, 1, 0], [0, 0, -1]]]
  movej(p[0.750168,-0.126043,-0.249642,0,3.141593,0], a=0.523599, v=0.628319, r=0.005)  # [Transform: move to [750.168, -126.043, -249.642] mm and rotate to [[-1, 0, 0], [0, 1, 0], [0, 0, -1]]]
  movej(p[0.74976,-0.136035,-0.249642,0,3.141593,0], a=0.523599, v=0.628319, r=0.005)  # [Transform: move to [749.76, -136.035, -249.642] mm and rotate to [[-1, 0, 0], [0, 1, 0], [0, 0, -1]]]
  movej(p[0.74976,-0.136035,-0.213642,0,3.141593,0], a=0.523599, v=0.628319, r=0.005)  # [Transform: move to [749.76, -136.035, -213.642] mm and rotate to [[-1, 0, 0], [0, 1, 0], [0, 0, -1]]]
  movej(p[0.625,-0.3,-0.214,0,3.141593,0], a=0.523599, v=0.628319, r=0.005)  # [Transform: move to [625, -300, -214] mm and rotate to [[-1, 0, 0], [0, 1, 0], [0, 0, -1]]]
  movej(p[0.625,-0.3,-0.25,0,3.141593,0], a=0.523599, v=0.628319, r=0.005)  # [Transform: move to [625, -300, -250] mm and rotate to [[-1, 0, 0], [0, 1, 0], [0, 0, -1]]]
  movej(p[0.625,-0.3,-0.214,0,3.141593,0], a=0.523599, v=0.628319, r=0.005)  # [Transform: move to [625, -300, -214] mm and rotate to [[-1, 0, 0], [0, 1, 0], [0, 0, -1]]]
  movej(p[0.751393,-0.07852,-0.213623,0,3.141593,0], a=0.523599, v=0.628319, r=0.005)  # [Transform: move to [751.393, -78.52, -213.623] mm and rotate to [[-1, 0, 0], [0, 1, 0], [0, 0, -1]]]
  movej(p[0.751393,-0.07852,-0.249623,0,3.141593,0], a=0.523599, v=0.628319, r=0.005)  # [Transform: move to [751.393, -78.52, -249.623] mm and rotate to [[-1, 0, 0], [0, 1, 0], [0, 0, -1]]]
  movej(p[0.756056,-0.087366,-0.249623,0,3.141593,0], a=0.523599, v=0.628319, r=0.005)  # [Transform: move to [756.056, -87.366, -249.623] mm and rotate to [[-1, 0, 0], [0, 1, 0], [0, 0, -1]]]
  movej(p[0.760554,-0.096298,-0.249623,0,3.141593,0], a=0.523599, v=0.628319, r=0.005)  # [Transform: move to [760.554, -96.298, -249.623] mm and rotate to [[-1, 0, 0], [0, 1, 0], [0, 0, -1]]]
  movej(p[0.764728,-0.105385,-0.249623,0,3.141593,0], a=0.523599, v=0.628319, r=0.005)  # [Transform: move to [764.728, -105.385, -249.623] mm and rotate to [[-1, 0, 0], [0, 1, 0], [0, 0, -1]]]
  movej(p[0.768426,-0.114676,-0.249623,0,3.141593,0], a=0.523599, v=0.628319, r=0.005)  # [Transform: move to [768.426, -114.676, -249.623] mm and rotate to [[-1, 0, 0], [0, 1, 0], [0, 0, -1]]]
  movej(p[0.771513,-0.124188,-0.249623,0,3.141593,0], a=0.523599, v=0.628319, r=0.005)  # [Transform: move to [771.513, -124.188, -249.623] mm and rotate to [[-1, 0, 0], [0, 1, 0], [0, 0, -1]]]
  movej(p[0.773899,-0.133899,-0.249623,0,3.141593,0], a=0.523599, v=0.628319, r=0.005)  # [Transform: move to [773.899, -133.899, -249.623] mm and rotate to [[-1, 0, 0], [0, 1, 0], [0, 0, -1]]]
  movej(p[0.775567,-0.143759,-0.249623,0,3.141593,0], a=0.523599, v=0.628319, r=0.005)  # [Transform: move to [775.567, -143.759, -249.623] mm and rotate to [[-1, 0, 0], [0, 1, 0], [0, 0, -1]]]
  movej(p[0.776592,-0.153706,-0.249623,0,3.141593,0], a=0.523599, v=0.628319, r=0.005)  # [Transform: move to [776.592, -153.706, -249.623] mm and rotate to [[-1, 0, 0], [0, 1, 0], [0, 0, -1]]]
  movej(p[0.776592,-0.153706,-0.213623,0,3.141593,0], a=0.523599, v=0.628319, r=0.005)  # [Transform: move to [776.592, -153.706, -213.623] mm and rotate to [[-1, 0, 0], [0, 1, 0], [0, 0, -1]]]
  movej(p[0.625,-0.3,-0.214,0,3.141593,0], a=0.523599, v=0.628319, r=0.005)  # [Transform: move to [625, -300, -214] mm and rotate to [[-1, 0, 0], [0, 1, 0], [0, 0, -1]]]
  movej(p[0.625,-0.3,-0.25,0,3.141593,0], a=0.523599, v=0.628319, r=0.005)  # [Transform: move to [625, -300, -250] mm and rotate to [[-1, 0, 0], [0, 1, 0], [0, 0, -1]]]
  movej(p[0.625,-0.3,-0.214,0,3.141593,0], a=0.523599, v=0.628319, r=0.005)  # [Transform: move to [625, -300, -214] mm and rotate to [[-1, 0, 0], [0, 1, 0], [0, 0, -1]]]
  movej(p[0.750683,-0.042104,-0.213604,0,3.141593,0], a=0.523599, v=0.628319, r=0.005)  # [Transform: move to [750.683, -42.104, -213.604] mm and rotate to [[-1, 0, 0], [0, 1, 0], [0, 0, -1]]]
  movej(p[0.750683,-0.042104,-0.249604,0,3.141593,0], a=0.523599, v=0.628319, r=0.005)  # [Transform: move to [750.683, -42.104, -249.604] mm and rotate to [[-1, 0, 0], [0, 1, 0], [0, 0, -1]]]
  movej(p[0.755465,-0.050887,-0.249604,0,3.141593,0], a=0.523599, v=0.628319, r=0.005)  # [Transform: move to [755.465, -50.887, -249.604] mm and rotate to [[-1, 0, 0], [0, 1, 0], [0, 0, -1]]]
  movej(p[0.761026,-0.059198,-0.249604,0,3.141593,0], a=0.523599, v=0.628319, r=0.005)  # [Transform: move to [761.026, -59.198, -249.604] mm and rotate to [[-1, 0, 0], [0, 1, 0], [0, 0, -1]]]
  movej(p[0.767227,-0.067043,-0.249604,0,3.141593,0], a=0.523599, v=0.628319, r=0.005)  # [Transform: move to [767.227, -67.043, -249.604] mm and rotate to [[-1, 0, 0], [0, 1, 0], [0, 0, -1]]]
  movej(p[0.773962,-0.074436,-0.249604,0,3.141593,0], a=0.523599, v=0.628319, r=0.005)  # [Transform: move to [773.962, -74.436, -249.604] mm and rotate to [[-1, 0, 0], [0, 1, 0], [0, 0, -1]]]
  movej(p[0.781143,-0.081395,-0.249604,0,3.141593,0], a=0.523599, v=0.628319, r=0.005)  # [Transform: move to [781.143, -81.395, -249.604] mm and rotate to [[-1, 0, 0], [0, 1, 0], [0, 0, -1]]]
  movej(p[0.788696,-0.087949,-0.249604,0,3.141593,0], a=0.523599, v=0.628319, r=0.005)  # [Transform: move to [788.696, -87.949, -249.604] mm and rotate to [[-1, 0, 0], [0, 1, 0], [0, 0, -1]]]
  movej(p[0.796541,-0.09415,-0.249604,0,3.141593,0], a=0.523599, v=0.628319, r=0.005)  # [Transform: move to [796.541, -94.15, -249.604] mm and rotate to [[-1, 0, 0], [0, 1, 0], [0, 0, -1]]]
  movej(p[0.804588,-0.100086,-0.249604,0,3.141593,0], a=0.523599, v=0.628319, r=0.005)  # [Transform: move to [804.588, -100.086, -249.604] mm and rotate to [[-1, 0, 0], [0, 1, 0], [0, 0, -1]]]
  movej(p[0.812726,-0.105897,-0.249604,0,3.141593,0], a=0.523599, v=0.628319, r=0.005)  # [Transform: move to [812.726, -105.897, -249.604] mm and rotate to [[-1, 0, 0], [0, 1, 0], [0, 0, -1]]]
  movej(p[0.820814,-0.111778,-0.249604,0,3.141593,0], a=0.523599, v=0.628319, r=0.005)  # [Transform: move to [820.814, -111.778, -249.604] mm and rotate to [[-1, 0, 0], [0, 1, 0], [0, 0, -1]]]
  movej(p[0.828672,-0.117963,-0.249604,0,3.141593,0], a=0.523599, v=0.628319, r=0.005)  # [Transform: move to [828.672, -117.963, -249.604] mm and rotate to [[-1, 0, 0], [0, 1, 0], [0, 0, -1]]]
  movej(p[0.836077,-0.124684,-0.249604,0,3.141593,0], a=0.523599, v=0.628319, r=0.005)  # [Transform: move to [836.077, -124.684, -249.604] mm and rotate to [[-1, 0, 0], [0, 1, 0], [0, 0, -1]]]
  movej(p[0.842776,-0.132109,-0.249604,0,3.141593,0], a=0.523599, v=0.628319, r=0.005)  # [Transform: move to [842.776, -132.109, -249.604] mm and rotate to [[-1, 0, 0], [0, 1, 0], [0, 0, -1]]]
  movej(p[0.848542,-0.140279,-0.249604,0,3.141593,0], a=0.523599, v=0.628319, r=0.005)  # [Transform: move to [848.542, -140.279, -249.604] mm and rotate to [[-1, 0, 0], [0, 1, 0], [0, 0, -1]]]
  movej(p[0.853257,-0.149097,-0.249604,0,3.141593,0], a=0.523599, v=0.628319, r=0.005)  # [Transform: move to [853.257, -149.097, -249.604] mm and rotate to [[-1, 0, 0], [0, 1, 0], [0, 0, -1]]]
  movej(p[0.856972,-0.158382,-0.249604,0,3.141593,0], a=0.523599, v=0.628319, r=0.005)  # [Transform: move to [856.972, -158.382, -249.604] mm and rotate to [[-1, 0, 0], [0, 1, 0], [0, 0, -1]]]
  movej(p[0.859886,-0.167948,-0.249604,0,3.141593,0], a=0.523599, v=0.628319, r=0.005)  # [Transform: move to [859.886, -167.948, -249.604] mm and rotate to [[-1, 0, 0], [0, 1, 0], [0, 0, -1]]]
  movej(p[0.862257,-0.177663,-0.249604,0,3.141593,0], a=0.523599, v=0.628319, r=0.005)  # [Transform: move to [862.257, -177.663, -249.604] mm and rotate to [[-1, 0, 0], [0, 1, 0], [0, 0, -1]]]
  movej(p[0.862257,-0.177663,-0.213604,0,3.141593,0], a=0.523599, v=0.628319, r=0.005)  # [Transform: move to [862.257, -177.663, -213.604] mm and rotate to [[-1, 0, 0], [0, 1, 0], [0, 0, -1]]]
  movej(p[0.625,-0.3,-0.214,0,3.141593,0], a=0.523599, v=0.628319, r=0.005)  # [Transform: move to [625, -300, -214] mm and rotate to [[-1, 0, 0], [0, 1, 0], [0, 0, -1]]]
  movej(p[0.625,-0.3,-0.25,0,3.141593,0], a=0.523599, v=0.628319, r=0.005)  # [Transform: move to [625, -300, -250] mm and rotate to [[-1, 0, 0], [0, 1, 0], [0, 0, -1]]]
  movej(p[0.625,-0.3,-0.214,0,3.141593,0], a=0.523599, v=0.628319, r=0.005)  # [Transform: move to [625, -300, -214] mm and rotate to [[-1, 0, 0], [0, 1, 0], [0, 0, -1]]]
  movej(p[0.748081,-0.006081,-0.213585,0,3.141593,0], a=0.523599, v=0.628319, r=0.005)  # [Transform: move to [748.081, -6.081, -213.585] mm and rotate to [[-1, 0, 0], [0, 1, 0], [0, 0, -1]]]
  movej(p[0.748081,-0.006081,-0.249585,0,3.141593,0], a=0.523599, v=0.628319, r=0.005)  # [Transform: move to [748.081, -6.081, -249.585] mm and rotate to [[-1, 0, 0], [0, 1, 0], [0, 0, -1]]]
  movej(p[0.748898,-0.016047,-0.249585,0,3.141593,0], a=0.523599, v=0.628319, r=0.005)  # [Transform: move to [748.898, -16.047, -249.585] mm and rotate to [[-1, 0, 0], [0, 1, 0], [0, 0, -1]]]
  movej(p[0.751155,-0.025789,-0.249585,0,3.141593,0], a=0.523599, v=0.628319, r=0.005)  # [Transform: move to [751.155, -25.789, -249.585] mm and rotate to [[-1, 0, 0], [0, 1, 0], [0, 0, -1]]]
  movej(p[0.75474,-0.035124,-0.249585,0,3.141593,0], a=0.523599, v=0.628319, r=0.005)  # [Transform: move to [754.74, -35.124, -249.585] mm and rotate to [[-1, 0, 0], [0, 1, 0], [0, 0, -1]]]
  movej(p[0.759485,-0.043927,-0.249585,0,3.141593,0], a=0.523599, v=0.628319, r=0.005)  # [Transform: move to [759.485, -43.927, -249.585] mm and rotate to [[-1, 0, 0], [0, 1, 0], [0, 0, -1]]]
  movej(p[0.765218,-0.05212,-0.249585,0,3.141593,0], a=0.523599, v=0.628319, r=0.005)  # [Transform: move to [765.218, -52.12, -249.585] mm and rotate to [[-1, 0, 0], [0, 1, 0], [0, 0, -1]]]
  movej(p[0.771786,-0.059661,-0.249585,0,3.141593,0], a=0.523599, v=0.628319, r=0.005)  # [Transform: move to [771.786, -59.661, -249.585] mm and rotate to [[-1, 0, 0], [0, 1, 0], [0, 0, -1]]]
  movej(p[0.779061,-0.066522,-0.249585,0,3.141593,0], a=0.523599, v=0.628319, r=0.005)  # [Transform: move to [779.061, -66.522, -249.585] mm and rotate to [[-1, 0, 0], [0, 1, 0], [0, 0, -1]]]
  movej(p[0.786932,-0.072691,-0.249585,0,3.141593,0], a=0.523599, v=0.628319, r=0.005)  # [Transform: move to [786.932, -72.691, -249.585] mm and rotate to [[-1, 0, 0], [0, 1, 0], [0, 0, -1]]]
  movej(p[0.79529,-0.078181,-0.249585,0,3.141593,0], a=0.523599, v=0.628319, r=0.005)  # [Transform: move to [795.29, -78.181, -249.585] mm and rotate to [[-1, 0, 0], [0, 1, 0], [0, 0, -1]]]
  movej(p[0.804023,-0.083052,-0.249585,0,3.141593,0], a=0.523599, v=0.628319, r=0.005)  # [Transform: move to [804.023, -83.052, -249.585] mm and rotate to [[-1, 0, 0], [0, 1, 0], [0, 0, -1]]]
  movej(p[0.81301,-0.087438,-0.249585,0,3.141593,0], a=0.523599, v=0.628319, r=0.005)  # [Transform: move to [813.01, -87.438, -249.585] mm and rotate to [[-1, 0, 0], [0, 1, 0], [0, 0, -1]]]
  movej(p[0.822122,-0.091559,-0.249585,0,3.141593,0], a=0.523599, v=0.628319, r=0.005)  # [Transform: move to [822.122, -91.559, -249.585] mm and rotate to [[-1, 0, 0], [0, 1, 0], [0, 0, -1]]]
  movej(p[0.831214,-0.095721,-0.249585,0,3.141593,0], a=0.523599, v=0.628319, r=0.005)  # [Transform: move to [831.214, -95.721, -249.585] mm and rotate to [[-1, 0, 0], [0, 1, 0], [0, 0, -1]]]
  movej(p[0.840109,-0.100292,-0.249585,0,3.141593,0], a=0.523599, v=0.628319, r=0.005)  # [Transform: move to [840.109, -100.292, -249.585] mm and rotate to [[-1, 0, 0], [0, 1, 0], [0, 0, -1]]]
  movej(p[0.848557,-0.105642,-0.249585,0,3.141593,0], a=0.523599, v=0.628319, r=0.005)  # [Transform: move to [848.557, -105.642, -249.585] mm and rotate to [[-1, 0, 0], [0, 1, 0], [0, 0, -1]]]
  movej(p[0.856228,-0.112058,-0.249585,0,3.141593,0], a=0.523599, v=0.628319, r=0.005)  # [Transform: move to [856.228, -112.058, -249.585] mm and rotate to [[-1, 0, 0], [0, 1, 0], [0, 0, -1]]]
  movej(p[0.862751,-0.119637,-0.249585,0,3.141593,0], a=0.523599, v=0.628319, r=0.005)  # [Transform: move to [862.751, -119.637, -249.585] mm and rotate to [[-1, 0, 0], [0, 1, 0], [0, 0, -1]]]
  movej(p[0.867833,-0.128249,-0.249585,0,3.141593,0], a=0.523599, v=0.628319, r=0.005)  # [Transform: move to [867.833, -128.249, -249.585] mm and rotate to [[-1, 0, 0], [0, 1, 0], [0, 0, -1]]]
  movej(p[0.871387,-0.137596,-0.249585,0,3.141593,0], a=0.523599, v=0.628319, r=0.005)  # [Transform: move to [871.387, -137.596, -249.585] mm and rotate to [[-1, 0, 0], [0, 1, 0], [0, 0, -1]]]
  movej(p[0.87357,-0.147355,-0.249585,0,3.141593,0], a=0.523599, v=0.628319, r=0.005)  # [Transform: move to [873.57, -147.355, -249.585] mm and rotate to [[-1, 0, 0], [0, 1, 0], [0, 0, -1]]]
  movej(p[0.874718,-0.157289,-0.249585,0,3.141593,0], a=0.523599, v=0.628319, r=0.005)  # [Transform: move to [874.718, -157.289, -249.585] mm and rotate to [[-1, 0, 0], [0, 1, 0], [0, 0, -1]]]
  movej(p[0.875221,-0.167276,-0.249585,0,3.141593,0], a=0.523599, v=0.628319, r=0.005)  # [Transform: move to [875.221, -167.276, -249.585] mm and rotate to [[-1, 0, 0], [0, 1, 0], [0, 0, -1]]]
  movej(p[0.875221,-0.167276,-0.213585,0,3.141593,0], a=0.523599, v=0.628319, r=0.005)  # [Transform: move to [875.221, -167.276, -213.585] mm and rotate to [[-1, 0, 0], [0, 1, 0], [0, 0, -1]]]
  movej(p[0.625,-0.3,-0.214,0,3.141593,0], a=0.523599, v=0.628319, r=0.005)  # [Transform: move to [625, -300, -214] mm and rotate to [[-1, 0, 0], [0, 1, 0], [0, 0, -1]]]
  movej(p[0.625,-0.3,-0.25,0,3.141593,0], a=0.523599, v=0.628319, r=0.005)  # [Transform: move to [625, -300, -250] mm and rotate to [[-1, 0, 0], [0, 1, 0], [0, 0, -1]]]
  movej(p[0.625,-0.3,-0.214,0,3.141593,0], a=0.523599, v=0.628319, r=0.005)  # [Transform: move to [625, -300, -214] mm and rotate to [[-1, 0, 0], [0, 1, 0], [0, 0, -1]]]
  movej(p[0.745399,0.031221,-0.213566,0,3.141593,0], a=0.523599, v=0.628319, r=0.005)  # [Transform: move to [745.399, 31.221, -213.566] mm and rotate to [[-1, 0, 0], [0, 1, 0], [0, 0, -1]]]
  movej(p[0.745399,0.031221,-0.249566,0,3.141593,0], a=0.523599, v=0.628319, r=0.005)  # [Transform: move to [745.399, 31.221, -249.566] mm and rotate to [[-1, 0, 0], [0, 1, 0], [0, 0, -1]]]
  movej(p[0.740317,0.022609,-0.249566,0,3.141593,0], a=0.523599, v=0.628319, r=0.005)  # [Transform: move to [740.317, 22.609, -249.566] mm and rotate to [[-1, 0, 0], [0, 1, 0], [0, 0, -1]]]
  movej(p[0.736149,0.013519,-0.249566,0,3.141593,0], a=0.523599, v=0.628319, r=0.005)  # [Transform: move to [736.149, 13.519, -249.566] mm and rotate to [[-1, 0, 0], [0, 1, 0], [0, 0, -1]]]
  movej(p[0.733119,0.003989,-0.249566,0,3.141593,0], a=0.523599, v=0.628319, r=0.005)  # [Transform: move to [733.119, 3.989, -249.566] mm and rotate to [[-1, 0, 0], [0, 1, 0], [0, 0, -1]]]
  movej(p[0.731417,-0.005865,-0.249566,0,3.141593,0], a=0.523599, v=0.628319, r=0.005)  # [Transform: move to [731.417, -5.865, -249.566] mm and rotate to [[-1, 0, 0], [0, 1, 0], [0, 0, -1]]]
  movej(p[0.731129,-0.015861,-0.249566,0,3.141593,0], a=0.523599, v=0.628319, r=0.005)  # [Transform: move to [731.129, -15.861, -249.566] mm and rotate to [[-1, 0, 0], [0, 1, 0], [0, 0, -1]]]
  movej(p[0.732201,-0.025803,-0.249566,0,3.141593,0], a=0.523599, v=0.628319, r=0.005)  # [Transform: move to [732.201, -25.803, -249.566] mm and rotate to [[-1, 0, 0], [0, 1, 0], [0, 0, -1]]]
  movej(p[0.734465,-0.035544,-0.249566,0,3.141593,0], a=0.523599, v=0.628319, r=0.005)  # [Transform: move to [734.465, -35.544, -249.566] mm and rotate to [[-1, 0, 0], [0, 1, 0], [0, 0, -1]]]
  movej(p[0.737689,-0.04501,-0.249566,0,3.141593,0], a=0.523599, v=0.628319, r=0.005)  # [Transform: move to [737.689, -45.01, -249.566] mm and rotate to [[-1, 0, 0], [0, 1, 0], [0, 0, -1]]]
  movej(p[0.741637,-0.054197,-0.249566,0,3.141593,0], a=0.523599, v=0.628319, r=0.005)  # [Transform: move to [741.637, -54.197, -249.566] mm and rotate to [[-1, 0, 0], [0, 1, 0], [0, 0, -1]]]
  movej(p[0.746095,-0.063149,-0.249566,0,3.141593,0], a=0.523599, v=0.628319, r=0.005)  # [Transform: move to [746.095, -63.149, -249.566] mm and rotate to [[-1, 0, 0], [0, 1, 0], [0, 0, -1]]]
  movej(p[0.750878,-0.071931,-0.249566,0,3.141593,0], a=0.523599, v=0.628319, r=0.005)  # [Transform: move to [750.878, -71.931, -249.566] mm and rotate to [[-1, 0, 0], [0, 1, 0], [0, 0, -1]]]
  movej(p[0.755826,-0.080621,-0.249566,0,3.141593,0], a=0.523599, v=0.628319, r=0.005)  # [Transform: move to [755.826, -80.621, -249.566] mm and rotate to [[-1, 0, 0], [0, 1, 0], [0, 0, -1]]]
  movej(p[0.760795,-0.089299,-0.249566,0,3.141593,0], a=0.523599, v=0.628319, r=0.005)  # [Transform: move to [760.795, -89.299, -249.566] mm and rotate to [[-1, 0, 0], [0, 1, 0], [0, 0, -1]]]
  movej(p[0.765645,-0.098044,-0.249566,0,3.141593,0], a=0.523599, v=0.628319, r=0.005)  # [Transform: move to [765.645, -98.044, -249.566] mm and rotate to [[-1, 0, 0], [0, 1, 0], [0, 0, -1]]]
  movej(p[0.770241,-0.106925,-0.249566,0,3.141593,0], a=0.523599, v=0.628319, r=0.005)  # [Transform: move to [770.241, -106.925, -249.566] mm and rotate to [[-1, 0, 0], [0, 1, 0], [0, 0, -1]]]
  movej(p[0.774454,-0.115994,-0.249566,0,3.141593,0], a=0.523599, v=0.628319, r=0.005)  # [Transform: move to [774.454, -115.994, -249.566] mm and rotate to [[-1, 0, 0], [0, 1, 0], [0, 0, -1]]]
  movej(p[0.778173,-0.125277,-0.249566,0,3.141593,0], a=0.523599, v=0.628319, r=0.005)  # [Transform: move to [778.173, -125.277, -249.566] mm and rotate to [[-1, 0, 0], [0, 1, 0], [0, 0, -1]]]
  movej(p[0.781328,-0.134766,-0.249566,0,3.141593,0], a=0.523599, v=0.628319, r=0.005)  # [Transform: move to [781.328, -134.766, -249.566] mm and rotate to [[-1, 0, 0], [0, 1, 0], [0, 0, -1]]]
  movej(p[0.783919,-0.144425,-0.249566,0,3.141593,0], a=0.523599, v=0.628319, r=0.005)  # [Transform: move to [783.919, -144.425, -249.566] mm and rotate to [[-1, 0, 0], [0, 1, 0], [0, 0, -1]]]
  movej(p[0.786029,-0.1542,-0.249566,0,3.141593,0], a=0.523599, v=0.628319, r=0.005)  # [Transform: move to [786.029, -154.2, -249.566] mm and rotate to [[-1, 0, 0], [0, 1, 0], [0, 0, -1]]]
  movej(p[0.786029,-0.1542,-0.213566,0,3.141593,0], a=0.523599, v=0.628319, r=0.005)  # [Transform: move to [786.029, -154.2, -213.566] mm and rotate to [[-1, 0, 0], [0, 1, 0], [0, 0, -1]]]
  movej(p[0.625,-0.3,-0.214,0,3.141593,0], a=0.523599, v=0.628319, r=0.005)  # [Transform: move to [625, -300, -214] mm and rotate to [[-1, 0, 0], [0, 1, 0], [0, 0, -1]]]
  movej(p[0.625,-0.3,-0.25,0,3.141593,0], a=0.523599, v=0.628319, r=0.005)  # [Transform: move to [625, -300, -250] mm and rotate to [[-1, 0, 0], [0, 1, 0], [0, 0, -1]]]
  movej(p[0.625,-0.3,-0.214,0,3.141593,0], a=0.523599, v=0.628319, r=0.005)  # [Transform: move to [625, -300, -214] mm and rotate to [[-1, 0, 0], [0, 1, 0], [0, 0, -1]]]
  movej(p[0.743912,0.069554,-0.213547,0,3.141593,0], a=0.523599, v=0.628319, r=0.005)  # [Transform: move to [743.912, 69.554, -213.547] mm and rotate to [[-1, 0, 0], [0, 1, 0], [0, 0, -1]]]
  movej(p[0.743912,0.069554,-0.249547,0,3.141593,0], a=0.523599, v=0.628319, r=0.005)  # [Transform: move to [743.912, 69.554, -249.547] mm and rotate to [[-1, 0, 0], [0, 1, 0], [0, 0, -1]]]
  movej(p[0.734592,0.065929,-0.249547,0,3.141593,0], a=0.523599, v=0.628319, r=0.005)  # [Transform: move to [734.592, 65.929, -249.547] mm and rotate to [[-1, 0, 0], [0, 1, 0], [0, 0, -1]]]
  movej(p[0.725224,0.062429,-0.249547,0,3.141593,0], a=0.523599, v=0.628319, r=0.005)  # [Transform: move to [725.224, 62.429, -249.547] mm and rotate to [[-1, 0, 0], [0, 1, 0], [0, 0, -1]]]
  movej(p[0.71597,0.058641,-0.249547,0,3.141593,0], a=0.523599, v=0.628319, r=0.005)  # [Transform: move to [715.97, 58.641, -249.547] mm and rotate to [[-1, 0, 0], [0, 1, 0], [0, 0, -1]]]
  movej(p[0.707068,0.054084,-0.249547,0,3.141593,0], a=0.523599, v=0.628319, r=0.005)  # [Transform: move to [707.068, 54.084, -249.547] mm and rotate to [[-1, 0, 0], [0, 1, 0], [0, 0, -1]]]
  movej(p[0.698902,0.048313,-0.249547,0,3.141593,0], a=0.523599, v=0.628319, r=0.005)  # [Transform: move to [698.902, 48.313, -249.547] mm and rotate to [[-1, 0, 0], [0, 1, 0], [0, 0, -1]]]
  movej(p[0.691987,0.041088,-0.249547,0,3.141593,0], a=0.523599, v=0.628319, r=0.005)  # [Transform: move to [691.987, 41.088, -249.547] mm and rotate to [[-1, 0, 0], [0, 1, 0], [0, 0, -1]]]
  movej(p[0.68682,0.032527,-0.249547,0,3.141593,0], a=0.523599, v=0.628319, r=0.005)  # [Transform: move to [686.82, 32.527, -249.547] mm and rotate to [[-1, 0, 0], [0, 1, 0], [0, 0, -1]]]
  movej(p[0.683631,0.023049,-0.249547,0,3.141593,0], a=0.523599, v=0.628319, r=0.005)  # [Transform: move to [683.631, 23.049, -249.547] mm and rotate to [[-1, 0, 0], [0, 1, 0], [0, 0, -1]]]
  movej(p[0.682336,0.013133,-0.249547,0,3.141593,0], a=0.523599, v=0.628319, r=0.005)  # [Transform: move to [682.336, 13.133, -249.547] mm and rotate to [[-1, 0, 0], [0, 1, 0], [0, 0, -1]]]
  movej(p[0.682725,0.003141,-0.249547,0,3.141593,0], a=0.523599, v=0.628319, r=0.005)  # [Transform: move to [682.725, 3.141, -249.547] mm and rotate to [[-1, 0, 0], [0, 1, 0], [0, 0, -1]]]
  movej(p[0.68453,-0.006695,-0.249547,0,3.141593,0], a=0.523599, v=0.628319, r=0.005)  # [Transform: move to [684.53, -6.695, -249.547] mm and rotate to [[-1, 0, 0], [0, 1, 0], [0, 0, -1]]]
  movej(p[0.68744,-0.016262,-0.249547,0,3.141593,0], a=0.523599, v=0.628319, r=0.005)  # [Transform: move to [687.44, -16.262, -249.547] mm and rotate to [[-1, 0, 0], [0, 1, 0], [0, 0, -1]]]
  movej(p[0.691146,-0.02555,-0.249547,0,3.141593,0], a=0.523599, v=0.628319, r=0.005)  # [Transform: move to [691.146, -25.55, -249.547] mm and rotate to [[-1, 0, 0], [0, 1, 0], [0, 0, -1]]]
  movej(p[0.695374,-0.034613,-0.249547,0,3.141593,0], a=0.523599, v=0.628319, r=0.005)  # [Transform: move to [695.374, -34.613, -249.547] mm and rotate to [[-1, 0, 0], [0, 1, 0], [0, 0, -1]]]
  movej(p[0.699891,-0.043534,-0.249547,0,3.141593,0], a=0.523599, v=0.628319, r=0.005)  # [Transform: move to [699.891, -43.534, -249.547] mm and rotate to [[-1, 0, 0], [0, 1, 0], [0, 0, -1]]]
  movej(p[0.704503,-0.052407,-0.249547,0,3.141593,0], a=0.523599, v=0.628319, r=0.005)  # [Transform: move to [704.503, -52.407, -249.547] mm and rotate to [[-1, 0, 0], [0, 1, 0], [0, 0, -1]]]
  movej(p[0.709037,-0.06132,-0.249547,0,3.141593,0], a=0.523599, v=0.628319, r=0.005)  # [Transform: move to [709.037, -61.32, -249.547] mm and rotate to [[-1, 0, 0], [0, 1, 0], [0, 0, -1]]]
  movej(p[0.713326,-0.070354,-0.249547,0,3.141593,0], a=0.523599, v=0.628319, r=0.005)  # [Transform: move to [713.326, -70.354, -249.547] mm and rotate to [[-1, 0, 0], [0, 1, 0], [0, 0, -1]]]
  movej(p[0.717196,-0.079574,-0.249547,0,3.141593,0], a=0.523599, v=0.628319, r=0.005)  # [Transform: move to [717.196, -79.574, -249.547] mm and rotate to [[-1, 0, 0], [0, 1, 0], [0, 0, -1]]]
  movej(p[0.72046,-0.089027,-0.249547,0,3.141593,0], a=0.523599, v=0.628319, r=0.005)  # [Transform: move to [720.46, -89.027, -249.547] mm and rotate to [[-1, 0, 0], [0, 1, 0], [0, 0, -1]]]
  movej(p[0.722919,-0.09872,-0.249547,0,3.141593,0], a=0.523599, v=0.628319, r=0.005)  # [Transform: move to [722.919, -98.72, -249.547] mm and rotate to [[-1, 0, 0], [0, 1, 0], [0, 0, -1]]]
  movej(p[0.724383,-0.108612,-0.249547,0,3.141593,0], a=0.523599, v=0.628319, r=0.005)  # [Transform: move to [724.383, -108.612, -249.547] mm and rotate to [[-1, 0, 0], [0, 1, 0], [0, 0, -1]]]
  movej(p[0.724383,-0.108612,-0.213547,0,3.141593,0], a=0.523599, v=0.628319, r=0.005)  # [Transform: move to [724.383, -108.612, -213.547] mm and rotate to [[-1, 0, 0], [0, 1, 0], [0, 0, -1]]]
  movej(p[0.625,-0.3,-0.214,0,3.141593,0], a=0.523599, v=0.628319, r=0.005)  # [Transform: move to [625, -300, -214] mm and rotate to [[-1, 0, 0], [0, 1, 0], [0, 0, -1]]]
  movej(p[0.625,-0.3,-0.25,0,3.141593,0], a=0.523599, v=0.628319, r=0.005)  # [Transform: move to [625, -300, -250] mm and rotate to [[-1, 0, 0], [0, 1, 0], [0, 0, -1]]]
  movej(p[0.625,-0.3,-0.214,0,3.141593,0], a=0.523599, v=0.628319, r=0.005)  # [Transform: move to [625, -300, -214] mm and rotate to [[-1, 0, 0], [0, 1, 0], [0, 0, -1]]]
  movej(p[0.743908,0.106521,-0.213528,0,3.141593,0], a=0.523599, v=0.628319, r=0.005)  # [Transform: move to [743.908, 106.521, -213.528] mm and rotate to [[-1, 0, 0], [0, 1, 0], [0, 0, -1]]]
  movej(p[0.743908,0.106521,-0.249528,0,3.141593,0], a=0.523599, v=0.628319, r=0.005)  # [Transform: move to [743.908, 106.521, -249.528] mm and rotate to [[-1, 0, 0], [0, 1, 0], [0, 0, -1]]]
  movej(p[0.733951,0.105596,-0.249528,0,3.141593,0], a=0.523599, v=0.628319, r=0.005)  # [Transform: move to [733.951, 105.596, -249.528] mm and rotate to [[-1, 0, 0], [0, 1, 0], [0, 0, -1]]]
  movej(p[0.723955,0.105874,-0.249528,0,3.141593,0], a=0.523599, v=0.628319, r=0.005)  # [Transform: move to [723.955, 105.874, -249.528] mm and rotate to [[-1, 0, 0], [0, 1, 0], [0, 0, -1]]]
  movej(p[0.714016,0.106981,-0.249528,0,3.141593,0], a=0.523599, v=0.628319, r=0.005)  # [Transform: move to [714.016, 106.981, -249.528] mm and rotate to [[-1, 0, 0], [0, 1, 0], [0, 0, -1]]]
  movej(p[0.704021,0.106669,-0.249528,0,3.141593,0], a=0.523599, v=0.628319, r=0.005)  # [Transform: move to [704.021, 106.669, -249.528] mm and rotate to [[-1, 0, 0], [0, 1, 0], [0, 0, -1]]]
  movej(p[0.694742,0.102941,-0.249528,0,3.141593,0], a=0.523599, v=0.628319, r=0.005)  # [Transform: move to [694.742, 102.941, -249.528] mm and rotate to [[-1, 0, 0], [0, 1, 0], [0, 0, -1]]]
  movej(p[0.687028,0.096577,-0.249528,0,3.141593,0], a=0.523599, v=0.628319, r=0.005)  # [Transform: move to [687.028, 96.577, -249.528] mm and rotate to [[-1, 0, 0], [0, 1, 0], [0, 0, -1]]]
  movej(p[0.680923,0.088657,-0.249528,0,3.141593,0], a=0.523599, v=0.628319, r=0.005)  # [Transform: move to [680.923, 88.657, -249.528] mm and rotate to [[-1, 0, 0], [0, 1, 0], [0, 0, -1]]]
  movej(p[0.676147,0.079872,-0.249528,0,3.141593,0], a=0.523599, v=0.628319, r=0.005)  # [Transform: move to [676.147, 79.872, -249.528] mm and rotate to [[-1, 0, 0], [0, 1, 0], [0, 0, -1]]]
  movej(p[0.672435,0.070586,-0.249528,0,3.141593,0], a=0.523599, v=0.628319, r=0.005)  # [Transform: move to [672.435, 70.586, -249.528] mm and rotate to [[-1, 0, 0], [0, 1, 0], [0, 0, -1]]]
  movej(p[0.6696,0.060996,-0.249528,0,3.141593,0], a=0.523599, v=0.628319, r=0.005)  # [Transform: move to [669.6, 60.996, -249.528] mm and rotate to [[-1, 0, 0], [0, 1, 0], [0, 0, -1]]]
  movej(p[0.667518,0.051215,-0.249528,0,3.141593,0], a=0.523599, v=0.628319, r=0.005)  # [Transform: move to [667.518, 51.215, -249.528] mm and rotate to [[-1, 0, 0], [0, 1, 0], [0, 0, -1]]]
  movej(p[0.666114,0.041315,-0.249528,0,3.141593,0], a=0.523599, v=0.628319, r=0.005)  # [Transform: move to [666.114, 41.315, -249.528] mm and rotate to [[-1, 0, 0], [0, 1, 0], [0, 0, -1]]]
  movej(p[0.665347,0.031344,-0.249528,0,3.141593,0], a=0.523599, v=0.628319, r=0.005)  # [Transform: move to [665.347, 31.344, -249.528] mm and rotate to [[-1, 0, 0], [0, 1, 0], [0, 0, -1]]]
  movej(p[0.665206,0.021345,-0.249528,0,3.141593,0], a=0.523599, v=0.628319, r=0.005)  # [Transform: move to [665.206, 21.345, -249.528] mm and rotate to [[-1, 0, 0], [0, 1, 0], [0, 0, -1]]]
  movej(p[0.665705,0.011357,-0.249528,0,3.141593,0], a=0.523599, v=0.628319, r=0.005)  # [Transform: move to [665.705, 11.357, -249.528] mm and rotate to [[-1, 0, 0], [0, 1, 0], [0, 0, -1]]]
  movej(p[0.666889,0.001428,-0.249528,0,3.141593,0], a=0.523599, v=0.628319, r=0.005)  # [Transform: move to [666.889, 1.428, -249.528] mm and rotate to [[-1, 0, 0], [0, 1, 0], [0, 0, -1]]]
  movej(p[0.668839,-0.00838,-0.249528,0,3.141593,0], a=0.523599, v=0.628319, r=0.005)  # [Transform: move to [668.839, -8.38, -249.528] mm and rotate to [[-1, 0, 0], [0, 1, 0], [0, 0, -1]]]
  movej(p[0.671681,-0.017968,-0.249528,0,3.141593,0], a=0.523599, v=0.628319, r=0.005)  # [Transform: move to [671.681, -17.968, -249.528] mm and rotate to [[-1, 0, 0], [0, 1, 0], [0, 0, -1]]]
  movej(p[0.67561,-0.027164,-0.249528,0,3.141593,0], a=0.523599, v=0.628319, r=0.005)  # [Transform: move to [675.61, -27.164, -249.528] mm and rotate to [[-1, 0, 0], [0, 1, 0], [0, 0, -1]]]
  movej(p[0.680899,-0.035651,-0.249528,0,3.141593,0], a=0.523599, v=0.628319, r=0.005)  # [Transform: move to [680.899, -35.651, -249.528] mm and rotate to [[-1, 0, 0], [0, 1, 0], [0, 0, -1]]]
  movej(p[0.687139,-0.043464,-0.249528,0,3.141593,0], a=0.523599, v=0.628319, r=0.005)  # [Transform: move to [687.139, -43.464, -249.528] mm and rotate to [[-1, 0, 0], [0, 1, 0], [0, 0, -1]]]
  movej(p[0.693053,-0.051528,-0.249528,0,3.141593,0], a=0.523599, v=0.628319, r=0.005)  # [Transform: move to [693.053, -51.528, -249.528] mm and rotate to [[-1, 0, 0], [0, 1, 0], [0, 0, -1]]]
  movej(p[0.698602,-0.059848,-0.249528,0,3.141593,0], a=0.523599, v=0.628319, r=0.005)  # [Transform: move to [698.602, -59.848, -249.528] mm and rotate to [[-1, 0, 0], [0, 1, 0], [0, 0, -1]]]
  movej(p[0.703693,-0.068454,-0.249528,0,3.141593,0], a=0.523599, v=0.628319, r=0.005)  # [Transform: move to [703.693, -68.454, -249.528] mm and rotate to [[-1, 0, 0], [0, 1, 0], [0, 0, -1]]]
  movej(p[0.708218,-0.077372,-0.249528,0,3.141593,0], a=0.523599, v=0.628319, r=0.005)  # [Transform: move to [708.218, -77.372, -249.528] mm and rotate to [[-1, 0, 0], [0, 1, 0], [0, 0, -1]]]
  movej(p[0.712039,-0.086614,-0.249528,0,3.141593,0], a=0.523599, v=0.628319, r=0.005)  # [Transform: move to [712.039, -86.614, -249.528] mm and rotate to [[-1, 0, 0], [0, 1, 0], [0, 0, -1]]]
  movej(p[0.714993,-0.096167,-0.249528,0,3.141593,0], a=0.523599, v=0.628319, r=0.005)  # [Transform: move to [714.993, -96.167, -249.528] mm and rotate to [[-1, 0, 0], [0, 1, 0], [0, 0, -1]]]
  movej(p[0.716916,-0.105981,-0.249528,0,3.141593,0], a=0.523599, v=0.628319, r=0.005)  # [Transform: move to [716.916, -105.981, -249.528] mm and rotate to [[-1, 0, 0], [0, 1, 0], [0, 0, -1]]]
  movej(p[0.716916,-0.105981,-0.213528,0,3.141593,0], a=0.523599, v=0.628319, r=0.005)  # [Transform: move to [716.916, -105.981, -213.528] mm and rotate to [[-1, 0, 0], [0, 1, 0], [0, 0, -1]]]
  movej(p[0.625,-0.3,-0.214,0,3.141593,0], a=0.523599, v=0.628319, r=0.005)  # [Transform: move to [625, -300, -214] mm and rotate to [[-1, 0, 0], [0, 1, 0], [0, 0, -1]]]
  movej(p[0.625,-0.3,-0.25,0,3.141593,0], a=0.523599, v=0.628319, r=0.005)  # [Transform: move to [625, -300, -250] mm and rotate to [[-1, 0, 0], [0, 1, 0], [0, 0, -1]]]
  movej(p[0.625,-0.3,-0.214,0,3.141593,0], a=0.523599, v=0.628319, r=0.005)  # [Transform: move to [625, -300, -214] mm and rotate to [[-1, 0, 0], [0, 1, 0], [0, 0, -1]]]
  movej(p[0.682096,-0.03874,-0.213509,0,3.141593,0], a=0.523599, v=0.628319, r=0.005)  # [Transform: move to [682.096, -38.74, -213.509] mm and rotate to [[-1, 0, 0], [0, 1, 0], [0, 0, -1]]]
  movej(p[0.682096,-0.03874,-0.249509,0,3.141593,0], a=0.523599, v=0.628319, r=0.005)  # [Transform: move to [682.096, -38.74, -249.509] mm and rotate to [[-1, 0, 0], [0, 1, 0], [0, 0, -1]]]
  movej(p[0.688358,-0.046536,-0.249509,0,3.141593,0], a=0.523599, v=0.628319, r=0.005)  # [Transform: move to [688.358, -46.536, -249.509] mm and rotate to [[-1, 0, 0], [0, 1, 0], [0, 0, -1]]]
  movej(p[0.694265,-0.054605,-0.249509,0,3.141593,0], a=0.523599, v=0.628319, r=0.005)  # [Transform: move to [694.265, -54.605, -249.509] mm and rotate to [[-1, 0, 0], [0, 1, 0], [0, 0, -1]]]
  movej(p[0.699745,-0.06297,-0.249509,0,3.141593,0], a=0.523599, v=0.628319, r=0.005)  # [Transform: move to [699.745, -62.97, -249.509] mm and rotate to [[-1, 0, 0], [0, 1, 0], [0, 0, -1]]]
  movej(p[0.704712,-0.071649,-0.249509,0,3.141593,0], a=0.523599, v=0.628319, r=0.005)  # [Transform: move to [704.712, -71.649, -249.509] mm and rotate to [[-1, 0, 0], [0, 1, 0], [0, 0, -1]]]
  movej(p[0.70905,-0.080659,-0.249509,0,3.141593,0], a=0.523599, v=0.628319, r=0.005)  # [Transform: move to [709.05, -80.659, -249.509] mm and rotate to [[-1, 0, 0], [0, 1, 0], [0, 0, -1]]]
  movej(p[0.712617,-0.090001,-0.249509,0,3.141593,0], a=0.523599, v=0.628319, r=0.005)  # [Transform: move to [712.617, -90.001, -249.509] mm and rotate to [[-1, 0, 0], [0, 1, 0], [0, 0, -1]]]
  movej(p[0.71525,-0.099649,-0.249509,0,3.141593,0], a=0.523599, v=0.628319, r=0.005)  # [Transform: move to [715.25, -99.649, -249.509] mm and rotate to [[-1, 0, 0], [0, 1, 0], [0, 0, -1]]]
  movej(p[0.71525,-0.099649,-0.213509,0,3.141593,0], a=0.523599, v=0.628319, r=0.005)  # [Transform: move to [715.25, -99.649, -213.509] mm and rotate to [[-1, 0, 0], [0, 1, 0], [0, 0, -1]]]
  movej(p[0.625,-0.3,-0.214,0,3.141593,0], a=0.523599, v=0.628319, r=0.005)  # [Transform: move to [625, -300, -214] mm and rotate to [[-1, 0, 0], [0, 1, 0], [0, 0, -1]]]
  movej(p[0.625,-0.3,-0.25,0,3.141593,0], a=0.523599, v=0.628319, r=0.005)  # [Transform: move to [625, -300, -250] mm and rotate to [[-1, 0, 0], [0, 1, 0], [0, 0, -1]]]
  movej(p[0.625,-0.3,-0.214,0,3.141593,0], a=0.523599, v=0.628319, r=0.005)  # [Transform: move to [625, -300, -214] mm and rotate to [[-1, 0, 0], [0, 1, 0], [0, 0, -1]]]
  movej(p[0.683591,-0.040787,-0.213491,0,3.141593,0], a=0.523599, v=0.628319, r=0.005)  # [Transform: move to [683.591, -40.787, -213.491] mm and rotate to [[-1, 0, 0], [0, 1, 0], [0, 0, -1]]]
  movej(p[0.683591,-0.040787,-0.249491,0,3.141593,0], a=0.523599, v=0.628319, r=0.005)  # [Transform: move to [683.591, -40.787, -249.491] mm and rotate to [[-1, 0, 0], [0, 1, 0], [0, 0, -1]]]
  movej(p[0.689788,-0.048635,-0.249491,0,3.141593,0], a=0.523599, v=0.628319, r=0.005)  # [Transform: move to [689.788, -48.635, -249.491] mm and rotate to [[-1, 0, 0], [0, 1, 0], [0, 0, -1]]]
  movej(p[0.695607,-0.056768,-0.249491,0,3.141593,0], a=0.523599, v=0.628319, r=0.005)  # [Transform: move to [695.607, -56.768, -249.491] mm and rotate to [[-1, 0, 0], [0, 1, 0], [0, 0, -1]]]
  movej(p[0.700976,-0.065204,-0.249491,0,3.141593,0], a=0.523599, v=0.628319, r=0.005)  # [Transform: move to [700.976, -65.204, -249.491] mm and rotate to [[-1, 0, 0], [0, 1, 0], [0, 0, -1]]]
  movej(p[0.705801,-0.073963,-0.249491,0,3.141593,0], a=0.523599, v=0.628319, r=0.005)  # [Transform: move to [705.801, -73.963, -249.491] mm and rotate to [[-1, 0, 0], [0, 1, 0], [0, 0, -1]]]
  movej(p[0.709961,-0.083057,-0.249491,0,3.141593,0], a=0.523599, v=0.628319, r=0.005)  # [Transform: move to [709.961, -83.057, -249.491] mm and rotate to [[-1, 0, 0], [0, 1, 0], [0, 0, -1]]]
  movej(p[0.713306,-0.092481,-0.249491,0,3.141593,0], a=0.523599, v=0.628319, r=0.005)  # [Transform: move to [713.306, -92.481, -249.491] mm and rotate to [[-1, 0, 0], [0, 1, 0], [0, 0, -1]]]
  movej(p[0.715675,-0.102196,-0.249491,0,3.141593,0], a=0.523599, v=0.628319, r=0.005)  # [Transform: move to [715.675, -102.196, -249.491] mm and rotate to [[-1, 0, 0], [0, 1, 0], [0, 0, -1]]]
  movej(p[0.715675,-0.102196,-0.213491,0,3.141593,0], a=0.523599, v=0.628319, r=0.005)  # [Transform: move to [715.675, -102.196, -213.491] mm and rotate to [[-1, 0, 0], [0, 1, 0], [0, 0, -1]]]
  movej(p[0.625,-0.3,-0.214,0,3.141593,0], a=0.523599, v=0.628319, r=0.005)  # [Transform: move to [625, -300, -214] mm and rotate to [[-1, 0, 0], [0, 1, 0], [0, 0, -1]]]
  movej(p[0.625,-0.3,-0.25,0,3.141593,0], a=0.523599, v=0.628319, r=0.005)  # [Transform: move to [625, -300, -250] mm and rotate to [[-1, 0, 0], [0, 1, 0], [0, 0, -1]]]
  movej(p[0.625,-0.3,-0.214,0,3.141593,0], a=0.523599, v=0.628319, r=0.005)  # [Transform: move to [625, -300, -214] mm and rotate to [[-1, 0, 0], [0, 1, 0], [0, 0, -1]]]
  movej(p[0.680175,-0.036491,-0.213472,0,3.141593,0], a=0.523599, v=0.628319, r=0.005)  # [Transform: move to [680.175, -36.491, -213.472] mm and rotate to [[-1, 0, 0], [0, 1, 0], [0, 0, -1]]]
  movej(p[0.680175,-0.036491,-0.249472,0,3.141593,0], a=0.523599, v=0.628319, r=0.005)  # [Transform: move to [680.175, -36.491, -249.472] mm and rotate to [[-1, 0, 0], [0, 1, 0], [0, 0, -1]]]
  movej(p[0.686532,-0.044209,-0.249472,0,3.141593,0], a=0.523599, v=0.628319, r=0.005)  # [Transform: move to [686.532, -44.209, -249.472] mm and rotate to [[-1, 0, 0], [0, 1, 0], [0, 0, -1]]]
  movej(p[0.692552,-0.052195,-0.249472,0,3.141593,0], a=0.523599, v=0.628319, r=0.005)  # [Transform: move to [692.552, -52.195, -249.472] mm and rotate to [[-1, 0, 0], [0, 1, 0], [0, 0, -1]]]
  movej(p[0.698167,-0.060469,-0.249472,0,3.141593,0], a=0.523599, v=0.628319, r=0.005)  # [Transform: move to [698.167, -60.469, -249.472] mm and rotate to [[-1, 0, 0], [0, 1, 0], [0, 0, -1]]]
  movej(p[0.703297,-0.069053,-0.249472,0,3.141593,0], a=0.523599, v=0.628319, r=0.005)  # [Transform: move to [703.297, -69.053, -249.472] mm and rotate to [[-1, 0, 0], [0, 1, 0], [0, 0, -1]]]
  movej(p[0.707835,-0.077964,-0.249472,0,3.141593,0], a=0.523599, v=0.628319, r=0.005)  # [Transform: move to [707.835, -77.964, -249.472] mm and rotate to [[-1, 0, 0], [0, 1, 0], [0, 0, -1]]]
  movej(p[0.711647,-0.087209,-0.249472,0,3.141593,0], a=0.523599, v=0.628319, r=0.005)  # [Transform: move to [711.647, -87.209, -249.472] mm and rotate to [[-1, 0, 0], [0, 1, 0], [0, 0, -1]]]
  movej(p[0.714573,-0.096772,-0.249472,0,3.141593,0], a=0.523599, v=0.628319, r=0.005)  # [Transform: move to [714.573, -96.772, -249.472] mm and rotate to [[-1, 0, 0], [0, 1, 0], [0, 0, -1]]]
  movej(p[0.716451,-0.106594,-0.249472,0,3.141593,0], a=0.523599, v=0.628319, r=0.005)  # [Transform: move to [716.451, -106.594, -249.472] mm and rotate to [[-1, 0, 0], [0, 1, 0], [0, 0, -1]]]
  movej(p[0.716451,-0.106594,-0.213472,0,3.141593,0], a=0.523599, v=0.628319, r=0.005)  # [Transform: move to [716.451, -106.594, -213.472] mm and rotate to [[-1, 0, 0], [0, 1, 0], [0, 0, -1]]]
  movej(p[0.625,-0.3,-0.214,0,3.141593,0], a=0.523599, v=0.628319, r=0.005)  # [Transform: move to [625, -300, -214] mm and rotate to [[-1, 0, 0], [0, 1, 0], [0, 0, -1]]]
  movej(p[0.625,-0.3,-0.25,0,3.141593,0], a=0.523599, v=0.628319, r=0.005)  # [Transform: move to [625, -300, -250] mm and rotate to [[-1, 0, 0], [0, 1, 0], [0, 0, -1]]]
  movej(p[0.625,-0.3,-0.214,0,3.141593,0], a=0.523599, v=0.628319, r=0.005)  # [Transform: move to [625, -300, -214] mm and rotate to [[-1, 0, 0], [0, 1, 0], [0, 0, -1]]]
  movej(p[0.823824,0.17365,-0.213453,0,3.141593,0], a=0.523599, v=0.628319, r=0.005)  # [Transform: move to [823.824, 173.65, -213.453] mm and rotate to [[-1, 0, 0], [0, 1, 0], [0, 0, -1]]]
  movej(p[0.823824,0.17365,-0.249453,0,3.141593,0], a=0.523599, v=0.628319, r=0.005)  # [Transform: move to [823.824, 173.65, -249.453] mm and rotate to [[-1, 0, 0], [0, 1, 0], [0, 0, -1]]]
  movej(p[0.827594,0.164388,-0.249453,0,3.141593,0], a=0.523599, v=0.628319, r=0.005)  # [Transform: move to [827.594, 164.388, -249.453] mm and rotate to [[-1, 0, 0], [0, 1, 0], [0, 0, -1]]]
  movej(p[0.830002,0.154682,-0.249453,0,3.141593,0], a=0.523599, v=0.628319, r=0.005)  # [Transform: move to [830.002, 154.682, -249.453] mm and rotate to [[-1, 0, 0], [0, 1, 0], [0, 0, -1]]]
  movej(p[0.830959,0.144728,-0.249453,0,3.141593,0], a=0.523599, v=0.628319, r=0.005)  # [Transform: move to [830.959, 144.728, -249.453] mm and rotate to [[-1, 0, 0], [0, 1, 0], [0, 0, -1]]]
  movej(p[0.830525,0.134737,-0.249453,0,3.141593,0], a=0.523599, v=0.628319, r=0.005)  # [Transform: move to [830.525, 134.737, -249.453] mm and rotate to [[-1, 0, 0], [0, 1, 0], [0, 0, -1]]]
  movej(p[0.828885,0.124873,-0.249453,0,3.141593,0], a=0.523599, v=0.628319, r=0.005)  # [Transform: move to [828.885, 124.873, -249.453] mm and rotate to [[-1, 0, 0], [0, 1, 0], [0, 0, -1]]]
  movej(p[0.826291,0.115215,-0.249453,0,3.141593,0], a=0.523599, v=0.628319, r=0.005)  # [Transform: move to [826.291, 115.215, -249.453] mm and rotate to [[-1, 0, 0], [0, 1, 0], [0, 0, -1]]]
  movej(p[0.823009,0.105769,-0.249453,0,3.141593,0], a=0.523599, v=0.628319, r=0.005)  # [Transform: move to [823.009, 105.769, -249.453] mm and rotate to [[-1, 0, 0], [0, 1, 0], [0, 0, -1]]]
  movej(p[0.819293,0.096485,-0.249453,0,3.141593,0], a=0.523599, v=0.628319, r=0.005)  # [Transform: move to [819.293, 96.485, -249.453] mm and rotate to [[-1, 0, 0], [0, 1, 0], [0, 0, -1]]]
  movej(p[0.815377,0.087284,-0.249453,0,3.141593,0], a=0.523599, v=0.628319, r=0.005)  # [Transform: move to [815.377, 87.284, -249.453] mm and rotate to [[-1, 0, 0], [0, 1, 0], [0, 0, -1]]]
  movej(p[0.811495,0.078068,-0.249453,0,3.141593,0], a=0.523599, v=0.628319, r=0.005)  # [Transform: move to [811.495, 78.068, -249.453] mm and rotate to [[-1, 0, 0], [0, 1, 0], [0, 0, -1]]]
  movej(p[0.807893,0.068739,-0.249453,0,3.141593,0], a=0.523599, v=0.628319, r=0.005)  # [Transform: move to [807.893, 68.739, -249.453] mm and rotate to [[-1, 0, 0], [0, 1, 0], [0, 0, -1]]]
  movej(p[0.804847,0.059215,-0.249453,0,3.141593,0], a=0.523599, v=0.628319, r=0.005)  # [Transform: move to [804.847, 59.215, -249.453] mm and rotate to [[-1, 0, 0], [0, 1, 0], [0, 0, -1]]]
  movej(p[0.80266,0.049457,-0.249453,0,3.141593,0], a=0.523599, v=0.628319, r=0.005)  # [Transform: move to [802.66, 49.457, -249.453] mm and rotate to [[-1, 0, 0], [0, 1, 0], [0, 0, -1]]]
  movej(p[0.801645,0.039508,-0.249453,0,3.141593,0], a=0.523599, v=0.628319, r=0.005)  # [Transform: move to [801.645, 39.508, -249.453] mm and rotate to [[-1, 0, 0], [0, 1, 0], [0, 0, -1]]]
  movej(p[0.802073,0.029517,-0.249453,0,3.141593,0], a=0.523599, v=0.628319, r=0.005)  # [Transform: move to [802.073, 29.517, -249.453] mm and rotate to [[-1, 0, 0], [0, 1, 0], [0, 0, -1]]]
  movej(p[0.804123,0.01973,-0.249453,0,3.141593,0], a=0.523599, v=0.628319, r=0.005)  # [Transform: move to [804.123, 19.73, -249.453] mm and rotate to [[-1, 0, 0], [0, 1, 0], [0, 0, -1]]]
  movej(p[0.807845,0.010448,-0.249453,0,3.141593,0], a=0.523599, v=0.628319, r=0.005)  # [Transform: move to [807.845, 10.448, -249.453] mm and rotate to [[-1, 0, 0], [0, 1, 0], [0, 0, -1]]]
  movej(p[0.81314,0.001965,-0.249453,0,3.141593,0], a=0.523599, v=0.628319, r=0.005)  # [Transform: move to [813.14, 1.965, -249.453] mm and rotate to [[-1, 0, 0], [0, 1, 0], [0, 0, -1]]]
