## ###\   ###\ #####\  ######\##\  ##\##\###\   ##\ #####\ 
## ####\ ####\##\\\##\##\\\\\\##\  ##\##\####\  ##\##\\\##\
## ##\####\##\#######\##\     #######\##\##\##\ ##\#######\
## ##\\##\\##\##\\\##\##\     ##\\\##\##\##\\##\##\##\\\##\
## ##\ \\\ ##\##\  ##\\######\##\  ##\##\##\ \####\##\  ##\
## \\\     \\\\\\  \\\ \\\\\\\\\\  \\\\\\\\\  \\\\\\\\  \\\
## 
## Program name: wandering_noise
## Created: 02/03/2021 19:49:38
## 
## DISCLAIMER: WORKING WITH ROBOTS CAN BE DANGEROUS!
## When using robots in a real-time interactive environment, please make sure:
##     - You have been adequately trained to use that particular machine,
##     - you are in good physical and mental condition,
##     - you are operating the robot under the utmost security measures,
##     - you are following the facility's and facility staff's security protocols,
##     - and the robot has the appropriate guarding in place, including, but not reduced to:
##         e -stops, physical barriers, light curtains, etc.
## The Machina software framework and its generated code is provided as is;
## use at your own risk. This product is not intended for any use that may
## involve potential risks of death (including lifesaving equipment),
## personal injury, or severe property or environmental damage.
## Machina is in a very early stage of development. You are using this software
## at your own risk, no warranties are provided herewith, and unexpected
## results / bugs may arise during its use. Always test and simulate your
## applications thoroughly before running them on a real device.
## The author/s shall not be liable for any injuries, damages or losses
## consequence of using this software in any way whatsoever.
## 
## 
## Copyright(c) 2021 Jose Luis Garcia del Castillo y Lopez
## https://github.com/RobotExMachina
## 
## MIT License
## 
## Permission is hereby granted, free of charge, to any person obtaining a copy
## of this software and associated documentation files(the "Software"), to deal
## in the Software without restriction, including without limitation the rights
## to use, copy, modify, merge, publish, distribute, sublicense, and / or sell
## copies of the Software, and to permit persons to whom the Software is
## furnished to do so, subject to the following conditions:
## 
## The above copyright notice and this permission notice shall be included in all
## copies or substantial portions of the Software.
## 
## THE SOFTWARE IS PROVIDED "AS IS", WITHOUT WARRANTY OF ANY KIND, EXPRESS OR
## IMPLIED, INCLUDING BUT NOT LIMITED TO THE WARRANTIES OF MERCHANTABILITY,
## FITNESS FOR A PARTICULAR PURPOSE AND NONINFRINGEMENT. IN NO EVENT SHALL THE
## AUTHORS OR COPYRIGHT HOLDERS BE LIABLE FOR ANY CLAIM, DAMAGES OR OTHER
## LIABILITY, WHETHER IN AN ACTION OF CONTRACT, TORT OR OTHERWISE, ARISING FROM,
## OUT OF OR IN CONNECTION WITH THE SOFTWARE OR THE USE OR OTHER DEALINGS IN THE
## SOFTWARE.


def wandering_noise():

  # [Set motion type to 'Joint']
  # [Set motion speed to 36 mm/s or deg/s]
  movej(p[0.694116,-0.073461,-0.216,0,3.141593,0], a=0.523599, v=0.628319, r=0.005)  # [Transform: move to [694.116, -73.461, -216] mm and rotate to [[-1, 0, 0], [0, 1, 0], [0, 0, -1]]]
  movej(p[0.694116,-0.073461,-0.252,0,3.141593,0], a=0.523599, v=0.628319, r=0.005)  # [Transform: move to [694.116, -73.461, -252] mm and rotate to [[-1, 0, 0], [0, 1, 0], [0, 0, -1]]]
  movej(p[0.70607,-0.095418,-0.252,0,3.141593,0], a=0.523599, v=0.628319, r=0.005)  # [Transform: move to [706.07, -95.418, -252] mm and rotate to [[-1, 0, 0], [0, 1, 0], [0, 0, -1]]]
  movej(p[0.70607,-0.095418,-0.216,0,3.141593,0], a=0.523599, v=0.628319, r=0.005)  # [Transform: move to [706.07, -95.418, -216] mm and rotate to [[-1, 0, 0], [0, 1, 0], [0, 0, -1]]]
  movej(p[0.625,-0.3,-0.216,0,3.141593,0], a=0.523599, v=0.628319, r=0.005)  # [Transform: move to [625, -300, -216] mm and rotate to [[-1, 0, 0], [0, 1, 0], [0, 0, -1]]]
  movej(p[0.625,-0.3,-0.252,0,3.141593,0], a=0.523599, v=0.628319, r=0.005)  # [Transform: move to [625, -300, -252] mm and rotate to [[-1, 0, 0], [0, 1, 0], [0, 0, -1]]]
  movej(p[0.625,-0.3,-0.216,0,3.141593,0], a=0.523599, v=0.628319, r=0.005)  # [Transform: move to [625, -300, -216] mm and rotate to [[-1, 0, 0], [0, 1, 0], [0, 0, -1]]]
  movej(p[0.681922,-0.044598,-0.215994,0,3.141593,0], a=0.523599, v=0.628319, r=0.005)  # [Transform: move to [681.922, -44.598, -215.994] mm and rotate to [[-1, 0, 0], [0, 1, 0], [0, 0, -1]]]
  movej(p[0.681922,-0.044598,-0.251994,0,3.141593,0], a=0.523599, v=0.628319, r=0.005)  # [Transform: move to [681.922, -44.598, -251.994] mm and rotate to [[-1, 0, 0], [0, 1, 0], [0, 0, -1]]]
  movej(p[0.695779,-0.065406,-0.251994,0,3.141593,0], a=0.523599, v=0.628319, r=0.005)  # [Transform: move to [695.779, -65.406, -251.994] mm and rotate to [[-1, 0, 0], [0, 1, 0], [0, 0, -1]]]
  movej(p[0.707669,-0.087398,-0.251994,0,3.141593,0], a=0.523599, v=0.628319, r=0.005)  # [Transform: move to [707.669, -87.398, -251.994] mm and rotate to [[-1, 0, 0], [0, 1, 0], [0, 0, -1]]]
  movej(p[0.707669,-0.087398,-0.215994,0,3.141593,0], a=0.523599, v=0.628319, r=0.005)  # [Transform: move to [707.669, -87.398, -215.994] mm and rotate to [[-1, 0, 0], [0, 1, 0], [0, 0, -1]]]
  movej(p[0.625,-0.3,-0.216,0,3.141593,0], a=0.523599, v=0.628319, r=0.005)  # [Transform: move to [625, -300, -216] mm and rotate to [[-1, 0, 0], [0, 1, 0], [0, 0, -1]]]
  movej(p[0.625,-0.3,-0.252,0,3.141593,0], a=0.523599, v=0.628319, r=0.005)  # [Transform: move to [625, -300, -252] mm and rotate to [[-1, 0, 0], [0, 1, 0], [0, 0, -1]]]
  movej(p[0.625,-0.3,-0.216,0,3.141593,0], a=0.523599, v=0.628319, r=0.005)  # [Transform: move to [625, -300, -216] mm and rotate to [[-1, 0, 0], [0, 1, 0], [0, 0, -1]]]
  movej(p[0.67822,-0.027591,-0.215989,0,3.141593,0], a=0.523599, v=0.628319, r=0.005)  # [Transform: move to [678.22, -27.591, -215.989] mm and rotate to [[-1, 0, 0], [0, 1, 0], [0, 0, -1]]]
  movej(p[0.67822,-0.027591,-0.251989,0,3.141593,0], a=0.523599, v=0.628319, r=0.005)  # [Transform: move to [678.22, -27.591, -251.989] mm and rotate to [[-1, 0, 0], [0, 1, 0], [0, 0, -1]]]
  movej(p[0.689592,-0.049855,-0.251989,0,3.141593,0], a=0.523599, v=0.628319, r=0.005)  # [Transform: move to [689.592, -49.855, -251.989] mm and rotate to [[-1, 0, 0], [0, 1, 0], [0, 0, -1]]]
  movej(p[0.702032,-0.07154,-0.251989,0,3.141593,0], a=0.523599, v=0.628319, r=0.005)  # [Transform: move to [702.032, -71.54, -251.989] mm and rotate to [[-1, 0, 0], [0, 1, 0], [0, 0, -1]]]
  movej(p[0.712515,-0.094236,-0.251989,0,3.141593,0], a=0.523599, v=0.628319, r=0.005)  # [Transform: move to [712.515, -94.236, -251.989] mm and rotate to [[-1, 0, 0], [0, 1, 0], [0, 0, -1]]]
  movej(p[0.712515,-0.094236,-0.215989,0,3.141593,0], a=0.523599, v=0.628319, r=0.005)  # [Transform: move to [712.515, -94.236, -215.989] mm and rotate to [[-1, 0, 0], [0, 1, 0], [0, 0, -1]]]
  movej(p[0.625,-0.3,-0.216,0,3.141593,0], a=0.523599, v=0.628319, r=0.005)  # [Transform: move to [625, -300, -216] mm and rotate to [[-1, 0, 0], [0, 1, 0], [0, 0, -1]]]
  movej(p[0.625,-0.3,-0.252,0,3.141593,0], a=0.523599, v=0.628319, r=0.005)  # [Transform: move to [625, -300, -252] mm and rotate to [[-1, 0, 0], [0, 1, 0], [0, 0, -1]]]
  movej(p[0.625,-0.3,-0.216,0,3.141593,0], a=0.523599, v=0.628319, r=0.005)  # [Transform: move to [625, -300, -216] mm and rotate to [[-1, 0, 0], [0, 1, 0], [0, 0, -1]]]
  movej(p[0.676985,-0.022201,-0.215983,0,3.141593,0], a=0.523599, v=0.628319, r=0.005)  # [Transform: move to [676.985, -22.201, -215.983] mm and rotate to [[-1, 0, 0], [0, 1, 0], [0, 0, -1]]]
  movej(p[0.676985,-0.022201,-0.251983,0,3.141593,0], a=0.523599, v=0.628319, r=0.005)  # [Transform: move to [676.985, -22.201, -251.983] mm and rotate to [[-1, 0, 0], [0, 1, 0], [0, 0, -1]]]
  movej(p[0.687265,-0.044989,-0.251983,0,3.141593,0], a=0.523599, v=0.628319, r=0.005)  # [Transform: move to [687.265, -44.989, -251.983] mm and rotate to [[-1, 0, 0], [0, 1, 0], [0, 0, -1]]]
  movej(p[0.699638,-0.066713,-0.251983,0,3.141593,0], a=0.523599, v=0.628319, r=0.005)  # [Transform: move to [699.638, -66.713, -251.983] mm and rotate to [[-1, 0, 0], [0, 1, 0], [0, 0, -1]]]
  movej(p[0.71073,-0.089118,-0.251983,0,3.141593,0], a=0.523599, v=0.628319, r=0.005)  # [Transform: move to [710.73, -89.118, -251.983] mm and rotate to [[-1, 0, 0], [0, 1, 0], [0, 0, -1]]]
  movej(p[0.71073,-0.089118,-0.215983,0,3.141593,0], a=0.523599, v=0.628319, r=0.005)  # [Transform: move to [710.73, -89.118, -215.983] mm and rotate to [[-1, 0, 0], [0, 1, 0], [0, 0, -1]]]
  movej(p[0.625,-0.3,-0.216,0,3.141593,0], a=0.523599, v=0.628319, r=0.005)  # [Transform: move to [625, -300, -216] mm and rotate to [[-1, 0, 0], [0, 1, 0], [0, 0, -1]]]
  movej(p[0.625,-0.3,-0.252,0,3.141593,0], a=0.523599, v=0.628319, r=0.005)  # [Transform: move to [625, -300, -252] mm and rotate to [[-1, 0, 0], [0, 1, 0], [0, 0, -1]]]
  movej(p[0.625,-0.3,-0.216,0,3.141593,0], a=0.523599, v=0.628319, r=0.005)  # [Transform: move to [625, -300, -216] mm and rotate to [[-1, 0, 0], [0, 1, 0], [0, 0, -1]]]
  movej(p[0.682563,-0.039524,-0.215977,0,3.141593,0], a=0.523599, v=0.628319, r=0.005)  # [Transform: move to [682.563, -39.524, -215.977] mm and rotate to [[-1, 0, 0], [0, 1, 0], [0, 0, -1]]]
  movej(p[0.682563,-0.039524,-0.251977,0,3.141593,0], a=0.523599, v=0.628319, r=0.005)  # [Transform: move to [682.563, -39.524, -251.977] mm and rotate to [[-1, 0, 0], [0, 1, 0], [0, 0, -1]]]
  movej(p[0.695328,-0.06102,-0.251977,0,3.141593,0], a=0.523599, v=0.628319, r=0.005)  # [Transform: move to [695.328, -61.02, -251.977] mm and rotate to [[-1, 0, 0], [0, 1, 0], [0, 0, -1]]]
  movej(p[0.707282,-0.082977,-0.251977,0,3.141593,0], a=0.523599, v=0.628319, r=0.005)  # [Transform: move to [707.282, -82.977, -251.977] mm and rotate to [[-1, 0, 0], [0, 1, 0], [0, 0, -1]]]
  movej(p[0.715668,-0.106528,-0.251977,0,3.141593,0], a=0.523599, v=0.628319, r=0.005)  # [Transform: move to [715.668, -106.528, -251.977] mm and rotate to [[-1, 0, 0], [0, 1, 0], [0, 0, -1]]]
  movej(p[0.715668,-0.106528,-0.215977,0,3.141593,0], a=0.523599, v=0.628319, r=0.005)  # [Transform: move to [715.668, -106.528, -215.977] mm and rotate to [[-1, 0, 0], [0, 1, 0], [0, 0, -1]]]
  movej(p[0.625,-0.3,-0.216,0,3.141593,0], a=0.523599, v=0.628319, r=0.005)  # [Transform: move to [625, -300, -216] mm and rotate to [[-1, 0, 0], [0, 1, 0], [0, 0, -1]]]
  movej(p[0.625,-0.3,-0.252,0,3.141593,0], a=0.523599, v=0.628319, r=0.005)  # [Transform: move to [625, -300, -252] mm and rotate to [[-1, 0, 0], [0, 1, 0], [0, 0, -1]]]
  movej(p[0.625,-0.3,-0.216,0,3.141593,0], a=0.523599, v=0.628319, r=0.005)  # [Transform: move to [625, -300, -216] mm and rotate to [[-1, 0, 0], [0, 1, 0], [0, 0, -1]]]
  movej(p[0.679671,-0.039812,-0.215971,0,3.141593,0], a=0.523599, v=0.628319, r=0.005)  # [Transform: move to [679.671, -39.812, -215.971] mm and rotate to [[-1, 0, 0], [0, 1, 0], [0, 0, -1]]]
  movej(p[0.679671,-0.039812,-0.251971,0,3.141593,0], a=0.523599, v=0.628319, r=0.005)  # [Transform: move to [679.671, -39.812, -251.971] mm and rotate to [[-1, 0, 0], [0, 1, 0], [0, 0, -1]]]
  movej(p[0.693374,-0.060721,-0.251971,0,3.141593,0], a=0.523599, v=0.628319, r=0.005)  # [Transform: move to [693.374, -60.721, -251.971] mm and rotate to [[-1, 0, 0], [0, 1, 0], [0, 0, -1]]]
  movej(p[0.70577,-0.082432,-0.251971,0,3.141593,0], a=0.523599, v=0.628319, r=0.005)  # [Transform: move to [705.77, -82.432, -251.971] mm and rotate to [[-1, 0, 0], [0, 1, 0], [0, 0, -1]]]
  movej(p[0.714435,-0.105883,-0.251971,0,3.141593,0], a=0.523599, v=0.628319, r=0.005)  # [Transform: move to [714.435, -105.883, -251.971] mm and rotate to [[-1, 0, 0], [0, 1, 0], [0, 0, -1]]]
  movej(p[0.714435,-0.105883,-0.215971,0,3.141593,0], a=0.523599, v=0.628319, r=0.005)  # [Transform: move to [714.435, -105.883, -215.971] mm and rotate to [[-1, 0, 0], [0, 1, 0], [0, 0, -1]]]
  movej(p[0.625,-0.3,-0.216,0,3.141593,0], a=0.523599, v=0.628319, r=0.005)  # [Transform: move to [625, -300, -216] mm and rotate to [[-1, 0, 0], [0, 1, 0], [0, 0, -1]]]
  movej(p[0.625,-0.3,-0.252,0,3.141593,0], a=0.523599, v=0.628319, r=0.005)  # [Transform: move to [625, -300, -252] mm and rotate to [[-1, 0, 0], [0, 1, 0], [0, 0, -1]]]
  movej(p[0.625,-0.3,-0.216,0,3.141593,0], a=0.523599, v=0.628319, r=0.005)  # [Transform: move to [625, -300, -216] mm and rotate to [[-1, 0, 0], [0, 1, 0], [0, 0, -1]]]
  movej(p[0.68704,-0.054513,-0.215966,0,3.141593,0], a=0.523599, v=0.628319, r=0.005)  # [Transform: move to [687.04, -54.513, -215.966] mm and rotate to [[-1, 0, 0], [0, 1, 0], [0, 0, -1]]]
  movej(p[0.68704,-0.054513,-0.251966,0,3.141593,0], a=0.523599, v=0.628319, r=0.005)  # [Transform: move to [687.04, -54.513, -251.966] mm and rotate to [[-1, 0, 0], [0, 1, 0], [0, 0, -1]]]
  movej(p[0.700674,-0.075467,-0.251966,0,3.141593,0], a=0.523599, v=0.628319, r=0.005)  # [Transform: move to [700.674, -75.467, -251.966] mm and rotate to [[-1, 0, 0], [0, 1, 0], [0, 0, -1]]]
  movej(p[0.700674,-0.075467,-0.215966,0,3.141593,0], a=0.523599, v=0.628319, r=0.005)  # [Transform: move to [700.674, -75.467, -215.966] mm and rotate to [[-1, 0, 0], [0, 1, 0], [0, 0, -1]]]
  movej(p[0.625,-0.3,-0.216,0,3.141593,0], a=0.523599, v=0.628319, r=0.005)  # [Transform: move to [625, -300, -216] mm and rotate to [[-1, 0, 0], [0, 1, 0], [0, 0, -1]]]
  movej(p[0.625,-0.3,-0.252,0,3.141593,0], a=0.523599, v=0.628319, r=0.005)  # [Transform: move to [625, -300, -252] mm and rotate to [[-1, 0, 0], [0, 1, 0], [0, 0, -1]]]
  movej(p[0.625,-0.3,-0.216,0,3.141593,0], a=0.523599, v=0.628319, r=0.005)  # [Transform: move to [625, -300, -216] mm and rotate to [[-1, 0, 0], [0, 1, 0], [0, 0, -1]]]
  movej(p[0.686875,-0.056911,-0.21596,0,3.141593,0], a=0.523599, v=0.628319, r=0.005)  # [Transform: move to [686.875, -56.911, -215.96] mm and rotate to [[-1, 0, 0], [0, 1, 0], [0, 0, -1]]]
  movej(p[0.686875,-0.056911,-0.25196,0,3.141593,0], a=0.523599, v=0.628319, r=0.005)  # [Transform: move to [686.875, -56.911, -251.96] mm and rotate to [[-1, 0, 0], [0, 1, 0], [0, 0, -1]]]
  movej(p[0.700745,-0.077711,-0.25196,0,3.141593,0], a=0.523599, v=0.628319, r=0.005)  # [Transform: move to [700.745, -77.711, -251.96] mm and rotate to [[-1, 0, 0], [0, 1, 0], [0, 0, -1]]]
  movej(p[0.700745,-0.077711,-0.21596,0,3.141593,0], a=0.523599, v=0.628319, r=0.005)  # [Transform: move to [700.745, -77.711, -215.96] mm and rotate to [[-1, 0, 0], [0, 1, 0], [0, 0, -1]]]
  movej(p[0.625,-0.3,-0.216,0,3.141593,0], a=0.523599, v=0.628319, r=0.005)  # [Transform: move to [625, -300, -216] mm and rotate to [[-1, 0, 0], [0, 1, 0], [0, 0, -1]]]
  movej(p[0.625,-0.3,-0.252,0,3.141593,0], a=0.523599, v=0.628319, r=0.005)  # [Transform: move to [625, -300, -252] mm and rotate to [[-1, 0, 0], [0, 1, 0], [0, 0, -1]]]
  movej(p[0.625,-0.3,-0.216,0,3.141593,0], a=0.523599, v=0.628319, r=0.005)  # [Transform: move to [625, -300, -216] mm and rotate to [[-1, 0, 0], [0, 1, 0], [0, 0, -1]]]
  movej(p[0.687042,-0.058496,-0.215954,0,3.141593,0], a=0.523599, v=0.628319, r=0.005)  # [Transform: move to [687.042, -58.496, -215.954] mm and rotate to [[-1, 0, 0], [0, 1, 0], [0, 0, -1]]]
  movej(p[0.687042,-0.058496,-0.251954,0,3.141593,0], a=0.523599, v=0.628319, r=0.005)  # [Transform: move to [687.042, -58.496, -251.954] mm and rotate to [[-1, 0, 0], [0, 1, 0], [0, 0, -1]]]
  movej(p[0.700966,-0.07926,-0.251954,0,3.141593,0], a=0.523599, v=0.628319, r=0.005)  # [Transform: move to [700.966, -79.26, -251.954] mm and rotate to [[-1, 0, 0], [0, 1, 0], [0, 0, -1]]]
  movej(p[0.700966,-0.07926,-0.215954,0,3.141593,0], a=0.523599, v=0.628319, r=0.005)  # [Transform: move to [700.966, -79.26, -215.954] mm and rotate to [[-1, 0, 0], [0, 1, 0], [0, 0, -1]]]
  movej(p[0.625,-0.3,-0.216,0,3.141593,0], a=0.523599, v=0.628319, r=0.005)  # [Transform: move to [625, -300, -216] mm and rotate to [[-1, 0, 0], [0, 1, 0], [0, 0, -1]]]
  movej(p[0.625,-0.3,-0.252,0,3.141593,0], a=0.523599, v=0.628319, r=0.005)  # [Transform: move to [625, -300, -252] mm and rotate to [[-1, 0, 0], [0, 1, 0], [0, 0, -1]]]
  movej(p[0.625,-0.3,-0.216,0,3.141593,0], a=0.523599, v=0.628319, r=0.005)  # [Transform: move to [625, -300, -216] mm and rotate to [[-1, 0, 0], [0, 1, 0], [0, 0, -1]]]
  movej(p[0.689906,-0.062778,-0.215948,0,3.141593,0], a=0.523599, v=0.628319, r=0.005)  # [Transform: move to [689.906, -62.778, -215.948] mm and rotate to [[-1, 0, 0], [0, 1, 0], [0, 0, -1]]]
  movej(p[0.689906,-0.062778,-0.251948,0,3.141593,0], a=0.523599, v=0.628319, r=0.005)  # [Transform: move to [689.906, -62.778, -251.948] mm and rotate to [[-1, 0, 0], [0, 1, 0], [0, 0, -1]]]
  movej(p[0.703228,-0.083932,-0.251948,0,3.141593,0], a=0.523599, v=0.628319, r=0.005)  # [Transform: move to [703.228, -83.932, -251.948] mm and rotate to [[-1, 0, 0], [0, 1, 0], [0, 0, -1]]]
  movej(p[0.703228,-0.083932,-0.215948,0,3.141593,0], a=0.523599, v=0.628319, r=0.005)  # [Transform: move to [703.228, -83.932, -215.948] mm and rotate to [[-1, 0, 0], [0, 1, 0], [0, 0, -1]]]
  movej(p[0.625,-0.3,-0.216,0,3.141593,0], a=0.523599, v=0.628319, r=0.005)  # [Transform: move to [625, -300, -216] mm and rotate to [[-1, 0, 0], [0, 1, 0], [0, 0, -1]]]
  movej(p[0.625,-0.3,-0.252,0,3.141593,0], a=0.523599, v=0.628319, r=0.005)  # [Transform: move to [625, -300, -252] mm and rotate to [[-1, 0, 0], [0, 1, 0], [0, 0, -1]]]
  movej(p[0.625,-0.3,-0.216,0,3.141593,0], a=0.523599, v=0.628319, r=0.005)  # [Transform: move to [625, -300, -216] mm and rotate to [[-1, 0, 0], [0, 1, 0], [0, 0, -1]]]
  movej(p[0.691698,-0.065436,-0.215943,0,3.141593,0], a=0.523599, v=0.628319, r=0.005)  # [Transform: move to [691.698, -65.436, -215.943] mm and rotate to [[-1, 0, 0], [0, 1, 0], [0, 0, -1]]]
  movej(p[0.691698,-0.065436,-0.251943,0,3.141593,0], a=0.523599, v=0.628319, r=0.005)  # [Transform: move to [691.698, -65.436, -251.943] mm and rotate to [[-1, 0, 0], [0, 1, 0], [0, 0, -1]]]
  movej(p[0.704552,-0.086879,-0.251943,0,3.141593,0], a=0.523599, v=0.628319, r=0.005)  # [Transform: move to [704.552, -86.879, -251.943] mm and rotate to [[-1, 0, 0], [0, 1, 0], [0, 0, -1]]]
  movej(p[0.704552,-0.086879,-0.215943,0,3.141593,0], a=0.523599, v=0.628319, r=0.005)  # [Transform: move to [704.552, -86.879, -215.943] mm and rotate to [[-1, 0, 0], [0, 1, 0], [0, 0, -1]]]
  movej(p[0.625,-0.3,-0.216,0,3.141593,0], a=0.523599, v=0.628319, r=0.005)  # [Transform: move to [625, -300, -216] mm and rotate to [[-1, 0, 0], [0, 1, 0], [0, 0, -1]]]
  movej(p[0.625,-0.3,-0.252,0,3.141593,0], a=0.523599, v=0.628319, r=0.005)  # [Transform: move to [625, -300, -252] mm and rotate to [[-1, 0, 0], [0, 1, 0], [0, 0, -1]]]
  movej(p[0.625,-0.3,-0.216,0,3.141593,0], a=0.523599, v=0.628319, r=0.005)  # [Transform: move to [625, -300, -216] mm and rotate to [[-1, 0, 0], [0, 1, 0], [0, 0, -1]]]
  movej(p[0.68657,-0.058764,-0.215937,0,3.141593,0], a=0.523599, v=0.628319, r=0.005)  # [Transform: move to [686.57, -58.764, -215.937] mm and rotate to [[-1, 0, 0], [0, 1, 0], [0, 0, -1]]]
  movej(p[0.68657,-0.058764,-0.251937,0,3.141593,0], a=0.523599, v=0.628319, r=0.005)  # [Transform: move to [686.57, -58.764, -251.937] mm and rotate to [[-1, 0, 0], [0, 1, 0], [0, 0, -1]]]
  movej(p[0.700639,-0.07943,-0.251937,0,3.141593,0], a=0.523599, v=0.628319, r=0.005)  # [Transform: move to [700.639, -79.43, -251.937] mm and rotate to [[-1, 0, 0], [0, 1, 0], [0, 0, -1]]]
  movej(p[0.700639,-0.07943,-0.215937,0,3.141593,0], a=0.523599, v=0.628319, r=0.005)  # [Transform: move to [700.639, -79.43, -215.937] mm and rotate to [[-1, 0, 0], [0, 1, 0], [0, 0, -1]]]
  movej(p[0.625,-0.3,-0.216,0,3.141593,0], a=0.523599, v=0.628319, r=0.005)  # [Transform: move to [625, -300, -216] mm and rotate to [[-1, 0, 0], [0, 1, 0], [0, 0, -1]]]
  movej(p[0.625,-0.3,-0.252,0,3.141593,0], a=0.523599, v=0.628319, r=0.005)  # [Transform: move to [625, -300, -252] mm and rotate to [[-1, 0, 0], [0, 1, 0], [0, 0, -1]]]
  movej(p[0.625,-0.3,-0.216,0,3.141593,0], a=0.523599, v=0.628319, r=0.005)  # [Transform: move to [625, -300, -216] mm and rotate to [[-1, 0, 0], [0, 1, 0], [0, 0, -1]]]
  movej(p[0.68962,-0.062753,-0.215931,0,3.141593,0], a=0.523599, v=0.628319, r=0.005)  # [Transform: move to [689.62, -62.753, -215.931] mm and rotate to [[-1, 0, 0], [0, 1, 0], [0, 0, -1]]]
  movej(p[0.68962,-0.062753,-0.251931,0,3.141593,0], a=0.523599, v=0.628319, r=0.005)  # [Transform: move to [689.62, -62.753, -251.931] mm and rotate to [[-1, 0, 0], [0, 1, 0], [0, 0, -1]]]
  movej(p[0.703018,-0.08386,-0.251931,0,3.141593,0], a=0.523599, v=0.628319, r=0.005)  # [Transform: move to [703.018, -83.86, -251.931] mm and rotate to [[-1, 0, 0], [0, 1, 0], [0, 0, -1]]]
  movej(p[0.703018,-0.08386,-0.215931,0,3.141593,0], a=0.523599, v=0.628319, r=0.005)  # [Transform: move to [703.018, -83.86, -215.931] mm and rotate to [[-1, 0, 0], [0, 1, 0], [0, 0, -1]]]
  movej(p[0.625,-0.3,-0.216,0,3.141593,0], a=0.523599, v=0.628319, r=0.005)  # [Transform: move to [625, -300, -216] mm and rotate to [[-1, 0, 0], [0, 1, 0], [0, 0, -1]]]
  movej(p[0.625,-0.3,-0.252,0,3.141593,0], a=0.523599, v=0.628319, r=0.005)  # [Transform: move to [625, -300, -252] mm and rotate to [[-1, 0, 0], [0, 1, 0], [0, 0, -1]]]
  movej(p[0.625,-0.3,-0.216,0,3.141593,0], a=0.523599, v=0.628319, r=0.005)  # [Transform: move to [625, -300, -216] mm and rotate to [[-1, 0, 0], [0, 1, 0], [0, 0, -1]]]
  movej(p[0.690435,-0.063854,-0.215925,0,3.141593,0], a=0.523599, v=0.628319, r=0.005)  # [Transform: move to [690.435, -63.854, -215.925] mm and rotate to [[-1, 0, 0], [0, 1, 0], [0, 0, -1]]]
  movej(p[0.690435,-0.063854,-0.251925,0,3.141593,0], a=0.523599, v=0.628319, r=0.005)  # [Transform: move to [690.435, -63.854, -251.925] mm and rotate to [[-1, 0, 0], [0, 1, 0], [0, 0, -1]]]
  movej(p[0.703638,-0.085083,-0.251925,0,3.141593,0], a=0.523599, v=0.628319, r=0.005)  # [Transform: move to [703.638, -85.083, -251.925] mm and rotate to [[-1, 0, 0], [0, 1, 0], [0, 0, -1]]]
  movej(p[0.703638,-0.085083,-0.215925,0,3.141593,0], a=0.523599, v=0.628319, r=0.005)  # [Transform: move to [703.638, -85.083, -215.925] mm and rotate to [[-1, 0, 0], [0, 1, 0], [0, 0, -1]]]
  movej(p[0.625,-0.3,-0.216,0,3.141593,0], a=0.523599, v=0.628319, r=0.005)  # [Transform: move to [625, -300, -216] mm and rotate to [[-1, 0, 0], [0, 1, 0], [0, 0, -1]]]
  movej(p[0.625,-0.3,-0.252,0,3.141593,0], a=0.523599, v=0.628319, r=0.005)  # [Transform: move to [625, -300, -252] mm and rotate to [[-1, 0, 0], [0, 1, 0], [0, 0, -1]]]
  movej(p[0.625,-0.3,-0.216,0,3.141593,0], a=0.523599, v=0.628319, r=0.005)  # [Transform: move to [625, -300, -216] mm and rotate to [[-1, 0, 0], [0, 1, 0], [0, 0, -1]]]
  movej(p[0.700678,-0.082325,-0.21592,0,3.141593,0], a=0.523599, v=0.628319, r=0.005)  # [Transform: move to [700.678, -82.325, -215.92] mm and rotate to [[-1, 0, 0], [0, 1, 0], [0, 0, -1]]]
  movej(p[0.700678,-0.082325,-0.25192,0,3.141593,0], a=0.523599, v=0.628319, r=0.005)  # [Transform: move to [700.678, -82.325, -251.92] mm and rotate to [[-1, 0, 0], [0, 1, 0], [0, 0, -1]]]
  movej(p[0.700678,-0.082325,-0.21592,0,3.141593,0], a=0.523599, v=0.628319, r=0.005)  # [Transform: move to [700.678, -82.325, -215.92] mm and rotate to [[-1, 0, 0], [0, 1, 0], [0, 0, -1]]]
  movej(p[0.625,-0.3,-0.216,0,3.141593,0], a=0.523599, v=0.628319, r=0.005)  # [Transform: move to [625, -300, -216] mm and rotate to [[-1, 0, 0], [0, 1, 0], [0, 0, -1]]]
  movej(p[0.625,-0.3,-0.252,0,3.141593,0], a=0.523599, v=0.628319, r=0.005)  # [Transform: move to [625, -300, -252] mm and rotate to [[-1, 0, 0], [0, 1, 0], [0, 0, -1]]]
  movej(p[0.625,-0.3,-0.216,0,3.141593,0], a=0.523599, v=0.628319, r=0.005)  # [Transform: move to [625, -300, -216] mm and rotate to [[-1, 0, 0], [0, 1, 0], [0, 0, -1]]]
  movej(p[0.699243,-0.063956,-0.215914,0,3.141593,0], a=0.523599, v=0.628319, r=0.005)  # [Transform: move to [699.243, -63.956, -215.914] mm and rotate to [[-1, 0, 0], [0, 1, 0], [0, 0, -1]]]
  movej(p[0.699243,-0.063956,-0.251914,0,3.141593,0], a=0.523599, v=0.628319, r=0.005)  # [Transform: move to [699.243, -63.956, -251.914] mm and rotate to [[-1, 0, 0], [0, 1, 0], [0, 0, -1]]]
  movej(p[0.710437,-0.08631,-0.251914,0,3.141593,0], a=0.523599, v=0.628319, r=0.005)  # [Transform: move to [710.437, -86.31, -251.914] mm and rotate to [[-1, 0, 0], [0, 1, 0], [0, 0, -1]]]
  movej(p[0.710437,-0.08631,-0.215914,0,3.141593,0], a=0.523599, v=0.628319, r=0.005)  # [Transform: move to [710.437, -86.31, -215.914] mm and rotate to [[-1, 0, 0], [0, 1, 0], [0, 0, -1]]]
  movej(p[0.625,-0.3,-0.216,0,3.141593,0], a=0.523599, v=0.628319, r=0.005)  # [Transform: move to [625, -300, -216] mm and rotate to [[-1, 0, 0], [0, 1, 0], [0, 0, -1]]]
  movej(p[0.625,-0.3,-0.252,0,3.141593,0], a=0.523599, v=0.628319, r=0.005)  # [Transform: move to [625, -300, -252] mm and rotate to [[-1, 0, 0], [0, 1, 0], [0, 0, -1]]]
  movej(p[0.625,-0.3,-0.216,0,3.141593,0], a=0.523599, v=0.628319, r=0.005)  # [Transform: move to [625, -300, -216] mm and rotate to [[-1, 0, 0], [0, 1, 0], [0, 0, -1]]]
  movej(p[0.696339,-0.046267,-0.215908,0,3.141593,0], a=0.523599, v=0.628319, r=0.005)  # [Transform: move to [696.339, -46.267, -215.908] mm and rotate to [[-1, 0, 0], [0, 1, 0], [0, 0, -1]]]
  movej(p[0.696339,-0.046267,-0.251908,0,3.141593,0], a=0.523599, v=0.628319, r=0.005)  # [Transform: move to [696.339, -46.267, -251.908] mm and rotate to [[-1, 0, 0], [0, 1, 0], [0, 0, -1]]]
  movej(p[0.706606,-0.069062,-0.251908,0,3.141593,0], a=0.523599, v=0.628319, r=0.005)  # [Transform: move to [706.606, -69.062, -251.908] mm and rotate to [[-1, 0, 0], [0, 1, 0], [0, 0, -1]]]
  movej(p[0.716594,-0.09198,-0.251908,0,3.141593,0], a=0.523599, v=0.628319, r=0.005)  # [Transform: move to [716.594, -91.98, -251.908] mm and rotate to [[-1, 0, 0], [0, 1, 0], [0, 0, -1]]]
  movej(p[0.722539,-0.116263,-0.251908,0,3.141593,0], a=0.523599, v=0.628319, r=0.005)  # [Transform: move to [722.539, -116.263, -251.908] mm and rotate to [[-1, 0, 0], [0, 1, 0], [0, 0, -1]]]
  movej(p[0.722539,-0.116263,-0.215908,0,3.141593,0], a=0.523599, v=0.628319, r=0.005)  # [Transform: move to [722.539, -116.263, -215.908] mm and rotate to [[-1, 0, 0], [0, 1, 0], [0, 0, -1]]]
  movej(p[0.625,-0.3,-0.216,0,3.141593,0], a=0.523599, v=0.628319, r=0.005)  # [Transform: move to [625, -300, -216] mm and rotate to [[-1, 0, 0], [0, 1, 0], [0, 0, -1]]]
  movej(p[0.625,-0.3,-0.252,0,3.141593,0], a=0.523599, v=0.628319, r=0.005)  # [Transform: move to [625, -300, -252] mm and rotate to [[-1, 0, 0], [0, 1, 0], [0, 0, -1]]]
  movej(p[0.625,-0.3,-0.216,0,3.141593,0], a=0.523599, v=0.628319, r=0.005)  # [Transform: move to [625, -300, -216] mm and rotate to [[-1, 0, 0], [0, 1, 0], [0, 0, -1]]]
  movej(p[0.692521,-0.028181,-0.215902,0,3.141593,0], a=0.523599, v=0.628319, r=0.005)  # [Transform: move to [692.521, -28.181, -215.902] mm and rotate to [[-1, 0, 0], [0, 1, 0], [0, 0, -1]]]
  movej(p[0.692521,-0.028181,-0.251902,0,3.141593,0], a=0.523599, v=0.628319, r=0.005)  # [Transform: move to [692.521, -28.181, -251.902] mm and rotate to [[-1, 0, 0], [0, 1, 0], [0, 0, -1]]]
  movej(p[0.699622,-0.052151,-0.251902,0,3.141593,0], a=0.523599, v=0.628319, r=0.005)  # [Transform: move to [699.622, -52.151, -251.902] mm and rotate to [[-1, 0, 0], [0, 1, 0], [0, 0, -1]]]
  movej(p[0.710029,-0.074882,-0.251902,0,3.141593,0], a=0.523599, v=0.628319, r=0.005)  # [Transform: move to [710.029, -74.882, -251.902] mm and rotate to [[-1, 0, 0], [0, 1, 0], [0, 0, -1]]]
  movej(p[0.71927,-0.098112,-0.251902,0,3.141593,0], a=0.523599, v=0.628319, r=0.005)  # [Transform: move to [719.27, -98.112, -251.902] mm and rotate to [[-1, 0, 0], [0, 1, 0], [0, 0, -1]]]
  movej(p[0.71927,-0.098112,-0.215902,0,3.141593,0], a=0.523599, v=0.628319, r=0.005)  # [Transform: move to [719.27, -98.112, -215.902] mm and rotate to [[-1, 0, 0], [0, 1, 0], [0, 0, -1]]]
  movej(p[0.625,-0.3,-0.216,0,3.141593,0], a=0.523599, v=0.628319, r=0.005)  # [Transform: move to [625, -300, -216] mm and rotate to [[-1, 0, 0], [0, 1, 0], [0, 0, -1]]]
  movej(p[0.625,-0.3,-0.252,0,3.141593,0], a=0.523599, v=0.628319, r=0.005)  # [Transform: move to [625, -300, -252] mm and rotate to [[-1, 0, 0], [0, 1, 0], [0, 0, -1]]]
  movej(p[0.625,-0.3,-0.216,0,3.141593,0], a=0.523599, v=0.628319, r=0.005)  # [Transform: move to [625, -300, -216] mm and rotate to [[-1, 0, 0], [0, 1, 0], [0, 0, -1]]]
  movej(p[0.688676,-0.009063,-0.215897,0,3.141593,0], a=0.523599, v=0.628319, r=0.005)  # [Transform: move to [688.676, -9.063, -215.897] mm and rotate to [[-1, 0, 0], [0, 1, 0], [0, 0, -1]]]
  movej(p[0.688676,-0.009063,-0.251897,0,3.141593,0], a=0.523599, v=0.628319, r=0.005)  # [Transform: move to [688.676, -9.063, -251.897] mm and rotate to [[-1, 0, 0], [0, 1, 0], [0, 0, -1]]]
  movej(p[0.690533,-0.033994,-0.251897,0,3.141593,0], a=0.523599, v=0.628319, r=0.005)  # [Transform: move to [690.533, -33.994, -251.897] mm and rotate to [[-1, 0, 0], [0, 1, 0], [0, 0, -1]]]
  movej(p[0.699746,-0.057235,-0.251897,0,3.141593,0], a=0.523599, v=0.628319, r=0.005)  # [Transform: move to [699.746, -57.235, -251.897] mm and rotate to [[-1, 0, 0], [0, 1, 0], [0, 0, -1]]]
  movej(p[0.710596,-0.079757,-0.251897,0,3.141593,0], a=0.523599, v=0.628319, r=0.005)  # [Transform: move to [710.596, -79.757, -251.897] mm and rotate to [[-1, 0, 0], [0, 1, 0], [0, 0, -1]]]
  movej(p[0.719173,-0.10324,-0.251897,0,3.141593,0], a=0.523599, v=0.628319, r=0.005)  # [Transform: move to [719.173, -103.24, -251.897] mm and rotate to [[-1, 0, 0], [0, 1, 0], [0, 0, -1]]]
  movej(p[0.719173,-0.10324,-0.215897,0,3.141593,0], a=0.523599, v=0.628319, r=0.005)  # [Transform: move to [719.173, -103.24, -215.897] mm and rotate to [[-1, 0, 0], [0, 1, 0], [0, 0, -1]]]
  movej(p[0.625,-0.3,-0.216,0,3.141593,0], a=0.523599, v=0.628319, r=0.005)  # [Transform: move to [625, -300, -216] mm and rotate to [[-1, 0, 0], [0, 1, 0], [0, 0, -1]]]
  movej(p[0.625,-0.3,-0.252,0,3.141593,0], a=0.523599, v=0.628319, r=0.005)  # [Transform: move to [625, -300, -252] mm and rotate to [[-1, 0, 0], [0, 1, 0], [0, 0, -1]]]
  movej(p[0.625,-0.3,-0.216,0,3.141593,0], a=0.523599, v=0.628319, r=0.005)  # [Transform: move to [625, -300, -216] mm and rotate to [[-1, 0, 0], [0, 1, 0], [0, 0, -1]]]
  movej(p[0.685276,0.011176,-0.215891,0,3.141593,0], a=0.523599, v=0.628319, r=0.005)  # [Transform: move to [685.276, 11.176, -215.891] mm and rotate to [[-1, 0, 0], [0, 1, 0], [0, 0, -1]]]
  movej(p[0.685276,0.011176,-0.251891,0,3.141593,0], a=0.523599, v=0.628319, r=0.005)  # [Transform: move to [685.276, 11.176, -251.891] mm and rotate to [[-1, 0, 0], [0, 1, 0], [0, 0, -1]]]
  movej(p[0.680485,-0.013361,-0.251891,0,3.141593,0], a=0.523599, v=0.628319, r=0.005)  # [Transform: move to [680.485, -13.361, -251.891] mm and rotate to [[-1, 0, 0], [0, 1, 0], [0, 0, -1]]]
  movej(p[0.686731,-0.037568,-0.251891,0,3.141593,0], a=0.523599, v=0.628319, r=0.005)  # [Transform: move to [686.731, -37.568, -251.891] mm and rotate to [[-1, 0, 0], [0, 1, 0], [0, 0, -1]]]
  movej(p[0.697855,-0.059956,-0.251891,0,3.141593,0], a=0.523599, v=0.628319, r=0.005)  # [Transform: move to [697.855, -59.956, -251.891] mm and rotate to [[-1, 0, 0], [0, 1, 0], [0, 0, -1]]]
  movej(p[0.709223,-0.082222,-0.251891,0,3.141593,0], a=0.523599, v=0.628319, r=0.005)  # [Transform: move to [709.223, -82.222, -251.891] mm and rotate to [[-1, 0, 0], [0, 1, 0], [0, 0, -1]]]
  movej(p[0.717525,-0.105804,-0.251891,0,3.141593,0], a=0.523599, v=0.628319, r=0.005)  # [Transform: move to [717.525, -105.804, -251.891] mm and rotate to [[-1, 0, 0], [0, 1, 0], [0, 0, -1]]]
  movej(p[0.717525,-0.105804,-0.215891,0,3.141593,0], a=0.523599, v=0.628319, r=0.005)  # [Transform: move to [717.525, -105.804, -215.891] mm and rotate to [[-1, 0, 0], [0, 1, 0], [0, 0, -1]]]
  movej(p[0.625,-0.3,-0.216,0,3.141593,0], a=0.523599, v=0.628319, r=0.005)  # [Transform: move to [625, -300, -216] mm and rotate to [[-1, 0, 0], [0, 1, 0], [0, 0, -1]]]
  movej(p[0.625,-0.3,-0.252,0,3.141593,0], a=0.523599, v=0.628319, r=0.005)  # [Transform: move to [625, -300, -252] mm and rotate to [[-1, 0, 0], [0, 1, 0], [0, 0, -1]]]
  movej(p[0.625,-0.3,-0.216,0,3.141593,0], a=0.523599, v=0.628319, r=0.005)  # [Transform: move to [625, -300, -216] mm and rotate to [[-1, 0, 0], [0, 1, 0], [0, 0, -1]]]
  movej(p[0.682528,0.032742,-0.215885,0,3.141593,0], a=0.523599, v=0.628319, r=0.005)  # [Transform: move to [682.528, 32.742, -215.885] mm and rotate to [[-1, 0, 0], [0, 1, 0], [0, 0, -1]]]
  movej(p[0.682528,0.032742,-0.251885,0,3.141593,0], a=0.523599, v=0.628319, r=0.005)  # [Transform: move to [682.528, 32.742, -251.885] mm and rotate to [[-1, 0, 0], [0, 1, 0], [0, 0, -1]]]
  movej(p[0.675425,0.008772,-0.251885,0,3.141593,0], a=0.523599, v=0.628319, r=0.005)  # [Transform: move to [675.425, 8.772, -251.885] mm and rotate to [[-1, 0, 0], [0, 1, 0], [0, 0, -1]]]
  movej(p[0.674637,-0.016216,-0.251885,0,3.141593,0], a=0.523599, v=0.628319, r=0.005)  # [Transform: move to [674.637, -16.216, -251.885] mm and rotate to [[-1, 0, 0], [0, 1, 0], [0, 0, -1]]]
  movej(p[0.682346,-0.039998,-0.251885,0,3.141593,0], a=0.523599, v=0.628319, r=0.005)  # [Transform: move to [682.346, -39.998, -251.885] mm and rotate to [[-1, 0, 0], [0, 1, 0], [0, 0, -1]]]
  movej(p[0.695331,-0.061361,-0.251885,0,3.141593,0], a=0.523599, v=0.628319, r=0.005)  # [Transform: move to [695.331, -61.361, -251.885] mm and rotate to [[-1, 0, 0], [0, 1, 0], [0, 0, -1]]]
  movej(p[0.707299,-0.08331,-0.251885,0,3.141593,0], a=0.523599, v=0.628319, r=0.005)  # [Transform: move to [707.299, -83.31, -251.885] mm and rotate to [[-1, 0, 0], [0, 1, 0], [0, 0, -1]]]
  movej(p[0.707299,-0.08331,-0.215885,0,3.141593,0], a=0.523599, v=0.628319, r=0.005)  # [Transform: move to [707.299, -83.31, -215.885] mm and rotate to [[-1, 0, 0], [0, 1, 0], [0, 0, -1]]]
  movej(p[0.625,-0.3,-0.216,0,3.141593,0], a=0.523599, v=0.628319, r=0.005)  # [Transform: move to [625, -300, -216] mm and rotate to [[-1, 0, 0], [0, 1, 0], [0, 0, -1]]]
  movej(p[0.625,-0.3,-0.252,0,3.141593,0], a=0.523599, v=0.628319, r=0.005)  # [Transform: move to [625, -300, -252] mm and rotate to [[-1, 0, 0], [0, 1, 0], [0, 0, -1]]]
  movej(p[0.625,-0.3,-0.216,0,3.141593,0], a=0.523599, v=0.628319, r=0.005)  # [Transform: move to [625, -300, -216] mm and rotate to [[-1, 0, 0], [0, 1, 0], [0, 0, -1]]]
  movej(p[0.688532,-0.055813,-0.215879,0,3.141593,0], a=0.523599, v=0.628319, r=0.005)  # [Transform: move to [688.532, -55.813, -215.879] mm and rotate to [[-1, 0, 0], [0, 1, 0], [0, 0, -1]]]
  movej(p[0.688532,-0.055813,-0.251879,0,3.141593,0], a=0.523599, v=0.628319, r=0.005)  # [Transform: move to [688.532, -55.813, -251.879] mm and rotate to [[-1, 0, 0], [0, 1, 0], [0, 0, -1]]]
  movej(p[0.701869,-0.076958,-0.251879,0,3.141593,0], a=0.523599, v=0.628319, r=0.005)  # [Transform: move to [701.869, -76.958, -251.879] mm and rotate to [[-1, 0, 0], [0, 1, 0], [0, 0, -1]]]
  movej(p[0.701869,-0.076958,-0.215879,0,3.141593,0], a=0.523599, v=0.628319, r=0.005)  # [Transform: move to [701.869, -76.958, -215.879] mm and rotate to [[-1, 0, 0], [0, 1, 0], [0, 0, -1]]]
  movej(p[0.625,-0.3,-0.216,0,3.141593,0], a=0.523599, v=0.628319, r=0.005)  # [Transform: move to [625, -300, -216] mm and rotate to [[-1, 0, 0], [0, 1, 0], [0, 0, -1]]]
  movej(p[0.625,-0.3,-0.252,0,3.141593,0], a=0.523599, v=0.628319, r=0.005)  # [Transform: move to [625, -300, -252] mm and rotate to [[-1, 0, 0], [0, 1, 0], [0, 0, -1]]]
  movej(p[0.625,-0.3,-0.216,0,3.141593,0], a=0.523599, v=0.628319, r=0.005)  # [Transform: move to [625, -300, -216] mm and rotate to [[-1, 0, 0], [0, 1, 0], [0, 0, -1]]]
  movej(p[0.688143,-0.058668,-0.215874,0,3.141593,0], a=0.523599, v=0.628319, r=0.005)  # [Transform: move to [688.143, -58.668, -215.874] mm and rotate to [[-1, 0, 0], [0, 1, 0], [0, 0, -1]]]
  movej(p[0.688143,-0.058668,-0.251874,0,3.141593,0], a=0.523599, v=0.628319, r=0.005)  # [Transform: move to [688.143, -58.668, -251.874] mm and rotate to [[-1, 0, 0], [0, 1, 0], [0, 0, -1]]]
  movej(p[0.701776,-0.079624,-0.251874,0,3.141593,0], a=0.523599, v=0.628319, r=0.005)  # [Transform: move to [701.776, -79.624, -251.874] mm and rotate to [[-1, 0, 0], [0, 1, 0], [0, 0, -1]]]
  movej(p[0.701776,-0.079624,-0.215874,0,3.141593,0], a=0.523599, v=0.628319, r=0.005)  # [Transform: move to [701.776, -79.624, -215.874] mm and rotate to [[-1, 0, 0], [0, 1, 0], [0, 0, -1]]]
  movej(p[0.625,-0.3,-0.216,0,3.141593,0], a=0.523599, v=0.628319, r=0.005)  # [Transform: move to [625, -300, -216] mm and rotate to [[-1, 0, 0], [0, 1, 0], [0, 0, -1]]]
  movej(p[0.625,-0.3,-0.252,0,3.141593,0], a=0.523599, v=0.628319, r=0.005)  # [Transform: move to [625, -300, -252] mm and rotate to [[-1, 0, 0], [0, 1, 0], [0, 0, -1]]]
  movej(p[0.625,-0.3,-0.216,0,3.141593,0], a=0.523599, v=0.628319, r=0.005)  # [Transform: move to [625, -300, -216] mm and rotate to [[-1, 0, 0], [0, 1, 0], [0, 0, -1]]]
  movej(p[0.686232,-0.057546,-0.215868,0,3.141593,0], a=0.523599, v=0.628319, r=0.005)  # [Transform: move to [686.232, -57.546, -215.868] mm and rotate to [[-1, 0, 0], [0, 1, 0], [0, 0, -1]]]
  movej(p[0.686232,-0.057546,-0.251868,0,3.141593,0], a=0.523599, v=0.628319, r=0.005)  # [Transform: move to [686.232, -57.546, -251.868] mm and rotate to [[-1, 0, 0], [0, 1, 0], [0, 0, -1]]]
  movej(p[0.700322,-0.078197,-0.251868,0,3.141593,0], a=0.523599, v=0.628319, r=0.005)  # [Transform: move to [700.322, -78.197, -251.868] mm and rotate to [[-1, 0, 0], [0, 1, 0], [0, 0, -1]]]
  movej(p[0.700322,-0.078197,-0.215868,0,3.141593,0], a=0.523599, v=0.628319, r=0.005)  # [Transform: move to [700.322, -78.197, -215.868] mm and rotate to [[-1, 0, 0], [0, 1, 0], [0, 0, -1]]]
  movej(p[0.625,-0.3,-0.216,0,3.141593,0], a=0.523599, v=0.628319, r=0.005)  # [Transform: move to [625, -300, -216] mm and rotate to [[-1, 0, 0], [0, 1, 0], [0, 0, -1]]]
  movej(p[0.625,-0.3,-0.252,0,3.141593,0], a=0.523599, v=0.628319, r=0.005)  # [Transform: move to [625, -300, -252] mm and rotate to [[-1, 0, 0], [0, 1, 0], [0, 0, -1]]]
  movej(p[0.625,-0.3,-0.216,0,3.141593,0], a=0.523599, v=0.628319, r=0.005)  # [Transform: move to [625, -300, -216] mm and rotate to [[-1, 0, 0], [0, 1, 0], [0, 0, -1]]]
  movej(p[0.692756,-0.066707,-0.215862,0,3.141593,0], a=0.523599, v=0.628319, r=0.005)  # [Transform: move to [692.756, -66.707, -215.862] mm and rotate to [[-1, 0, 0], [0, 1, 0], [0, 0, -1]]]
  movej(p[0.692756,-0.066707,-0.251862,0,3.141593,0], a=0.523599, v=0.628319, r=0.005)  # [Transform: move to [692.756, -66.707, -251.862] mm and rotate to [[-1, 0, 0], [0, 1, 0], [0, 0, -1]]]
  movej(p[0.705334,-0.088313,-0.251862,0,3.141593,0], a=0.523599, v=0.628319, r=0.005)  # [Transform: move to [705.334, -88.313, -251.862] mm and rotate to [[-1, 0, 0], [0, 1, 0], [0, 0, -1]]]
  movej(p[0.705334,-0.088313,-0.215862,0,3.141593,0], a=0.523599, v=0.628319, r=0.005)  # [Transform: move to [705.334, -88.313, -215.862] mm and rotate to [[-1, 0, 0], [0, 1, 0], [0, 0, -1]]]
  movej(p[0.625,-0.3,-0.216,0,3.141593,0], a=0.523599, v=0.628319, r=0.005)  # [Transform: move to [625, -300, -216] mm and rotate to [[-1, 0, 0], [0, 1, 0], [0, 0, -1]]]
  movej(p[0.625,-0.3,-0.252,0,3.141593,0], a=0.523599, v=0.628319, r=0.005)  # [Transform: move to [625, -300, -252] mm and rotate to [[-1, 0, 0], [0, 1, 0], [0, 0, -1]]]
  movej(p[0.625,-0.3,-0.216,0,3.141593,0], a=0.523599, v=0.628319, r=0.005)  # [Transform: move to [625, -300, -216] mm and rotate to [[-1, 0, 0], [0, 1, 0], [0, 0, -1]]]
  movej(p[0.688668,-0.061286,-0.215856,0,3.141593,0], a=0.523599, v=0.628319, r=0.005)  # [Transform: move to [688.668, -61.286, -215.856] mm and rotate to [[-1, 0, 0], [0, 1, 0], [0, 0, -1]]]
  movej(p[0.688668,-0.061286,-0.251856,0,3.141593,0], a=0.523599, v=0.628319, r=0.005)  # [Transform: move to [688.668, -61.286, -251.856] mm and rotate to [[-1, 0, 0], [0, 1, 0], [0, 0, -1]]]
  movej(p[0.702278,-0.082257,-0.251856,0,3.141593,0], a=0.523599, v=0.628319, r=0.005)  # [Transform: move to [702.278, -82.257, -251.856] mm and rotate to [[-1, 0, 0], [0, 1, 0], [0, 0, -1]]]
  movej(p[0.702278,-0.082257,-0.215856,0,3.141593,0], a=0.523599, v=0.628319, r=0.005)  # [Transform: move to [702.278, -82.257, -215.856] mm and rotate to [[-1, 0, 0], [0, 1, 0], [0, 0, -1]]]
  movej(p[0.625,-0.3,-0.216,0,3.141593,0], a=0.523599, v=0.628319, r=0.005)  # [Transform: move to [625, -300, -216] mm and rotate to [[-1, 0, 0], [0, 1, 0], [0, 0, -1]]]
  movej(p[0.625,-0.3,-0.252,0,3.141593,0], a=0.523599, v=0.628319, r=0.005)  # [Transform: move to [625, -300, -252] mm and rotate to [[-1, 0, 0], [0, 1, 0], [0, 0, -1]]]
  movej(p[0.625,-0.3,-0.216,0,3.141593,0], a=0.523599, v=0.628319, r=0.005)  # [Transform: move to [625, -300, -216] mm and rotate to [[-1, 0, 0], [0, 1, 0], [0, 0, -1]]]
  movej(p[0.685217,-0.056994,-0.215851,0,3.141593,0], a=0.523599, v=0.628319, r=0.005)  # [Transform: move to [685.217, -56.994, -215.851] mm and rotate to [[-1, 0, 0], [0, 1, 0], [0, 0, -1]]]
  movej(p[0.685217,-0.056994,-0.251851,0,3.141593,0], a=0.523599, v=0.628319, r=0.005)  # [Transform: move to [685.217, -56.994, -251.851] mm and rotate to [[-1, 0, 0], [0, 1, 0], [0, 0, -1]]]
  movej(p[0.699554,-0.077474,-0.251851,0,3.141593,0], a=0.523599, v=0.628319, r=0.005)  # [Transform: move to [699.554, -77.474, -251.851] mm and rotate to [[-1, 0, 0], [0, 1, 0], [0, 0, -1]]]
  movej(p[0.699554,-0.077474,-0.215851,0,3.141593,0], a=0.523599, v=0.628319, r=0.005)  # [Transform: move to [699.554, -77.474, -215.851] mm and rotate to [[-1, 0, 0], [0, 1, 0], [0, 0, -1]]]
  movej(p[0.625,-0.3,-0.216,0,3.141593,0], a=0.523599, v=0.628319, r=0.005)  # [Transform: move to [625, -300, -216] mm and rotate to [[-1, 0, 0], [0, 1, 0], [0, 0, -1]]]
  movej(p[0.625,-0.3,-0.252,0,3.141593,0], a=0.523599, v=0.628319, r=0.005)  # [Transform: move to [625, -300, -252] mm and rotate to [[-1, 0, 0], [0, 1, 0], [0, 0, -1]]]
  movej(p[0.625,-0.3,-0.216,0,3.141593,0], a=0.523599, v=0.628319, r=0.005)  # [Transform: move to [625, -300, -216] mm and rotate to [[-1, 0, 0], [0, 1, 0], [0, 0, -1]]]
  movej(p[0.689031,-0.06188,-0.215845,0,3.141593,0], a=0.523599, v=0.628319, r=0.005)  # [Transform: move to [689.031, -61.88, -215.845] mm and rotate to [[-1, 0, 0], [0, 1, 0], [0, 0, -1]]]
  movej(p[0.689031,-0.06188,-0.251845,0,3.141593,0], a=0.523599, v=0.628319, r=0.005)  # [Transform: move to [689.031, -61.88, -251.845] mm and rotate to [[-1, 0, 0], [0, 1, 0], [0, 0, -1]]]
  movej(p[0.702562,-0.082902,-0.251845,0,3.141593,0], a=0.523599, v=0.628319, r=0.005)  # [Transform: move to [702.562, -82.902, -251.845] mm and rotate to [[-1, 0, 0], [0, 1, 0], [0, 0, -1]]]
  movej(p[0.702562,-0.082902,-0.215845,0,3.141593,0], a=0.523599, v=0.628319, r=0.005)  # [Transform: move to [702.562, -82.902, -215.845] mm and rotate to [[-1, 0, 0], [0, 1, 0], [0, 0, -1]]]
  movej(p[0.625,-0.3,-0.216,0,3.141593,0], a=0.523599, v=0.628319, r=0.005)  # [Transform: move to [625, -300, -216] mm and rotate to [[-1, 0, 0], [0, 1, 0], [0, 0, -1]]]
  movej(p[0.625,-0.3,-0.252,0,3.141593,0], a=0.523599, v=0.628319, r=0.005)  # [Transform: move to [625, -300, -252] mm and rotate to [[-1, 0, 0], [0, 1, 0], [0, 0, -1]]]
  movej(p[0.625,-0.3,-0.216,0,3.141593,0], a=0.523599, v=0.628319, r=0.005)  # [Transform: move to [625, -300, -216] mm and rotate to [[-1, 0, 0], [0, 1, 0], [0, 0, -1]]]
  movej(p[0.689772,-0.062869,-0.215839,0,3.141593,0], a=0.523599, v=0.628319, r=0.005)  # [Transform: move to [689.772, -62.869, -215.839] mm and rotate to [[-1, 0, 0], [0, 1, 0], [0, 0, -1]]]
  movej(p[0.689772,-0.062869,-0.251839,0,3.141593,0], a=0.523599, v=0.628319, r=0.005)  # [Transform: move to [689.772, -62.869, -251.839] mm and rotate to [[-1, 0, 0], [0, 1, 0], [0, 0, -1]]]
  movej(p[0.703132,-0.084,-0.251839,0,3.141593,0], a=0.523599, v=0.628319, r=0.005)  # [Transform: move to [703.132, -84, -251.839] mm and rotate to [[-1, 0, 0], [0, 1, 0], [0, 0, -1]]]
  movej(p[0.703132,-0.084,-0.215839,0,3.141593,0], a=0.523599, v=0.628319, r=0.005)  # [Transform: move to [703.132, -84, -215.839] mm and rotate to [[-1, 0, 0], [0, 1, 0], [0, 0, -1]]]
  movej(p[0.625,-0.3,-0.216,0,3.141593,0], a=0.523599, v=0.628319, r=0.005)  # [Transform: move to [625, -300, -216] mm and rotate to [[-1, 0, 0], [0, 1, 0], [0, 0, -1]]]
  movej(p[0.625,-0.3,-0.252,0,3.141593,0], a=0.523599, v=0.628319, r=0.005)  # [Transform: move to [625, -300, -252] mm and rotate to [[-1, 0, 0], [0, 1, 0], [0, 0, -1]]]
  movej(p[0.625,-0.3,-0.216,0,3.141593,0], a=0.523599, v=0.628319, r=0.005)  # [Transform: move to [625, -300, -216] mm and rotate to [[-1, 0, 0], [0, 1, 0], [0, 0, -1]]]
  movej(p[0.716367,-0.083245,-0.215833,0,3.141593,0], a=0.523599, v=0.628319, r=0.005)  # [Transform: move to [716.367, -83.245, -215.833] mm and rotate to [[-1, 0, 0], [0, 1, 0], [0, 0, -1]]]
  movej(p[0.716367,-0.083245,-0.251833,0,3.141593,0], a=0.523599, v=0.628319, r=0.005)  # [Transform: move to [716.367, -83.245, -251.833] mm and rotate to [[-1, 0, 0], [0, 1, 0], [0, 0, -1]]]
  movej(p[0.724158,-0.107,-0.251833,0,3.141593,0], a=0.523599, v=0.628319, r=0.005)  # [Transform: move to [724.158, -107, -251.833] mm and rotate to [[-1, 0, 0], [0, 1, 0], [0, 0, -1]]]
  movej(p[0.724158,-0.107,-0.215833,0,3.141593,0], a=0.523599, v=0.628319, r=0.005)  # [Transform: move to [724.158, -107, -215.833] mm and rotate to [[-1, 0, 0], [0, 1, 0], [0, 0, -1]]]
  movej(p[0.625,-0.3,-0.216,0,3.141593,0], a=0.523599, v=0.628319, r=0.005)  # [Transform: move to [625, -300, -216] mm and rotate to [[-1, 0, 0], [0, 1, 0], [0, 0, -1]]]
  movej(p[0.625,-0.3,-0.252,0,3.141593,0], a=0.523599, v=0.628319, r=0.005)  # [Transform: move to [625, -300, -252] mm and rotate to [[-1, 0, 0], [0, 1, 0], [0, 0, -1]]]
  movej(p[0.625,-0.3,-0.216,0,3.141593,0], a=0.523599, v=0.628319, r=0.005)  # [Transform: move to [625, -300, -216] mm and rotate to [[-1, 0, 0], [0, 1, 0], [0, 0, -1]]]
  movej(p[0.715055,-0.064726,-0.215828,0,3.141593,0], a=0.523599, v=0.628319, r=0.005)  # [Transform: move to [715.055, -64.726, -215.828] mm and rotate to [[-1, 0, 0], [0, 1, 0], [0, 0, -1]]]
  movej(p[0.715055,-0.064726,-0.251828,0,3.141593,0], a=0.523599, v=0.628319, r=0.005)  # [Transform: move to [715.055, -64.726, -251.828] mm and rotate to [[-1, 0, 0], [0, 1, 0], [0, 0, -1]]]
  movej(p[0.724593,-0.087835,-0.251828,0,3.141593,0], a=0.523599, v=0.628319, r=0.005)  # [Transform: move to [724.593, -87.835, -251.828] mm and rotate to [[-1, 0, 0], [0, 1, 0], [0, 0, -1]]]
  movej(p[0.731997,-0.111713,-0.251828,0,3.141593,0], a=0.523599, v=0.628319, r=0.005)  # [Transform: move to [731.997, -111.713, -251.828] mm and rotate to [[-1, 0, 0], [0, 1, 0], [0, 0, -1]]]
  movej(p[0.731997,-0.111713,-0.215828,0,3.141593,0], a=0.523599, v=0.628319, r=0.005)  # [Transform: move to [731.997, -111.713, -215.828] mm and rotate to [[-1, 0, 0], [0, 1, 0], [0, 0, -1]]]
  movej(p[0.625,-0.3,-0.216,0,3.141593,0], a=0.523599, v=0.628319, r=0.005)  # [Transform: move to [625, -300, -216] mm and rotate to [[-1, 0, 0], [0, 1, 0], [0, 0, -1]]]
  movej(p[0.625,-0.3,-0.252,0,3.141593,0], a=0.523599, v=0.628319, r=0.005)  # [Transform: move to [625, -300, -252] mm and rotate to [[-1, 0, 0], [0, 1, 0], [0, 0, -1]]]
  movej(p[0.625,-0.3,-0.216,0,3.141593,0], a=0.523599, v=0.628319, r=0.005)  # [Transform: move to [625, -300, -216] mm and rotate to [[-1, 0, 0], [0, 1, 0], [0, 0, -1]]]
  movej(p[0.712183,-0.046615,-0.215822,0,3.141593,0], a=0.523599, v=0.628319, r=0.005)  # [Transform: move to [712.183, -46.615, -215.822] mm and rotate to [[-1, 0, 0], [0, 1, 0], [0, 0, -1]]]
  movej(p[0.712183,-0.046615,-0.251822,0,3.141593,0], a=0.523599, v=0.628319, r=0.005)  # [Transform: move to [712.183, -46.615, -251.822] mm and rotate to [[-1, 0, 0], [0, 1, 0], [0, 0, -1]]]
  movej(p[0.720289,-0.070265,-0.251822,0,3.141593,0], a=0.523599, v=0.628319, r=0.005)  # [Transform: move to [720.289, -70.265, -251.822] mm and rotate to [[-1, 0, 0], [0, 1, 0], [0, 0, -1]]]
  movej(p[0.729824,-0.093375,-0.251822,0,3.141593,0], a=0.523599, v=0.628319, r=0.005)  # [Transform: move to [729.824, -93.375, -251.822] mm and rotate to [[-1, 0, 0], [0, 1, 0], [0, 0, -1]]]
  movej(p[0.73658,-0.117445,-0.251822,0,3.141593,0], a=0.523599, v=0.628319, r=0.005)  # [Transform: move to [736.58, -117.445, -251.822] mm and rotate to [[-1, 0, 0], [0, 1, 0], [0, 0, -1]]]
  movej(p[0.73658,-0.117445,-0.215822,0,3.141593,0], a=0.523599, v=0.628319, r=0.005)  # [Transform: move to [736.58, -117.445, -215.822] mm and rotate to [[-1, 0, 0], [0, 1, 0], [0, 0, -1]]]
  movej(p[0.625,-0.3,-0.216,0,3.141593,0], a=0.523599, v=0.628319, r=0.005)  # [Transform: move to [625, -300, -216] mm and rotate to [[-1, 0, 0], [0, 1, 0], [0, 0, -1]]]
  movej(p[0.625,-0.3,-0.252,0,3.141593,0], a=0.523599, v=0.628319, r=0.005)  # [Transform: move to [625, -300, -252] mm and rotate to [[-1, 0, 0], [0, 1, 0], [0, 0, -1]]]
  movej(p[0.625,-0.3,-0.216,0,3.141593,0], a=0.523599, v=0.628319, r=0.005)  # [Transform: move to [625, -300, -216] mm and rotate to [[-1, 0, 0], [0, 1, 0], [0, 0, -1]]]
  movej(p[0.708462,-0.02796,-0.215816,0,3.141593,0], a=0.523599, v=0.628319, r=0.005)  # [Transform: move to [708.462, -27.96, -215.816] mm and rotate to [[-1, 0, 0], [0, 1, 0], [0, 0, -1]]]
  movej(p[0.708462,-0.02796,-0.251816,0,3.141593,0], a=0.523599, v=0.628319, r=0.005)  # [Transform: move to [708.462, -27.96, -251.816] mm and rotate to [[-1, 0, 0], [0, 1, 0], [0, 0, -1]]]
  movej(p[0.712297,-0.052664,-0.251816,0,3.141593,0], a=0.523599, v=0.628319, r=0.005)  # [Transform: move to [712.297, -52.664, -251.816] mm and rotate to [[-1, 0, 0], [0, 1, 0], [0, 0, -1]]]
  movej(p[0.721257,-0.076003,-0.251816,0,3.141593,0], a=0.523599, v=0.628319, r=0.005)  # [Transform: move to [721.257, -76.003, -251.816] mm and rotate to [[-1, 0, 0], [0, 1, 0], [0, 0, -1]]]
  movej(p[0.73035,-0.099291,-0.251816,0,3.141593,0], a=0.523599, v=0.628319, r=0.005)  # [Transform: move to [730.35, -99.291, -251.816] mm and rotate to [[-1, 0, 0], [0, 1, 0], [0, 0, -1]]]
  movej(p[0.735524,-0.123749,-0.251816,0,3.141593,0], a=0.523599, v=0.628319, r=0.005)  # [Transform: move to [735.524, -123.749, -251.816] mm and rotate to [[-1, 0, 0], [0, 1, 0], [0, 0, -1]]]
  movej(p[0.735524,-0.123749,-0.215816,0,3.141593,0], a=0.523599, v=0.628319, r=0.005)  # [Transform: move to [735.524, -123.749, -215.816] mm and rotate to [[-1, 0, 0], [0, 1, 0], [0, 0, -1]]]
  movej(p[0.625,-0.3,-0.216,0,3.141593,0], a=0.523599, v=0.628319, r=0.005)  # [Transform: move to [625, -300, -216] mm and rotate to [[-1, 0, 0], [0, 1, 0], [0, 0, -1]]]
  movej(p[0.625,-0.3,-0.252,0,3.141593,0], a=0.523599, v=0.628319, r=0.005)  # [Transform: move to [625, -300, -252] mm and rotate to [[-1, 0, 0], [0, 1, 0], [0, 0, -1]]]
  movej(p[0.625,-0.3,-0.216,0,3.141593,0], a=0.523599, v=0.628319, r=0.005)  # [Transform: move to [625, -300, -216] mm and rotate to [[-1, 0, 0], [0, 1, 0], [0, 0, -1]]]
  movej(p[0.704865,-0.008278,-0.21581,0,3.141593,0], a=0.523599, v=0.628319, r=0.005)  # [Transform: move to [704.865, -8.278, -215.81] mm and rotate to [[-1, 0, 0], [0, 1, 0], [0, 0, -1]]]
  movej(p[0.704865,-0.008278,-0.25181,0,3.141593,0], a=0.523599, v=0.628319, r=0.005)  # [Transform: move to [704.865, -8.278, -251.81] mm and rotate to [[-1, 0, 0], [0, 1, 0], [0, 0, -1]]]
  movej(p[0.702082,-0.033122,-0.25181,0,3.141593,0], a=0.523599, v=0.628319, r=0.005)  # [Transform: move to [702.082, -33.122, -251.81] mm and rotate to [[-1, 0, 0], [0, 1, 0], [0, 0, -1]]]
  movej(p[0.708371,-0.057319,-0.25181,0,3.141593,0], a=0.523599, v=0.628319, r=0.005)  # [Transform: move to [708.371, -57.319, -251.81] mm and rotate to [[-1, 0, 0], [0, 1, 0], [0, 0, -1]]]
  movej(p[0.71801,-0.080386,-0.25181,0,3.141593,0], a=0.523599, v=0.628319, r=0.005)  # [Transform: move to [718.01, -80.386, -251.81] mm and rotate to [[-1, 0, 0], [0, 1, 0], [0, 0, -1]]]
  movej(p[0.72637,-0.103947,-0.25181,0,3.141593,0], a=0.523599, v=0.628319, r=0.005)  # [Transform: move to [726.37, -103.947, -251.81] mm and rotate to [[-1, 0, 0], [0, 1, 0], [0, 0, -1]]]
  movej(p[0.72637,-0.103947,-0.21581,0,3.141593,0], a=0.523599, v=0.628319, r=0.005)  # [Transform: move to [726.37, -103.947, -215.81] mm and rotate to [[-1, 0, 0], [0, 1, 0], [0, 0, -1]]]
  movej(p[0.625,-0.3,-0.216,0,3.141593,0], a=0.523599, v=0.628319, r=0.005)  # [Transform: move to [625, -300, -216] mm and rotate to [[-1, 0, 0], [0, 1, 0], [0, 0, -1]]]
  movej(p[0.625,-0.3,-0.252,0,3.141593,0], a=0.523599, v=0.628319, r=0.005)  # [Transform: move to [625, -300, -252] mm and rotate to [[-1, 0, 0], [0, 1, 0], [0, 0, -1]]]
  movej(p[0.625,-0.3,-0.216,0,3.141593,0], a=0.523599, v=0.628319, r=0.005)  # [Transform: move to [625, -300, -216] mm and rotate to [[-1, 0, 0], [0, 1, 0], [0, 0, -1]]]
  movej(p[0.701903,0.012414,-0.215805,0,3.141593,0], a=0.523599, v=0.628319, r=0.005)  # [Transform: move to [701.903, 12.414, -215.805] mm and rotate to [[-1, 0, 0], [0, 1, 0], [0, 0, -1]]]
  movej(p[0.701903,0.012414,-0.251805,0,3.141593,0], a=0.523599, v=0.628319, r=0.005)  # [Transform: move to [701.903, 12.414, -251.805] mm and rotate to [[-1, 0, 0], [0, 1, 0], [0, 0, -1]]]
  movej(p[0.691455,-0.010298,-0.251805,0,3.141593,0], a=0.523599, v=0.628319, r=0.005)  # [Transform: move to [691.455, -10.298, -251.805] mm and rotate to [[-1, 0, 0], [0, 1, 0], [0, 0, -1]]]
  movej(p[0.692875,-0.035258,-0.251805,0,3.141593,0], a=0.523599, v=0.628319, r=0.005)  # [Transform: move to [692.875, -35.258, -251.805] mm and rotate to [[-1, 0, 0], [0, 1, 0], [0, 0, -1]]]
  movej(p[0.701764,-0.058624,-0.251805,0,3.141593,0], a=0.523599, v=0.628319, r=0.005)  # [Transform: move to [701.764, -58.624, -251.805] mm and rotate to [[-1, 0, 0], [0, 1, 0], [0, 0, -1]]]
  movej(p[0.712347,-0.081274,-0.251805,0,3.141593,0], a=0.523599, v=0.628319, r=0.005)  # [Transform: move to [712.347, -81.274, -251.805] mm and rotate to [[-1, 0, 0], [0, 1, 0], [0, 0, -1]]]
  movej(p[0.720596,-0.104874,-0.251805,0,3.141593,0], a=0.523599, v=0.628319, r=0.005)  # [Transform: move to [720.596, -104.874, -251.805] mm and rotate to [[-1, 0, 0], [0, 1, 0], [0, 0, -1]]]
  movej(p[0.720596,-0.104874,-0.215805,0,3.141593,0], a=0.523599, v=0.628319, r=0.005)  # [Transform: move to [720.596, -104.874, -215.805] mm and rotate to [[-1, 0, 0], [0, 1, 0], [0, 0, -1]]]
  movej(p[0.625,-0.3,-0.216,0,3.141593,0], a=0.523599, v=0.628319, r=0.005)  # [Transform: move to [625, -300, -216] mm and rotate to [[-1, 0, 0], [0, 1, 0], [0, 0, -1]]]
  movej(p[0.625,-0.3,-0.252,0,3.141593,0], a=0.523599, v=0.628319, r=0.005)  # [Transform: move to [625, -300, -252] mm and rotate to [[-1, 0, 0], [0, 1, 0], [0, 0, -1]]]
  movej(p[0.625,-0.3,-0.216,0,3.141593,0], a=0.523599, v=0.628319, r=0.005)  # [Transform: move to [625, -300, -216] mm and rotate to [[-1, 0, 0], [0, 1, 0], [0, 0, -1]]]
  movej(p[0.699835,0.034129,-0.215799,0,3.141593,0], a=0.523599, v=0.628319, r=0.005)  # [Transform: move to [699.835, 34.129, -215.799] mm and rotate to [[-1, 0, 0], [0, 1, 0], [0, 0, -1]]]
  movej(p[0.699835,0.034129,-0.251799,0,3.141593,0], a=0.523599, v=0.628319, r=0.005)  # [Transform: move to [699.835, 34.129, -251.799] mm and rotate to [[-1, 0, 0], [0, 1, 0], [0, 0, -1]]]
  movej(p[0.6813,0.017353,-0.251799,0,3.141593,0], a=0.523599, v=0.628319, r=0.005)  # [Transform: move to [681.3, 17.353, -251.799] mm and rotate to [[-1, 0, 0], [0, 1, 0], [0, 0, -1]]]
  movej(p[0.675524,-0.00697,-0.251799,0,3.141593,0], a=0.523599, v=0.628319, r=0.005)  # [Transform: move to [675.524, -6.97, -251.799] mm and rotate to [[-1, 0, 0], [0, 1, 0], [0, 0, -1]]]
  movej(p[0.681349,-0.031282,-0.251799,0,3.141593,0], a=0.523599, v=0.628319, r=0.005)  # [Transform: move to [681.349, -31.282, -251.799] mm and rotate to [[-1, 0, 0], [0, 1, 0], [0, 0, -1]]]
  movej(p[0.69266,-0.053577,-0.251799,0,3.141593,0], a=0.523599, v=0.628319, r=0.005)  # [Transform: move to [692.66, -53.577, -251.799] mm and rotate to [[-1, 0, 0], [0, 1, 0], [0, 0, -1]]]
  movej(p[0.704731,-0.07547,-0.251799,0,3.141593,0], a=0.523599, v=0.628319, r=0.005)  # [Transform: move to [704.731, -75.47, -251.799] mm and rotate to [[-1, 0, 0], [0, 1, 0], [0, 0, -1]]]
  movej(p[0.714472,-0.098494,-0.251799,0,3.141593,0], a=0.523599, v=0.628319, r=0.005)  # [Transform: move to [714.472, -98.494, -251.799] mm and rotate to [[-1, 0, 0], [0, 1, 0], [0, 0, -1]]]
  movej(p[0.714472,-0.098494,-0.215799,0,3.141593,0], a=0.523599, v=0.628319, r=0.005)  # [Transform: move to [714.472, -98.494, -215.799] mm and rotate to [[-1, 0, 0], [0, 1, 0], [0, 0, -1]]]
  movej(p[0.625,-0.3,-0.216,0,3.141593,0], a=0.523599, v=0.628319, r=0.005)  # [Transform: move to [625, -300, -216] mm and rotate to [[-1, 0, 0], [0, 1, 0], [0, 0, -1]]]
  movej(p[0.625,-0.3,-0.252,0,3.141593,0], a=0.523599, v=0.628319, r=0.005)  # [Transform: move to [625, -300, -252] mm and rotate to [[-1, 0, 0], [0, 1, 0], [0, 0, -1]]]
  movej(p[0.625,-0.3,-0.216,0,3.141593,0], a=0.523599, v=0.628319, r=0.005)  # [Transform: move to [625, -300, -216] mm and rotate to [[-1, 0, 0], [0, 1, 0], [0, 0, -1]]]
  movej(p[0.69925,0.055844,-0.215793,0,3.141593,0], a=0.523599, v=0.628319, r=0.005)  # [Transform: move to [699.25, 55.844, -215.793] mm and rotate to [[-1, 0, 0], [0, 1, 0], [0, 0, -1]]]
  movej(p[0.69925,0.055844,-0.251793,0,3.141593,0], a=0.523599, v=0.628319, r=0.005)  # [Transform: move to [699.25, 55.844, -251.793] mm and rotate to [[-1, 0, 0], [0, 1, 0], [0, 0, -1]]]
  movej(p[0.67622,0.046115,-0.251793,0,3.141593,0], a=0.523599, v=0.628319, r=0.005)  # [Transform: move to [676.22, 46.115, -251.793] mm and rotate to [[-1, 0, 0], [0, 1, 0], [0, 0, -1]]]
  movej(p[0.668103,0.02247,-0.251793,0,3.141593,0], a=0.523599, v=0.628319, r=0.005)  # [Transform: move to [668.103, 22.47, -251.793] mm and rotate to [[-1, 0, 0], [0, 1, 0], [0, 0, -1]]]
  movej(p[0.669296,-0.002502,-0.251793,0,3.141593,0], a=0.523599, v=0.628319, r=0.005)  # [Transform: move to [669.296, -2.502, -251.793] mm and rotate to [[-1, 0, 0], [0, 1, 0], [0, 0, -1]]]
  movej(p[0.675236,-0.026786,-0.251793,0,3.141593,0], a=0.523599, v=0.628319, r=0.005)  # [Transform: move to [675.236, -26.786, -251.793] mm and rotate to [[-1, 0, 0], [0, 1, 0], [0, 0, -1]]]
  movej(p[0.685101,-0.049757,-0.251793,0,3.141593,0], a=0.523599, v=0.628319, r=0.005)  # [Transform: move to [685.101, -49.757, -251.793] mm and rotate to [[-1, 0, 0], [0, 1, 0], [0, 0, -1]]]
  movej(p[0.698608,-0.070794,-0.251793,0,3.141593,0], a=0.523599, v=0.628319, r=0.005)  # [Transform: move to [698.608, -70.794, -251.793] mm and rotate to [[-1, 0, 0], [0, 1, 0], [0, 0, -1]]]
  movej(p[0.709738,-0.09318,-0.251793,0,3.141593,0], a=0.523599, v=0.628319, r=0.005)  # [Transform: move to [709.738, -93.18, -251.793] mm and rotate to [[-1, 0, 0], [0, 1, 0], [0, 0, -1]]]
  movej(p[0.709738,-0.09318,-0.215793,0,3.141593,0], a=0.523599, v=0.628319, r=0.005)  # [Transform: move to [709.738, -93.18, -215.793] mm and rotate to [[-1, 0, 0], [0, 1, 0], [0, 0, -1]]]
  movej(p[0.625,-0.3,-0.216,0,3.141593,0], a=0.523599, v=0.628319, r=0.005)  # [Transform: move to [625, -300, -216] mm and rotate to [[-1, 0, 0], [0, 1, 0], [0, 0, -1]]]
  movej(p[0.625,-0.3,-0.252,0,3.141593,0], a=0.523599, v=0.628319, r=0.005)  # [Transform: move to [625, -300, -252] mm and rotate to [[-1, 0, 0], [0, 1, 0], [0, 0, -1]]]
  movej(p[0.625,-0.3,-0.216,0,3.141593,0], a=0.523599, v=0.628319, r=0.005)  # [Transform: move to [625, -300, -216] mm and rotate to [[-1, 0, 0], [0, 1, 0], [0, 0, -1]]]
  movej(p[0.699625,0.076039,-0.215787,0,3.141593,0], a=0.523599, v=0.628319, r=0.005)  # [Transform: move to [699.625, 76.039, -215.787] mm and rotate to [[-1, 0, 0], [0, 1, 0], [0, 0, -1]]]
  movej(p[0.699625,0.076039,-0.251787,0,3.141593,0], a=0.523599, v=0.628319, r=0.005)  # [Transform: move to [699.625, 76.039, -251.787] mm and rotate to [[-1, 0, 0], [0, 1, 0], [0, 0, -1]]]
  movej(p[0.687918,0.05395,-0.251787,0,3.141593,0], a=0.523599, v=0.628319, r=0.005)  # [Transform: move to [687.918, 53.95, -251.787] mm and rotate to [[-1, 0, 0], [0, 1, 0], [0, 0, -1]]]
  movej(p[0.679353,0.030463,-0.251787,0,3.141593,0], a=0.523599, v=0.628319, r=0.005)  # [Transform: move to [679.353, 30.463, -251.787] mm and rotate to [[-1, 0, 0], [0, 1, 0], [0, 0, -1]]]
  movej(p[0.674294,0.00598,-0.251787,0,3.141593,0], a=0.523599, v=0.628319, r=0.005)  # [Transform: move to [674.294, 5.98, -251.787] mm and rotate to [[-1, 0, 0], [0, 1, 0], [0, 0, -1]]]
  movej(p[0.67372,-0.019013,-0.251787,0,3.141593,0], a=0.523599, v=0.628319, r=0.005)  # [Transform: move to [673.72, -19.013, -251.787] mm and rotate to [[-1, 0, 0], [0, 1, 0], [0, 0, -1]]]
  movej(p[0.679298,-0.043383,-0.251787,0,3.141593,0], a=0.523599, v=0.628319, r=0.005)  # [Transform: move to [679.298, -43.383, -251.787] mm and rotate to [[-1, 0, 0], [0, 1, 0], [0, 0, -1]]]
  movej(p[0.692253,-0.064765,-0.251787,0,3.141593,0], a=0.523599, v=0.628319, r=0.005)  # [Transform: move to [692.253, -64.765, -251.787] mm and rotate to [[-1, 0, 0], [0, 1, 0], [0, 0, -1]]]
  movej(p[0.705028,-0.086254,-0.251787,0,3.141593,0], a=0.523599, v=0.628319, r=0.005)  # [Transform: move to [705.028, -86.254, -251.787] mm and rotate to [[-1, 0, 0], [0, 1, 0], [0, 0, -1]]]
  movej(p[0.705028,-0.086254,-0.215787,0,3.141593,0], a=0.523599, v=0.628319, r=0.005)  # [Transform: move to [705.028, -86.254, -215.787] mm and rotate to [[-1, 0, 0], [0, 1, 0], [0, 0, -1]]]
  movej(p[0.625,-0.3,-0.216,0,3.141593,0], a=0.523599, v=0.628319, r=0.005)  # [Transform: move to [625, -300, -216] mm and rotate to [[-1, 0, 0], [0, 1, 0], [0, 0, -1]]]
  movej(p[0.625,-0.3,-0.252,0,3.141593,0], a=0.523599, v=0.628319, r=0.005)  # [Transform: move to [625, -300, -252] mm and rotate to [[-1, 0, 0], [0, 1, 0], [0, 0, -1]]]
  movej(p[0.625,-0.3,-0.216,0,3.141593,0], a=0.523599, v=0.628319, r=0.005)  # [Transform: move to [625, -300, -216] mm and rotate to [[-1, 0, 0], [0, 1, 0], [0, 0, -1]]]
  movej(p[0.699945,0.093961,-0.215782,0,3.141593,0], a=0.523599, v=0.628319, r=0.005)  # [Transform: move to [699.945, 93.961, -215.782] mm and rotate to [[-1, 0, 0], [0, 1, 0], [0, 0, -1]]]
  movej(p[0.699945,0.093961,-0.251782,0,3.141593,0], a=0.523599, v=0.628319, r=0.005)  # [Transform: move to [699.945, 93.961, -251.782] mm and rotate to [[-1, 0, 0], [0, 1, 0], [0, 0, -1]]]
  movej(p[0.688156,0.071915,-0.251782,0,3.141593,0], a=0.523599, v=0.628319, r=0.005)  # [Transform: move to [688.156, 71.915, -251.782] mm and rotate to [[-1, 0, 0], [0, 1, 0], [0, 0, -1]]]
  movej(p[0.67913,0.048601,-0.251782,0,3.141593,0], a=0.523599, v=0.628319, r=0.005)  # [Transform: move to [679.13, 48.601, -251.782] mm and rotate to [[-1, 0, 0], [0, 1, 0], [0, 0, -1]]]
  movej(p[0.67306,0.024349,-0.251782,0,3.141593,0], a=0.523599, v=0.628319, r=0.005)  # [Transform: move to [673.06, 24.349, -251.782] mm and rotate to [[-1, 0, 0], [0, 1, 0], [0, 0, -1]]]
  movej(p[0.670543,-0.000524,-0.251782,0,3.141593,0], a=0.523599, v=0.628319, r=0.005)  # [Transform: move to [670.543, -0.524, -251.782] mm and rotate to [[-1, 0, 0], [0, 1, 0], [0, 0, -1]]]
  movej(p[0.672651,-0.025435,-0.251782,0,3.141593,0], a=0.523599, v=0.628319, r=0.005)  # [Transform: move to [672.651, -25.435, -251.782] mm and rotate to [[-1, 0, 0], [0, 1, 0], [0, 0, -1]]]
  movej(p[0.68085,-0.049052,-0.251782,0,3.141593,0], a=0.523599, v=0.628319, r=0.005)  # [Transform: move to [680.85, -49.052, -251.782] mm and rotate to [[-1, 0, 0], [0, 1, 0], [0, 0, -1]]]
  movej(p[0.695016,-0.069651,-0.251782,0,3.141593,0], a=0.523599, v=0.628319, r=0.005)  # [Transform: move to [695.016, -69.651, -251.782] mm and rotate to [[-1, 0, 0], [0, 1, 0], [0, 0, -1]]]
  movej(p[0.706949,-0.09162,-0.251782,0,3.141593,0], a=0.523599, v=0.628319, r=0.005)  # [Transform: move to [706.949, -91.62, -251.782] mm and rotate to [[-1, 0, 0], [0, 1, 0], [0, 0, -1]]]
  movej(p[0.706949,-0.09162,-0.215782,0,3.141593,0], a=0.523599, v=0.628319, r=0.005)  # [Transform: move to [706.949, -91.62, -215.782] mm and rotate to [[-1, 0, 0], [0, 1, 0], [0, 0, -1]]]
  movej(p[0.625,-0.3,-0.216,0,3.141593,0], a=0.523599, v=0.628319, r=0.005)  # [Transform: move to [625, -300, -216] mm and rotate to [[-1, 0, 0], [0, 1, 0], [0, 0, -1]]]
  movej(p[0.625,-0.3,-0.252,0,3.141593,0], a=0.523599, v=0.628319, r=0.005)  # [Transform: move to [625, -300, -252] mm and rotate to [[-1, 0, 0], [0, 1, 0], [0, 0, -1]]]
  movej(p[0.625,-0.3,-0.216,0,3.141593,0], a=0.523599, v=0.628319, r=0.005)  # [Transform: move to [625, -300, -216] mm and rotate to [[-1, 0, 0], [0, 1, 0], [0, 0, -1]]]
  movej(p[0.686925,-0.05884,-0.215776,0,3.141593,0], a=0.523599, v=0.628319, r=0.005)  # [Transform: move to [686.925, -58.84, -215.776] mm and rotate to [[-1, 0, 0], [0, 1, 0], [0, 0, -1]]]
  movej(p[0.686925,-0.05884,-0.251776,0,3.141593,0], a=0.523599, v=0.628319, r=0.005)  # [Transform: move to [686.925, -58.84, -251.776] mm and rotate to [[-1, 0, 0], [0, 1, 0], [0, 0, -1]]]
  movej(p[0.7009,-0.079569,-0.251776,0,3.141593,0], a=0.523599, v=0.628319, r=0.005)  # [Transform: move to [700.9, -79.569, -251.776] mm and rotate to [[-1, 0, 0], [0, 1, 0], [0, 0, -1]]]
  movej(p[0.7009,-0.079569,-0.215776,0,3.141593,0], a=0.523599, v=0.628319, r=0.005)  # [Transform: move to [700.9, -79.569, -215.776] mm and rotate to [[-1, 0, 0], [0, 1, 0], [0, 0, -1]]]
  movej(p[0.625,-0.3,-0.216,0,3.141593,0], a=0.523599, v=0.628319, r=0.005)  # [Transform: move to [625, -300, -216] mm and rotate to [[-1, 0, 0], [0, 1, 0], [0, 0, -1]]]
  movej(p[0.625,-0.3,-0.252,0,3.141593,0], a=0.523599, v=0.628319, r=0.005)  # [Transform: move to [625, -300, -252] mm and rotate to [[-1, 0, 0], [0, 1, 0], [0, 0, -1]]]
  movej(p[0.625,-0.3,-0.216,0,3.141593,0], a=0.523599, v=0.628319, r=0.005)  # [Transform: move to [625, -300, -216] mm and rotate to [[-1, 0, 0], [0, 1, 0], [0, 0, -1]]]
  movej(p[0.684919,-0.056475,-0.21577,0,3.141593,0], a=0.523599, v=0.628319, r=0.005)  # [Transform: move to [684.919, -56.475, -215.77] mm and rotate to [[-1, 0, 0], [0, 1, 0], [0, 0, -1]]]
  movej(p[0.684919,-0.056475,-0.25177,0,3.141593,0], a=0.523599, v=0.628319, r=0.005)  # [Transform: move to [684.919, -56.475, -251.77] mm and rotate to [[-1, 0, 0], [0, 1, 0], [0, 0, -1]]]
  movej(p[0.699304,-0.076922,-0.25177,0,3.141593,0], a=0.523599, v=0.628319, r=0.005)  # [Transform: move to [699.304, -76.922, -251.77] mm and rotate to [[-1, 0, 0], [0, 1, 0], [0, 0, -1]]]
  movej(p[0.699304,-0.076922,-0.21577,0,3.141593,0], a=0.523599, v=0.628319, r=0.005)  # [Transform: move to [699.304, -76.922, -215.77] mm and rotate to [[-1, 0, 0], [0, 1, 0], [0, 0, -1]]]
  movej(p[0.625,-0.3,-0.216,0,3.141593,0], a=0.523599, v=0.628319, r=0.005)  # [Transform: move to [625, -300, -216] mm and rotate to [[-1, 0, 0], [0, 1, 0], [0, 0, -1]]]
  movej(p[0.625,-0.3,-0.252,0,3.141593,0], a=0.523599, v=0.628319, r=0.005)  # [Transform: move to [625, -300, -252] mm and rotate to [[-1, 0, 0], [0, 1, 0], [0, 0, -1]]]
  movej(p[0.625,-0.3,-0.216,0,3.141593,0], a=0.523599, v=0.628319, r=0.005)  # [Transform: move to [625, -300, -216] mm and rotate to [[-1, 0, 0], [0, 1, 0], [0, 0, -1]]]
  movej(p[0.691407,-0.064974,-0.215764,0,3.141593,0], a=0.523599, v=0.628319, r=0.005)  # [Transform: move to [691.407, -64.974, -215.764] mm and rotate to [[-1, 0, 0], [0, 1, 0], [0, 0, -1]]]
  movej(p[0.691407,-0.064974,-0.251764,0,3.141593,0], a=0.523599, v=0.628319, r=0.005)  # [Transform: move to [691.407, -64.974, -251.764] mm and rotate to [[-1, 0, 0], [0, 1, 0], [0, 0, -1]]]
  movej(p[0.704335,-0.086372,-0.251764,0,3.141593,0], a=0.523599, v=0.628319, r=0.005)  # [Transform: move to [704.335, -86.372, -251.764] mm and rotate to [[-1, 0, 0], [0, 1, 0], [0, 0, -1]]]
  movej(p[0.704335,-0.086372,-0.215764,0,3.141593,0], a=0.523599, v=0.628319, r=0.005)  # [Transform: move to [704.335, -86.372, -215.764] mm and rotate to [[-1, 0, 0], [0, 1, 0], [0, 0, -1]]]
  movej(p[0.625,-0.3,-0.216,0,3.141593,0], a=0.523599, v=0.628319, r=0.005)  # [Transform: move to [625, -300, -216] mm and rotate to [[-1, 0, 0], [0, 1, 0], [0, 0, -1]]]
  movej(p[0.625,-0.3,-0.252,0,3.141593,0], a=0.523599, v=0.628319, r=0.005)  # [Transform: move to [625, -300, -252] mm and rotate to [[-1, 0, 0], [0, 1, 0], [0, 0, -1]]]
  movej(p[0.625,-0.3,-0.216,0,3.141593,0], a=0.523599, v=0.628319, r=0.005)  # [Transform: move to [625, -300, -216] mm and rotate to [[-1, 0, 0], [0, 1, 0], [0, 0, -1]]]
  movej(p[0.685842,-0.057708,-0.215759,0,3.141593,0], a=0.523599, v=0.628319, r=0.005)  # [Transform: move to [685.842, -57.708, -215.759] mm and rotate to [[-1, 0, 0], [0, 1, 0], [0, 0, -1]]]
  movej(p[0.685842,-0.057708,-0.251759,0,3.141593,0], a=0.523599, v=0.628319, r=0.005)  # [Transform: move to [685.842, -57.708, -251.759] mm and rotate to [[-1, 0, 0], [0, 1, 0], [0, 0, -1]]]
  movej(p[0.700051,-0.078277,-0.251759,0,3.141593,0], a=0.523599, v=0.628319, r=0.005)  # [Transform: move to [700.051, -78.277, -251.759] mm and rotate to [[-1, 0, 0], [0, 1, 0], [0, 0, -1]]]
  movej(p[0.700051,-0.078277,-0.215759,0,3.141593,0], a=0.523599, v=0.628319, r=0.005)  # [Transform: move to [700.051, -78.277, -215.759] mm and rotate to [[-1, 0, 0], [0, 1, 0], [0, 0, -1]]]
  movej(p[0.625,-0.3,-0.216,0,3.141593,0], a=0.523599, v=0.628319, r=0.005)  # [Transform: move to [625, -300, -216] mm and rotate to [[-1, 0, 0], [0, 1, 0], [0, 0, -1]]]
  movej(p[0.625,-0.3,-0.252,0,3.141593,0], a=0.523599, v=0.628319, r=0.005)  # [Transform: move to [625, -300, -252] mm and rotate to [[-1, 0, 0], [0, 1, 0], [0, 0, -1]]]
  movej(p[0.625,-0.3,-0.216,0,3.141593,0], a=0.523599, v=0.628319, r=0.005)  # [Transform: move to [625, -300, -216] mm and rotate to [[-1, 0, 0], [0, 1, 0], [0, 0, -1]]]
  movej(p[0.684833,-0.056457,-0.215753,0,3.141593,0], a=0.523599, v=0.628319, r=0.005)  # [Transform: move to [684.833, -56.457, -215.753] mm and rotate to [[-1, 0, 0], [0, 1, 0], [0, 0, -1]]]
  movej(p[0.684833,-0.056457,-0.251753,0,3.141593,0], a=0.523599, v=0.628319, r=0.005)  # [Transform: move to [684.833, -56.457, -251.753] mm and rotate to [[-1, 0, 0], [0, 1, 0], [0, 0, -1]]]
  movej(p[0.699241,-0.076887,-0.251753,0,3.141593,0], a=0.523599, v=0.628319, r=0.005)  # [Transform: move to [699.241, -76.887, -251.753] mm and rotate to [[-1, 0, 0], [0, 1, 0], [0, 0, -1]]]
  movej(p[0.699241,-0.076887,-0.215753,0,3.141593,0], a=0.523599, v=0.628319, r=0.005)  # [Transform: move to [699.241, -76.887, -215.753] mm and rotate to [[-1, 0, 0], [0, 1, 0], [0, 0, -1]]]
  movej(p[0.625,-0.3,-0.216,0,3.141593,0], a=0.523599, v=0.628319, r=0.005)  # [Transform: move to [625, -300, -216] mm and rotate to [[-1, 0, 0], [0, 1, 0], [0, 0, -1]]]
  movej(p[0.625,-0.3,-0.252,0,3.141593,0], a=0.523599, v=0.628319, r=0.005)  # [Transform: move to [625, -300, -252] mm and rotate to [[-1, 0, 0], [0, 1, 0], [0, 0, -1]]]
  movej(p[0.625,-0.3,-0.216,0,3.141593,0], a=0.523599, v=0.628319, r=0.005)  # [Transform: move to [625, -300, -216] mm and rotate to [[-1, 0, 0], [0, 1, 0], [0, 0, -1]]]
  movej(p[0.733769,-0.102118,-0.215747,0,3.141593,0], a=0.523599, v=0.628319, r=0.005)  # [Transform: move to [733.769, -102.118, -215.747] mm and rotate to [[-1, 0, 0], [0, 1, 0], [0, 0, -1]]]
  movej(p[0.733769,-0.102118,-0.251747,0,3.141593,0], a=0.523599, v=0.628319, r=0.005)  # [Transform: move to [733.769, -102.118, -251.747] mm and rotate to [[-1, 0, 0], [0, 1, 0], [0, 0, -1]]]
  movej(p[0.733769,-0.102118,-0.215747,0,3.141593,0], a=0.523599, v=0.628319, r=0.005)  # [Transform: move to [733.769, -102.118, -215.747] mm and rotate to [[-1, 0, 0], [0, 1, 0], [0, 0, -1]]]
  movej(p[0.625,-0.3,-0.216,0,3.141593,0], a=0.523599, v=0.628319, r=0.005)  # [Transform: move to [625, -300, -216] mm and rotate to [[-1, 0, 0], [0, 1, 0], [0, 0, -1]]]
  movej(p[0.625,-0.3,-0.252,0,3.141593,0], a=0.523599, v=0.628319, r=0.005)  # [Transform: move to [625, -300, -252] mm and rotate to [[-1, 0, 0], [0, 1, 0], [0, 0, -1]]]
  movej(p[0.625,-0.3,-0.216,0,3.141593,0], a=0.523599, v=0.628319, r=0.005)  # [Transform: move to [625, -300, -216] mm and rotate to [[-1, 0, 0], [0, 1, 0], [0, 0, -1]]]
  movej(p[0.734424,-0.082768,-0.215741,0,3.141593,0], a=0.523599, v=0.628319, r=0.005)  # [Transform: move to [734.424, -82.768, -215.741] mm and rotate to [[-1, 0, 0], [0, 1, 0], [0, 0, -1]]]
  movej(p[0.734424,-0.082768,-0.251741,0,3.141593,0], a=0.523599, v=0.628319, r=0.005)  # [Transform: move to [734.424, -82.768, -251.741] mm and rotate to [[-1, 0, 0], [0, 1, 0], [0, 0, -1]]]
  movej(p[0.744478,-0.105658,-0.251741,0,3.141593,0], a=0.523599, v=0.628319, r=0.005)  # [Transform: move to [744.478, -105.658, -251.741] mm and rotate to [[-1, 0, 0], [0, 1, 0], [0, 0, -1]]]
  movej(p[0.751273,-0.129716,-0.251741,0,3.141593,0], a=0.523599, v=0.628319, r=0.005)  # [Transform: move to [751.273, -129.716, -251.741] mm and rotate to [[-1, 0, 0], [0, 1, 0], [0, 0, -1]]]
  movej(p[0.751273,-0.129716,-0.215741,0,3.141593,0], a=0.523599, v=0.628319, r=0.005)  # [Transform: move to [751.273, -129.716, -215.741] mm and rotate to [[-1, 0, 0], [0, 1, 0], [0, 0, -1]]]
  movej(p[0.625,-0.3,-0.216,0,3.141593,0], a=0.523599, v=0.628319, r=0.005)  # [Transform: move to [625, -300, -216] mm and rotate to [[-1, 0, 0], [0, 1, 0], [0, 0, -1]]]
  movej(p[0.625,-0.3,-0.252,0,3.141593,0], a=0.523599, v=0.628319, r=0.005)  # [Transform: move to [625, -300, -252] mm and rotate to [[-1, 0, 0], [0, 1, 0], [0, 0, -1]]]
  movej(p[0.625,-0.3,-0.216,0,3.141593,0], a=0.523599, v=0.628319, r=0.005)  # [Transform: move to [625, -300, -216] mm and rotate to [[-1, 0, 0], [0, 1, 0], [0, 0, -1]]]
  movej(p[0.733171,-0.064368,-0.215736,0,3.141593,0], a=0.523599, v=0.628319, r=0.005)  # [Transform: move to [733.171, -64.368, -215.736] mm and rotate to [[-1, 0, 0], [0, 1, 0], [0, 0, -1]]]
  movej(p[0.733171,-0.064368,-0.251736,0,3.141593,0], a=0.523599, v=0.628319, r=0.005)  # [Transform: move to [733.171, -64.368, -251.736] mm and rotate to [[-1, 0, 0], [0, 1, 0], [0, 0, -1]]]
  movej(p[0.744608,-0.086598,-0.251736,0,3.141593,0], a=0.523599, v=0.628319, r=0.005)  # [Transform: move to [744.608, -86.598, -251.736] mm and rotate to [[-1, 0, 0], [0, 1, 0], [0, 0, -1]]]
  movej(p[0.756657,-0.108503,-0.251736,0,3.141593,0], a=0.523599, v=0.628319, r=0.005)  # [Transform: move to [756.657, -108.503, -251.736] mm and rotate to [[-1, 0, 0], [0, 1, 0], [0, 0, -1]]]
  movej(p[0.766754,-0.131374,-0.251736,0,3.141593,0], a=0.523599, v=0.628319, r=0.005)  # [Transform: move to [766.754, -131.374, -251.736] mm and rotate to [[-1, 0, 0], [0, 1, 0], [0, 0, -1]]]
  movej(p[0.766754,-0.131374,-0.215736,0,3.141593,0], a=0.523599, v=0.628319, r=0.005)  # [Transform: move to [766.754, -131.374, -215.736] mm and rotate to [[-1, 0, 0], [0, 1, 0], [0, 0, -1]]]
  movej(p[0.625,-0.3,-0.216,0,3.141593,0], a=0.523599, v=0.628319, r=0.005)  # [Transform: move to [625, -300, -216] mm and rotate to [[-1, 0, 0], [0, 1, 0], [0, 0, -1]]]
  movej(p[0.625,-0.3,-0.252,0,3.141593,0], a=0.523599, v=0.628319, r=0.005)  # [Transform: move to [625, -300, -252] mm and rotate to [[-1, 0, 0], [0, 1, 0], [0, 0, -1]]]
  movej(p[0.625,-0.3,-0.216,0,3.141593,0], a=0.523599, v=0.628319, r=0.005)  # [Transform: move to [625, -300, -216] mm and rotate to [[-1, 0, 0], [0, 1, 0], [0, 0, -1]]]
  movej(p[0.730366,-0.046364,-0.21573,0,3.141593,0], a=0.523599, v=0.628319, r=0.005)  # [Transform: move to [730.366, -46.364, -215.73] mm and rotate to [[-1, 0, 0], [0, 1, 0], [0, 0, -1]]]
  movej(p[0.730366,-0.046364,-0.25173,0,3.141593,0], a=0.523599, v=0.628319, r=0.005)  # [Transform: move to [730.366, -46.364, -251.73] mm and rotate to [[-1, 0, 0], [0, 1, 0], [0, 0, -1]]]
  movej(p[0.739678,-0.069565,-0.25173,0,3.141593,0], a=0.523599, v=0.628319, r=0.005)  # [Transform: move to [739.678, -69.565, -251.73] mm and rotate to [[-1, 0, 0], [0, 1, 0], [0, 0, -1]]]
  movej(p[0.752527,-0.09101,-0.25173,0,3.141593,0], a=0.523599, v=0.628319, r=0.005)  # [Transform: move to [752.527, -91.01, -251.73] mm and rotate to [[-1, 0, 0], [0, 1, 0], [0, 0, -1]]]
  movej(p[0.766136,-0.111981,-0.25173,0,3.141593,0], a=0.523599, v=0.628319, r=0.005)  # [Transform: move to [766.136, -111.981, -251.73] mm and rotate to [[-1, 0, 0], [0, 1, 0], [0, 0, -1]]]
  movej(p[0.778573,-0.133669,-0.25173,0,3.141593,0], a=0.523599, v=0.628319, r=0.005)  # [Transform: move to [778.573, -133.669, -251.73] mm and rotate to [[-1, 0, 0], [0, 1, 0], [0, 0, -1]]]
  movej(p[0.788769,-0.156495,-0.25173,0,3.141593,0], a=0.523599, v=0.628319, r=0.005)  # [Transform: move to [788.769, -156.495, -251.73] mm and rotate to [[-1, 0, 0], [0, 1, 0], [0, 0, -1]]]
  movej(p[0.788769,-0.156495,-0.21573,0,3.141593,0], a=0.523599, v=0.628319, r=0.005)  # [Transform: move to [788.769, -156.495, -215.73] mm and rotate to [[-1, 0, 0], [0, 1, 0], [0, 0, -1]]]
  movej(p[0.625,-0.3,-0.216,0,3.141593,0], a=0.523599, v=0.628319, r=0.005)  # [Transform: move to [625, -300, -216] mm and rotate to [[-1, 0, 0], [0, 1, 0], [0, 0, -1]]]
  movej(p[0.625,-0.3,-0.252,0,3.141593,0], a=0.523599, v=0.628319, r=0.005)  # [Transform: move to [625, -300, -252] mm and rotate to [[-1, 0, 0], [0, 1, 0], [0, 0, -1]]]
  movej(p[0.625,-0.3,-0.216,0,3.141593,0], a=0.523599, v=0.628319, r=0.005)  # [Transform: move to [625, -300, -216] mm and rotate to [[-1, 0, 0], [0, 1, 0], [0, 0, -1]]]
  movej(p[0.726691,-0.027818,-0.215724,0,3.141593,0], a=0.523599, v=0.628319, r=0.005)  # [Transform: move to [726.691, -27.818, -215.724] mm and rotate to [[-1, 0, 0], [0, 1, 0], [0, 0, -1]]]
  movej(p[0.726691,-0.027818,-0.251724,0,3.141593,0], a=0.523599, v=0.628319, r=0.005)  # [Transform: move to [726.691, -27.818, -251.724] mm and rotate to [[-1, 0, 0], [0, 1, 0], [0, 0, -1]]]
  movej(p[0.730622,-0.052507,-0.251724,0,3.141593,0], a=0.523599, v=0.628319, r=0.005)  # [Transform: move to [730.622, -52.507, -251.724] mm and rotate to [[-1, 0, 0], [0, 1, 0], [0, 0, -1]]]
  movej(p[0.740882,-0.075304,-0.251724,0,3.141593,0], a=0.523599, v=0.628319, r=0.005)  # [Transform: move to [740.882, -75.304, -251.724] mm and rotate to [[-1, 0, 0], [0, 1, 0], [0, 0, -1]]]
  movej(p[0.753604,-0.096825,-0.251724,0,3.141593,0], a=0.523599, v=0.628319, r=0.005)  # [Transform: move to [753.604, -96.825, -251.724] mm and rotate to [[-1, 0, 0], [0, 1, 0], [0, 0, -1]]]
  movej(p[0.766128,-0.118463,-0.251724,0,3.141593,0], a=0.523599, v=0.628319, r=0.005)  # [Transform: move to [766.128, -118.463, -251.724] mm and rotate to [[-1, 0, 0], [0, 1, 0], [0, 0, -1]]]
  movej(p[0.776482,-0.141217,-0.251724,0,3.141593,0], a=0.523599, v=0.628319, r=0.005)  # [Transform: move to [776.482, -141.217, -251.724] mm and rotate to [[-1, 0, 0], [0, 1, 0], [0, 0, -1]]]
  movej(p[0.776482,-0.141217,-0.215724,0,3.141593,0], a=0.523599, v=0.628319, r=0.005)  # [Transform: move to [776.482, -141.217, -215.724] mm and rotate to [[-1, 0, 0], [0, 1, 0], [0, 0, -1]]]
  movej(p[0.625,-0.3,-0.216,0,3.141593,0], a=0.523599, v=0.628319, r=0.005)  # [Transform: move to [625, -300, -216] mm and rotate to [[-1, 0, 0], [0, 1, 0], [0, 0, -1]]]
  movej(p[0.625,-0.3,-0.252,0,3.141593,0], a=0.523599, v=0.628319, r=0.005)  # [Transform: move to [625, -300, -252] mm and rotate to [[-1, 0, 0], [0, 1, 0], [0, 0, -1]]]
  movej(p[0.625,-0.3,-0.216,0,3.141593,0], a=0.523599, v=0.628319, r=0.005)  # [Transform: move to [625, -300, -216] mm and rotate to [[-1, 0, 0], [0, 1, 0], [0, 0, -1]]]
  movej(p[0.723102,-0.008242,-0.215718,0,3.141593,0], a=0.523599, v=0.628319, r=0.005)  # [Transform: move to [723.102, -8.242, -215.718] mm and rotate to [[-1, 0, 0], [0, 1, 0], [0, 0, -1]]]
  movej(p[0.723102,-0.008242,-0.251718,0,3.141593,0], a=0.523599, v=0.628319, r=0.005)  # [Transform: move to [723.102, -8.242, -251.718] mm and rotate to [[-1, 0, 0], [0, 1, 0], [0, 0, -1]]]
  movej(p[0.719075,-0.032916,-0.251718,0,3.141593,0], a=0.523599, v=0.628319, r=0.005)  # [Transform: move to [719.075, -32.916, -251.718] mm and rotate to [[-1, 0, 0], [0, 1, 0], [0, 0, -1]]]
  movej(p[0.723981,-0.05743,-0.251718,0,3.141593,0], a=0.523599, v=0.628319, r=0.005)  # [Transform: move to [723.981, -57.43, -251.718] mm and rotate to [[-1, 0, 0], [0, 1, 0], [0, 0, -1]]]
  movej(p[0.733735,-0.080448,-0.251718,0,3.141593,0], a=0.523599, v=0.628319, r=0.005)  # [Transform: move to [733.735, -80.448, -251.718] mm and rotate to [[-1, 0, 0], [0, 1, 0], [0, 0, -1]]]
  movej(p[0.744036,-0.103228,-0.251718,0,3.141593,0], a=0.523599, v=0.628319, r=0.005)  # [Transform: move to [744.036, -103.228, -251.718] mm and rotate to [[-1, 0, 0], [0, 1, 0], [0, 0, -1]]]
  movej(p[0.751425,-0.127111,-0.251718,0,3.141593,0], a=0.523599, v=0.628319, r=0.005)  # [Transform: move to [751.425, -127.111, -251.718] mm and rotate to [[-1, 0, 0], [0, 1, 0], [0, 0, -1]]]
  movej(p[0.751425,-0.127111,-0.215718,0,3.141593,0], a=0.523599, v=0.628319, r=0.005)  # [Transform: move to [751.425, -127.111, -215.718] mm and rotate to [[-1, 0, 0], [0, 1, 0], [0, 0, -1]]]
  movej(p[0.625,-0.3,-0.216,0,3.141593,0], a=0.523599, v=0.628319, r=0.005)  # [Transform: move to [625, -300, -216] mm and rotate to [[-1, 0, 0], [0, 1, 0], [0, 0, -1]]]
  movej(p[0.625,-0.3,-0.252,0,3.141593,0], a=0.523599, v=0.628319, r=0.005)  # [Transform: move to [625, -300, -252] mm and rotate to [[-1, 0, 0], [0, 1, 0], [0, 0, -1]]]
  movej(p[0.625,-0.3,-0.216,0,3.141593,0], a=0.523599, v=0.628319, r=0.005)  # [Transform: move to [625, -300, -216] mm and rotate to [[-1, 0, 0], [0, 1, 0], [0, 0, -1]]]
  movej(p[0.720151,0.012323,-0.215713,0,3.141593,0], a=0.523599, v=0.628319, r=0.005)  # [Transform: move to [720.151, 12.323, -215.713] mm and rotate to [[-1, 0, 0], [0, 1, 0], [0, 0, -1]]]
  movej(p[0.720151,0.012323,-0.251713,0,3.141593,0], a=0.523599, v=0.628319, r=0.005)  # [Transform: move to [720.151, 12.323, -251.713] mm and rotate to [[-1, 0, 0], [0, 1, 0], [0, 0, -1]]]
  movej(p[0.707478,-0.009227,-0.251713,0,3.141593,0], a=0.523599, v=0.628319, r=0.005)  # [Transform: move to [707.478, -9.227, -251.713] mm and rotate to [[-1, 0, 0], [0, 1, 0], [0, 0, -1]]]
  movej(p[0.70463,-0.034064,-0.251713,0,3.141593,0], a=0.523599, v=0.628319, r=0.005)  # [Transform: move to [704.63, -34.064, -251.713] mm and rotate to [[-1, 0, 0], [0, 1, 0], [0, 0, -1]]]
  movej(p[0.710748,-0.058304,-0.251713,0,3.141593,0], a=0.523599, v=0.628319, r=0.005)  # [Transform: move to [710.748, -58.304, -251.713] mm and rotate to [[-1, 0, 0], [0, 1, 0], [0, 0, -1]]]
  movej(p[0.720267,-0.08142,-0.251713,0,3.141593,0], a=0.523599, v=0.628319, r=0.005)  # [Transform: move to [720.267, -81.42, -251.713] mm and rotate to [[-1, 0, 0], [0, 1, 0], [0, 0, -1]]]
  movej(p[0.72855,-0.105008,-0.251713,0,3.141593,0], a=0.523599, v=0.628319, r=0.005)  # [Transform: move to [728.55, -105.008, -251.713] mm and rotate to [[-1, 0, 0], [0, 1, 0], [0, 0, -1]]]
  movej(p[0.72855,-0.105008,-0.215713,0,3.141593,0], a=0.523599, v=0.628319, r=0.005)  # [Transform: move to [728.55, -105.008, -215.713] mm and rotate to [[-1, 0, 0], [0, 1, 0], [0, 0, -1]]]
  movej(p[0.625,-0.3,-0.216,0,3.141593,0], a=0.523599, v=0.628319, r=0.005)  # [Transform: move to [625, -300, -216] mm and rotate to [[-1, 0, 0], [0, 1, 0], [0, 0, -1]]]
  movej(p[0.625,-0.3,-0.252,0,3.141593,0], a=0.523599, v=0.628319, r=0.005)  # [Transform: move to [625, -300, -252] mm and rotate to [[-1, 0, 0], [0, 1, 0], [0, 0, -1]]]
  movej(p[0.625,-0.3,-0.216,0,3.141593,0], a=0.523599, v=0.628319, r=0.005)  # [Transform: move to [625, -300, -216] mm and rotate to [[-1, 0, 0], [0, 1, 0], [0, 0, -1]]]
  movej(p[0.718126,0.033728,-0.215707,0,3.141593,0], a=0.523599, v=0.628319, r=0.005)  # [Transform: move to [718.126, 33.728, -215.707] mm and rotate to [[-1, 0, 0], [0, 1, 0], [0, 0, -1]]]
  movej(p[0.718126,0.033728,-0.251707,0,3.141593,0], a=0.523599, v=0.628319, r=0.005)  # [Transform: move to [718.126, 33.728, -251.707] mm and rotate to [[-1, 0, 0], [0, 1, 0], [0, 0, -1]]]
  movej(p[0.697628,0.019416,-0.251707,0,3.141593,0], a=0.523599, v=0.628319, r=0.005)  # [Transform: move to [697.628, 19.416, -251.707] mm and rotate to [[-1, 0, 0], [0, 1, 0], [0, 0, -1]]]
  movej(p[0.685478,-0.002433,-0.251707,0,3.141593,0], a=0.523599, v=0.628319, r=0.005)  # [Transform: move to [685.478, -2.433, -251.707] mm and rotate to [[-1, 0, 0], [0, 1, 0], [0, 0, -1]]]
  movej(p[0.685939,-0.027429,-0.251707,0,3.141593,0], a=0.523599, v=0.628319, r=0.005)  # [Transform: move to [685.939, -27.429, -251.707] mm and rotate to [[-1, 0, 0], [0, 1, 0], [0, 0, -1]]]
  movej(p[0.694775,-0.050815,-0.251707,0,3.141593,0], a=0.523599, v=0.628319, r=0.005)  # [Transform: move to [694.775, -50.815, -251.707] mm and rotate to [[-1, 0, 0], [0, 1, 0], [0, 0, -1]]]
  movej(p[0.70604,-0.073134,-0.251707,0,3.141593,0], a=0.523599, v=0.628319, r=0.005)  # [Transform: move to [706.04, -73.134, -251.707] mm and rotate to [[-1, 0, 0], [0, 1, 0], [0, 0, -1]]]
  movej(p[0.715807,-0.096147,-0.251707,0,3.141593,0], a=0.523599, v=0.628319, r=0.005)  # [Transform: move to [715.807, -96.147, -251.707] mm and rotate to [[-1, 0, 0], [0, 1, 0], [0, 0, -1]]]
  movej(p[0.715807,-0.096147,-0.215707,0,3.141593,0], a=0.523599, v=0.628319, r=0.005)  # [Transform: move to [715.807, -96.147, -215.707] mm and rotate to [[-1, 0, 0], [0, 1, 0], [0, 0, -1]]]
  movej(p[0.625,-0.3,-0.216,0,3.141593,0], a=0.523599, v=0.628319, r=0.005)  # [Transform: move to [625, -300, -216] mm and rotate to [[-1, 0, 0], [0, 1, 0], [0, 0, -1]]]
  movej(p[0.625,-0.3,-0.252,0,3.141593,0], a=0.523599, v=0.628319, r=0.005)  # [Transform: move to [625, -300, -252] mm and rotate to [[-1, 0, 0], [0, 1, 0], [0, 0, -1]]]
  movej(p[0.625,-0.3,-0.216,0,3.141593,0], a=0.523599, v=0.628319, r=0.005)  # [Transform: move to [625, -300, -216] mm and rotate to [[-1, 0, 0], [0, 1, 0], [0, 0, -1]]]
  movej(p[0.71745,0.05492,-0.215701,0,3.141593,0], a=0.523599, v=0.628319, r=0.005)  # [Transform: move to [717.45, 54.92, -215.701] mm and rotate to [[-1, 0, 0], [0, 1, 0], [0, 0, -1]]]
  movej(p[0.71745,0.05492,-0.251701,0,3.141593,0], a=0.523599, v=0.628319, r=0.005)  # [Transform: move to [717.45, 54.92, -251.701] mm and rotate to [[-1, 0, 0], [0, 1, 0], [0, 0, -1]]]
  movej(p[0.692741,0.051119,-0.251701,0,3.141593,0], a=0.523599, v=0.628319, r=0.005)  # [Transform: move to [692.741, 51.119, -251.701] mm and rotate to [[-1, 0, 0], [0, 1, 0], [0, 0, -1]]]
  movej(p[0.672122,0.03698,-0.251701,0,3.141593,0], a=0.523599, v=0.628319, r=0.005)  # [Transform: move to [672.122, 36.98, -251.701] mm and rotate to [[-1, 0, 0], [0, 1, 0], [0, 0, -1]]]
  movej(p[0.666571,0.012604,-0.251701,0,3.141593,0], a=0.523599, v=0.628319, r=0.005)  # [Transform: move to [666.571, 12.604, -251.701] mm and rotate to [[-1, 0, 0], [0, 1, 0], [0, 0, -1]]]
  movej(p[0.669237,-0.012253,-0.251701,0,3.141593,0], a=0.523599, v=0.628319, r=0.005)  # [Transform: move to [669.237, -12.253, -251.701] mm and rotate to [[-1, 0, 0], [0, 1, 0], [0, 0, -1]]]
  movej(p[0.677221,-0.035944,-0.251701,0,3.141593,0], a=0.523599, v=0.628319, r=0.005)  # [Transform: move to [677.221, -35.944, -251.701] mm and rotate to [[-1, 0, 0], [0, 1, 0], [0, 0, -1]]]
  movej(p[0.690517,-0.057115,-0.251701,0,3.141593,0], a=0.523599, v=0.628319, r=0.005)  # [Transform: move to [690.517, -57.115, -251.701] mm and rotate to [[-1, 0, 0], [0, 1, 0], [0, 0, -1]]]
  movej(p[0.703409,-0.078535,-0.251701,0,3.141593,0], a=0.523599, v=0.628319, r=0.005)  # [Transform: move to [703.409, -78.535, -251.701] mm and rotate to [[-1, 0, 0], [0, 1, 0], [0, 0, -1]]]
  movej(p[0.703409,-0.078535,-0.215701,0,3.141593,0], a=0.523599, v=0.628319, r=0.005)  # [Transform: move to [703.409, -78.535, -215.701] mm and rotate to [[-1, 0, 0], [0, 1, 0], [0, 0, -1]]]
  movej(p[0.625,-0.3,-0.216,0,3.141593,0], a=0.523599, v=0.628319, r=0.005)  # [Transform: move to [625, -300, -216] mm and rotate to [[-1, 0, 0], [0, 1, 0], [0, 0, -1]]]
  movej(p[0.625,-0.3,-0.252,0,3.141593,0], a=0.523599, v=0.628319, r=0.005)  # [Transform: move to [625, -300, -252] mm and rotate to [[-1, 0, 0], [0, 1, 0], [0, 0, -1]]]
  movej(p[0.625,-0.3,-0.216,0,3.141593,0], a=0.523599, v=0.628319, r=0.005)  # [Transform: move to [625, -300, -216] mm and rotate to [[-1, 0, 0], [0, 1, 0], [0, 0, -1]]]
  movej(p[0.717628,0.074536,-0.215695,0,3.141593,0], a=0.523599, v=0.628319, r=0.005)  # [Transform: move to [717.628, 74.536, -215.695] mm and rotate to [[-1, 0, 0], [0, 1, 0], [0, 0, -1]]]
  movej(p[0.717628,0.074536,-0.251695,0,3.141593,0], a=0.523599, v=0.628319, r=0.005)  # [Transform: move to [717.628, 74.536, -251.695] mm and rotate to [[-1, 0, 0], [0, 1, 0], [0, 0, -1]]]
  movej(p[0.692697,0.076392,-0.251695,0,3.141593,0], a=0.523599, v=0.628319, r=0.005)  # [Transform: move to [692.697, 76.392, -251.695] mm and rotate to [[-1, 0, 0], [0, 1, 0], [0, 0, -1]]]
  movej(p[0.673197,0.060747,-0.251695,0,3.141593,0], a=0.523599, v=0.628319, r=0.005)  # [Transform: move to [673.197, 60.747, -251.695] mm and rotate to [[-1, 0, 0], [0, 1, 0], [0, 0, -1]]]
  movej(p[0.667298,0.036453,-0.251695,0,3.141593,0], a=0.523599, v=0.628319, r=0.005)  # [Transform: move to [667.298, 36.453, -251.695] mm and rotate to [[-1, 0, 0], [0, 1, 0], [0, 0, -1]]]
  movej(p[0.667349,0.011453,-0.251695,0,3.141593,0], a=0.523599, v=0.628319, r=0.005)  # [Transform: move to [667.349, 11.453, -251.695] mm and rotate to [[-1, 0, 0], [0, 1, 0], [0, 0, -1]]]
  movej(p[0.671007,-0.013278,-0.251695,0,3.141593,0], a=0.523599, v=0.628319, r=0.005)  # [Transform: move to [671.007, -13.278, -251.695] mm and rotate to [[-1, 0, 0], [0, 1, 0], [0, 0, -1]]]
  movej(p[0.677847,-0.037324,-0.251695,0,3.141593,0], a=0.523599, v=0.628319, r=0.005)  # [Transform: move to [677.847, -37.324, -251.695] mm and rotate to [[-1, 0, 0], [0, 1, 0], [0, 0, -1]]]
  movej(p[0.688714,-0.059839,-0.251695,0,3.141593,0], a=0.523599, v=0.628319, r=0.005)  # [Transform: move to [688.714, -59.839, -251.695] mm and rotate to [[-1, 0, 0], [0, 1, 0], [0, 0, -1]]]
  movej(p[0.702338,-0.0808,-0.251695,0,3.141593,0], a=0.523599, v=0.628319, r=0.005)  # [Transform: move to [702.338, -80.8, -251.695] mm and rotate to [[-1, 0, 0], [0, 1, 0], [0, 0, -1]]]
  movej(p[0.702338,-0.0808,-0.215695,0,3.141593,0], a=0.523599, v=0.628319, r=0.005)  # [Transform: move to [702.338, -80.8, -215.695] mm and rotate to [[-1, 0, 0], [0, 1, 0], [0, 0, -1]]]
  movej(p[0.625,-0.3,-0.216,0,3.141593,0], a=0.523599, v=0.628319, r=0.005)  # [Transform: move to [625, -300, -216] mm and rotate to [[-1, 0, 0], [0, 1, 0], [0, 0, -1]]]
  movej(p[0.625,-0.3,-0.252,0,3.141593,0], a=0.523599, v=0.628319, r=0.005)  # [Transform: move to [625, -300, -252] mm and rotate to [[-1, 0, 0], [0, 1, 0], [0, 0, -1]]]
  movej(p[0.625,-0.3,-0.216,0,3.141593,0], a=0.523599, v=0.628319, r=0.005)  # [Transform: move to [625, -300, -216] mm and rotate to [[-1, 0, 0], [0, 1, 0], [0, 0, -1]]]
  movej(p[0.717983,0.091934,-0.21569,0,3.141593,0], a=0.523599, v=0.628319, r=0.005)  # [Transform: move to [717.983, 91.934, -215.69] mm and rotate to [[-1, 0, 0], [0, 1, 0], [0, 0, -1]]]
  movej(p[0.717983,0.091934,-0.25169,0,3.141593,0], a=0.523599, v=0.628319, r=0.005)  # [Transform: move to [717.983, 91.934, -251.69] mm and rotate to [[-1, 0, 0], [0, 1, 0], [0, 0, -1]]]
  movej(p[0.693269,0.088161,-0.25169,0,3.141593,0], a=0.523599, v=0.628319, r=0.005)  # [Transform: move to [693.269, 88.161, -251.69] mm and rotate to [[-1, 0, 0], [0, 1, 0], [0, 0, -1]]]
  movej(p[0.677186,0.069022,-0.25169,0,3.141593,0], a=0.523599, v=0.628319, r=0.005)  # [Transform: move to [677.186, 69.022, -251.69] mm and rotate to [[-1, 0, 0], [0, 1, 0], [0, 0, -1]]]
  movej(p[0.670163,0.045028,-0.25169,0,3.141593,0], a=0.523599, v=0.628319, r=0.005)  # [Transform: move to [670.163, 45.028, -251.69] mm and rotate to [[-1, 0, 0], [0, 1, 0], [0, 0, -1]]]
  movej(p[0.668306,0.020098,-0.25169,0,3.141593,0], a=0.523599, v=0.628319, r=0.005)  # [Transform: move to [668.306, 20.098, -251.69] mm and rotate to [[-1, 0, 0], [0, 1, 0], [0, 0, -1]]]
  movej(p[0.670087,-0.004839,-0.25169,0,3.141593,0], a=0.523599, v=0.628319, r=0.005)  # [Transform: move to [670.087, -4.839, -251.69] mm and rotate to [[-1, 0, 0], [0, 1, 0], [0, 0, -1]]]
  movej(p[0.675156,-0.02932,-0.25169,0,3.141593,0], a=0.523599, v=0.628319, r=0.005)  # [Transform: move to [675.156, -29.32, -251.69] mm and rotate to [[-1, 0, 0], [0, 1, 0], [0, 0, -1]]]
  movej(p[0.684041,-0.052687,-0.25169,0,3.141593,0], a=0.523599, v=0.628319, r=0.005)  # [Transform: move to [684.041, -52.687, -251.69] mm and rotate to [[-1, 0, 0], [0, 1, 0], [0, 0, -1]]]
  movej(p[0.697613,-0.073683,-0.25169,0,3.141593,0], a=0.523599, v=0.628319, r=0.005)  # [Transform: move to [697.613, -73.683, -251.69] mm and rotate to [[-1, 0, 0], [0, 1, 0], [0, 0, -1]]]
  movej(p[0.708727,-0.096077,-0.25169,0,3.141593,0], a=0.523599, v=0.628319, r=0.005)  # [Transform: move to [708.727, -96.077, -251.69] mm and rotate to [[-1, 0, 0], [0, 1, 0], [0, 0, -1]]]
  movej(p[0.708727,-0.096077,-0.21569,0,3.141593,0], a=0.523599, v=0.628319, r=0.005)  # [Transform: move to [708.727, -96.077, -215.69] mm and rotate to [[-1, 0, 0], [0, 1, 0], [0, 0, -1]]]
  movej(p[0.625,-0.3,-0.216,0,3.141593,0], a=0.523599, v=0.628319, r=0.005)  # [Transform: move to [625, -300, -216] mm and rotate to [[-1, 0, 0], [0, 1, 0], [0, 0, -1]]]
  movej(p[0.625,-0.3,-0.252,0,3.141593,0], a=0.523599, v=0.628319, r=0.005)  # [Transform: move to [625, -300, -252] mm and rotate to [[-1, 0, 0], [0, 1, 0], [0, 0, -1]]]
  movej(p[0.625,-0.3,-0.216,0,3.141593,0], a=0.523599, v=0.628319, r=0.005)  # [Transform: move to [625, -300, -216] mm and rotate to [[-1, 0, 0], [0, 1, 0], [0, 0, -1]]]
  movej(p[0.718878,0.10734,-0.215684,0,3.141593,0], a=0.523599, v=0.628319, r=0.005)  # [Transform: move to [718.878, 107.34, -215.684] mm and rotate to [[-1, 0, 0], [0, 1, 0], [0, 0, -1]]]
  movej(p[0.718878,0.10734,-0.251684,0,3.141593,0], a=0.523599, v=0.628319, r=0.005)  # [Transform: move to [718.878, 107.34, -251.684] mm and rotate to [[-1, 0, 0], [0, 1, 0], [0, 0, -1]]]
  movej(p[0.695078,0.099689,-0.251684,0,3.141593,0], a=0.523599, v=0.628319, r=0.005)  # [Transform: move to [695.078, 99.689, -251.684] mm and rotate to [[-1, 0, 0], [0, 1, 0], [0, 0, -1]]]
  movej(p[0.678856,0.080666,-0.251684,0,3.141593,0], a=0.523599, v=0.628319, r=0.005)  # [Transform: move to [678.856, 80.666, -251.684] mm and rotate to [[-1, 0, 0], [0, 1, 0], [0, 0, -1]]]
  movej(p[0.670818,0.056994,-0.251684,0,3.141593,0], a=0.523599, v=0.628319, r=0.005)  # [Transform: move to [670.818, 56.994, -251.684] mm and rotate to [[-1, 0, 0], [0, 1, 0], [0, 0, -1]]]
  movej(p[0.668113,0.032141,-0.251684,0,3.141593,0], a=0.523599, v=0.628319, r=0.005)  # [Transform: move to [668.113, 32.141, -251.684] mm and rotate to [[-1, 0, 0], [0, 1, 0], [0, 0, -1]]]
  movej(p[0.669134,0.007162,-0.251684,0,3.141593,0], a=0.523599, v=0.628319, r=0.005)  # [Transform: move to [669.134, 7.162, -251.684] mm and rotate to [[-1, 0, 0], [0, 1, 0], [0, 0, -1]]]
  movej(p[0.673227,-0.017501,-0.251684,0,3.141593,0], a=0.523599, v=0.628319, r=0.005)  # [Transform: move to [673.227, -17.501, -251.684] mm and rotate to [[-1, 0, 0], [0, 1, 0], [0, 0, -1]]]
  movej(p[0.680335,-0.041469,-0.251684,0,3.141593,0], a=0.523599, v=0.628319, r=0.005)  # [Transform: move to [680.335, -41.469, -251.684] mm and rotate to [[-1, 0, 0], [0, 1, 0], [0, 0, -1]]]
  movej(p[0.691032,-0.064065,-0.251684,0,3.141593,0], a=0.523599, v=0.628319, r=0.005)  # [Transform: move to [691.032, -64.065, -251.684] mm and rotate to [[-1, 0, 0], [0, 1, 0], [0, 0, -1]]]
  movej(p[0.704026,-0.085423,-0.251684,0,3.141593,0], a=0.523599, v=0.628319, r=0.005)  # [Transform: move to [704.026, -85.423, -251.684] mm and rotate to [[-1, 0, 0], [0, 1, 0], [0, 0, -1]]]
  movej(p[0.704026,-0.085423,-0.215684,0,3.141593,0], a=0.523599, v=0.628319, r=0.005)  # [Transform: move to [704.026, -85.423, -215.684] mm and rotate to [[-1, 0, 0], [0, 1, 0], [0, 0, -1]]]
  movej(p[0.625,-0.3,-0.216,0,3.141593,0], a=0.523599, v=0.628319, r=0.005)  # [Transform: move to [625, -300, -216] mm and rotate to [[-1, 0, 0], [0, 1, 0], [0, 0, -1]]]
  movej(p[0.625,-0.3,-0.252,0,3.141593,0], a=0.523599, v=0.628319, r=0.005)  # [Transform: move to [625, -300, -252] mm and rotate to [[-1, 0, 0], [0, 1, 0], [0, 0, -1]]]
  movej(p[0.625,-0.3,-0.216,0,3.141593,0], a=0.523599, v=0.628319, r=0.005)  # [Transform: move to [625, -300, -216] mm and rotate to [[-1, 0, 0], [0, 1, 0], [0, 0, -1]]]
  movej(p[0.721315,0.122038,-0.215678,0,3.141593,0], a=0.523599, v=0.628319, r=0.005)  # [Transform: move to [721.315, 122.038, -215.678] mm and rotate to [[-1, 0, 0], [0, 1, 0], [0, 0, -1]]]
  movej(p[0.721315,0.122038,-0.251678,0,3.141593,0], a=0.523599, v=0.628319, r=0.005)  # [Transform: move to [721.315, 122.038, -251.678] mm and rotate to [[-1, 0, 0], [0, 1, 0], [0, 0, -1]]]
  movej(p[0.707536,0.101178,-0.251678,0,3.141593,0], a=0.523599, v=0.628319, r=0.005)  # [Transform: move to [707.536, 101.178, -251.678] mm and rotate to [[-1, 0, 0], [0, 1, 0], [0, 0, -1]]]
  movej(p[0.69591,0.079046,-0.251678,0,3.141593,0], a=0.523599, v=0.628319, r=0.005)  # [Transform: move to [695.91, 79.046, -251.678] mm and rotate to [[-1, 0, 0], [0, 1, 0], [0, 0, -1]]]
  movej(p[0.686496,0.055886,-0.251678,0,3.141593,0], a=0.523599, v=0.628319, r=0.005)  # [Transform: move to [686.496, 55.886, -251.678] mm and rotate to [[-1, 0, 0], [0, 1, 0], [0, 0, -1]]]
  movej(p[0.679567,0.031865,-0.251678,0,3.141593,0], a=0.523599, v=0.628319, r=0.005)  # [Transform: move to [679.567, 31.865, -251.678] mm and rotate to [[-1, 0, 0], [0, 1, 0], [0, 0, -1]]]
  movej(p[0.675645,0.007175,-0.251678,0,3.141593,0], a=0.523599, v=0.628319, r=0.005)  # [Transform: move to [675.645, 7.175, -251.678] mm and rotate to [[-1, 0, 0], [0, 1, 0], [0, 0, -1]]]
  movej(p[0.675553,-0.017825,-0.251678,0,3.141593,0], a=0.523599, v=0.628319, r=0.005)  # [Transform: move to [675.553, -17.825, -251.678] mm and rotate to [[-1, 0, 0], [0, 1, 0], [0, 0, -1]]]
  movej(p[0.680418,-0.042347,-0.251678,0,3.141593,0], a=0.523599, v=0.628319, r=0.005)  # [Transform: move to [680.418, -42.347, -251.678] mm and rotate to [[-1, 0, 0], [0, 1, 0], [0, 0, -1]]]
  movej(p[0.691264,-0.064871,-0.251678,0,3.141593,0], a=0.523599, v=0.628319, r=0.005)  # [Transform: move to [691.264, -64.871, -251.678] mm and rotate to [[-1, 0, 0], [0, 1, 0], [0, 0, -1]]]
  movej(p[0.704373,-0.086159,-0.251678,0,3.141593,0], a=0.523599, v=0.628319, r=0.005)  # [Transform: move to [704.373, -86.159, -251.678] mm and rotate to [[-1, 0, 0], [0, 1, 0], [0, 0, -1]]]
  movej(p[0.704373,-0.086159,-0.215678,0,3.141593,0], a=0.523599, v=0.628319, r=0.005)  # [Transform: move to [704.373, -86.159, -215.678] mm and rotate to [[-1, 0, 0], [0, 1, 0], [0, 0, -1]]]
  movej(p[0.625,-0.3,-0.216,0,3.141593,0], a=0.523599, v=0.628319, r=0.005)  # [Transform: move to [625, -300, -216] mm and rotate to [[-1, 0, 0], [0, 1, 0], [0, 0, -1]]]
  movej(p[0.625,-0.3,-0.252,0,3.141593,0], a=0.523599, v=0.628319, r=0.005)  # [Transform: move to [625, -300, -252] mm and rotate to [[-1, 0, 0], [0, 1, 0], [0, 0, -1]]]
  movej(p[0.625,-0.3,-0.216,0,3.141593,0], a=0.523599, v=0.628319, r=0.005)  # [Transform: move to [625, -300, -216] mm and rotate to [[-1, 0, 0], [0, 1, 0], [0, 0, -1]]]
  movej(p[0.686487,-0.058389,-0.215672,0,3.141593,0], a=0.523599, v=0.628319, r=0.005)  # [Transform: move to [686.487, -58.389, -215.672] mm and rotate to [[-1, 0, 0], [0, 1, 0], [0, 0, -1]]]
  movej(p[0.686487,-0.058389,-0.251672,0,3.141593,0], a=0.523599, v=0.628319, r=0.005)  # [Transform: move to [686.487, -58.389, -251.672] mm and rotate to [[-1, 0, 0], [0, 1, 0], [0, 0, -1]]]
