## ###\   ###\ #####\  ######\##\  ##\##\###\   ##\ #####\ 
## ####\ ####\##\\\##\##\\\\\\##\  ##\##\####\  ##\##\\\##\
## ##\####\##\#######\##\     #######\##\##\##\ ##\#######\
## ##\\##\\##\##\\\##\##\     ##\\\##\##\##\\##\##\##\\\##\
## ##\ \\\ ##\##\  ##\\######\##\  ##\##\##\ \####\##\  ##\
## \\\     \\\\\\  \\\ \\\\\\\\\\  \\\\\\\\\  \\\\\\\\  \\\
## 
## Program name: sand_modeling
## Created: 04/04/2021 20:27:43
## 
## DISCLAIMER: WORKING WITH ROBOTS CAN BE DANGEROUS!
## When using robots in a real-time interactive environment, please make sure:
##     - You have been adequately trained to use that particular machine,
##     - you are in good physical and mental condition,
##     - you are operating the robot under the utmost security measures,
##     - you are following the facility's and facility staff's security protocols,
##     - and the robot has the appropriate guarding in place, including, but not reduced to:
##         e -stops, physical barriers, light curtains, etc.
## The Machina software framework and its generated code is provided as is;
## use at your own risk. This product is not intended for any use that may
## involve potential risks of death (including lifesaving equipment),
## personal injury, or severe property or environmental damage.
## Machina is in a very early stage of development. You are using this software
## at your own risk, no warranties are provided herewith, and unexpected
## results / bugs may arise during its use. Always test and simulate your
## applications thoroughly before running them on a real device.
## The author/s shall not be liable for any injuries, damages or losses
## consequence of using this software in any way whatsoever.
## 
## 
## Copyright(c) 2021 Jose Luis Garcia del Castillo y Lopez
## https://github.com/RobotExMachina
## 
## MIT License
## 
## Permission is hereby granted, free of charge, to any person obtaining a copy
## of this software and associated documentation files(the "Software"), to deal
## in the Software without restriction, including without limitation the rights
## to use, copy, modify, merge, publish, distribute, sublicense, and / or sell
## copies of the Software, and to permit persons to whom the Software is
## furnished to do so, subject to the following conditions:
## 
## The above copyright notice and this permission notice shall be included in all
## copies or substantial portions of the Software.
## 
## THE SOFTWARE IS PROVIDED "AS IS", WITHOUT WARRANTY OF ANY KIND, EXPRESS OR
## IMPLIED, INCLUDING BUT NOT LIMITED TO THE WARRANTIES OF MERCHANTABILITY,
## FITNESS FOR A PARTICULAR PURPOSE AND NONINFRINGEMENT. IN NO EVENT SHALL THE
## AUTHORS OR COPYRIGHT HOLDERS BE LIABLE FOR ANY CLAIM, DAMAGES OR OTHER
## LIABILITY, WHETHER IN AN ACTION OF CONTRACT, TORT OR OTHERWISE, ARISING FROM,
## OUT OF OR IN CONNECTION WITH THE SOFTWARE OR THE USE OR OTHER DEALINGS IN THE
## SOFTWARE.


def sand_modeling():

  # [Set motion type to 'Joint']
  # [Set motion speed to 36 mm/s or deg/s]
  movej(p[0.85,0,-0.05,0,3.141593,0], a=0.523599, v=0.628319, r=0.005)  # [Move to [850, 0, -50] mm]
  # [Set motion speed to 20 mm/s or deg/s]
  movej(p[0.77146,-0.15,-0.050131,0,3.141593,0], a=0.523599, v=0.349066, r=0.005)  # [Move to [771.46, -150, -50.131] mm]
  movej(p[0.77146,-0.15,-0.080131,0,3.141593,0], a=0.523599, v=0.349066, r=0.005)  # [Move to [771.46, -150, -80.131] mm]
  movej(p[0.77146,-0.15,-0.050131,0,3.141593,0], a=0.523599, v=0.349066, r=0.005)  # [Move to [771.46, -150, -50.131] mm]
  movej(p[0.773028,-0.15,-0.050131,0,3.141593,0], a=0.523599, v=0.349066, r=0.005)  # [Move to [773.028, -150, -50.131] mm]
  movej(p[0.773028,-0.15,-0.080131,0,3.141593,0], a=0.523599, v=0.349066, r=0.005)  # [Move to [773.028, -150, -80.131] mm]
  movej(p[0.773028,-0.15,-0.050131,0,3.141593,0], a=0.523599, v=0.349066, r=0.005)  # [Move to [773.028, -150, -50.131] mm]
  movej(p[0.776015,-0.15,-0.050131,0,3.141593,0], a=0.523599, v=0.349066, r=0.005)  # [Move to [776.015, -150, -50.131] mm]
  movej(p[0.776015,-0.15,-0.080131,0,3.141593,0], a=0.523599, v=0.349066, r=0.005)  # [Move to [776.015, -150, -80.131] mm]
  movej(p[0.776015,-0.15,-0.050131,0,3.141593,0], a=0.523599, v=0.349066, r=0.005)  # [Move to [776.015, -150, -50.131] mm]
  movej(p[0.78036,-0.15,-0.050131,0,3.141593,0], a=0.523599, v=0.349066, r=0.005)  # [Move to [780.36, -150, -50.131] mm]
  movej(p[0.78036,-0.15,-0.080131,0,3.141593,0], a=0.523599, v=0.349066, r=0.005)  # [Move to [780.36, -150, -80.131] mm]
  movej(p[0.78036,-0.15,-0.050131,0,3.141593,0], a=0.523599, v=0.349066, r=0.005)  # [Move to [780.36, -150, -50.131] mm]
  movej(p[0.784775,-0.15,-0.050131,0,3.141593,0], a=0.523599, v=0.349066, r=0.005)  # [Move to [784.775, -150, -50.131] mm]
  movej(p[0.784775,-0.15,-0.080131,0,3.141593,0], a=0.523599, v=0.349066, r=0.005)  # [Move to [784.775, -150, -80.131] mm]
  movej(p[0.784775,-0.15,-0.050131,0,3.141593,0], a=0.523599, v=0.349066, r=0.005)  # [Move to [784.775, -150, -50.131] mm]
  movej(p[0.789425,-0.15,-0.050131,0,3.141593,0], a=0.523599, v=0.349066, r=0.005)  # [Move to [789.425, -150, -50.131] mm]
  movej(p[0.789425,-0.15,-0.080131,0,3.141593,0], a=0.523599, v=0.349066, r=0.005)  # [Move to [789.425, -150, -80.131] mm]
  movej(p[0.789425,-0.15,-0.050131,0,3.141593,0], a=0.523599, v=0.349066, r=0.005)  # [Move to [789.425, -150, -50.131] mm]
  movej(p[0.794457,-0.15,-0.050131,0,3.141593,0], a=0.523599, v=0.349066, r=0.005)  # [Move to [794.457, -150, -50.131] mm]
  movej(p[0.794457,-0.15,-0.080131,0,3.141593,0], a=0.523599, v=0.349066, r=0.005)  # [Move to [794.457, -150, -80.131] mm]
  movej(p[0.794457,-0.15,-0.050131,0,3.141593,0], a=0.523599, v=0.349066, r=0.005)  # [Move to [794.457, -150, -50.131] mm]
  movej(p[0.799408,-0.15,-0.050131,0,3.141593,0], a=0.523599, v=0.349066, r=0.005)  # [Move to [799.408, -150, -50.131] mm]
  movej(p[0.799408,-0.15,-0.080131,0,3.141593,0], a=0.523599, v=0.349066, r=0.005)  # [Move to [799.408, -150, -80.131] mm]
  movej(p[0.799408,-0.15,-0.050131,0,3.141593,0], a=0.523599, v=0.349066, r=0.005)  # [Move to [799.408, -150, -50.131] mm]
  movej(p[0.803962,-0.15,-0.050131,0,3.141593,0], a=0.523599, v=0.349066, r=0.005)  # [Move to [803.962, -150, -50.131] mm]
  movej(p[0.803962,-0.15,-0.080131,0,3.141593,0], a=0.523599, v=0.349066, r=0.005)  # [Move to [803.962, -150, -80.131] mm]
  movej(p[0.803962,-0.15,-0.050131,0,3.141593,0], a=0.523599, v=0.349066, r=0.005)  # [Move to [803.962, -150, -50.131] mm]
  movej(p[0.808296,-0.15,-0.050131,0,3.141593,0], a=0.523599, v=0.349066, r=0.005)  # [Move to [808.296, -150, -50.131] mm]
  movej(p[0.808296,-0.15,-0.080131,0,3.141593,0], a=0.523599, v=0.349066, r=0.005)  # [Move to [808.296, -150, -80.131] mm]
  movej(p[0.808296,-0.15,-0.050131,0,3.141593,0], a=0.523599, v=0.349066, r=0.005)  # [Move to [808.296, -150, -50.131] mm]
  movej(p[0.812562,-0.15,-0.050131,0,3.141593,0], a=0.523599, v=0.349066, r=0.005)  # [Move to [812.562, -150, -50.131] mm]
  movej(p[0.812562,-0.15,-0.080131,0,3.141593,0], a=0.523599, v=0.349066, r=0.005)  # [Move to [812.562, -150, -80.131] mm]
  movej(p[0.812562,-0.15,-0.050131,0,3.141593,0], a=0.523599, v=0.349066, r=0.005)  # [Move to [812.562, -150, -50.131] mm]
  movej(p[0.816991,-0.15,-0.050131,0,3.141593,0], a=0.523599, v=0.349066, r=0.005)  # [Move to [816.991, -150, -50.131] mm]
  movej(p[0.816991,-0.15,-0.080131,0,3.141593,0], a=0.523599, v=0.349066, r=0.005)  # [Move to [816.991, -150, -80.131] mm]
  movej(p[0.816991,-0.15,-0.050131,0,3.141593,0], a=0.523599, v=0.349066, r=0.005)  # [Move to [816.991, -150, -50.131] mm]
  movej(p[0.822039,-0.15,-0.050131,0,3.141593,0], a=0.523599, v=0.349066, r=0.005)  # [Move to [822.039, -150, -50.131] mm]
  movej(p[0.822039,-0.15,-0.080131,0,3.141593,0], a=0.523599, v=0.349066, r=0.005)  # [Move to [822.039, -150, -80.131] mm]
  movej(p[0.822039,-0.15,-0.050131,0,3.141593,0], a=0.523599, v=0.349066, r=0.005)  # [Move to [822.039, -150, -50.131] mm]
  movej(p[0.827557,-0.15,-0.050131,0,3.141593,0], a=0.523599, v=0.349066, r=0.005)  # [Move to [827.557, -150, -50.131] mm]
  movej(p[0.827557,-0.15,-0.080131,0,3.141593,0], a=0.523599, v=0.349066, r=0.005)  # [Move to [827.557, -150, -80.131] mm]
  movej(p[0.827557,-0.15,-0.050131,0,3.141593,0], a=0.523599, v=0.349066, r=0.005)  # [Move to [827.557, -150, -50.131] mm]
  movej(p[0.832857,-0.15,-0.050131,0,3.141593,0], a=0.523599, v=0.349066, r=0.005)  # [Move to [832.857, -150, -50.131] mm]
  movej(p[0.832857,-0.15,-0.080131,0,3.141593,0], a=0.523599, v=0.349066, r=0.005)  # [Move to [832.857, -150, -80.131] mm]
  movej(p[0.832857,-0.15,-0.050131,0,3.141593,0], a=0.523599, v=0.349066, r=0.005)  # [Move to [832.857, -150, -50.131] mm]
  movej(p[0.837598,-0.15,-0.050131,0,3.141593,0], a=0.523599, v=0.349066, r=0.005)  # [Move to [837.598, -150, -50.131] mm]
  movej(p[0.837598,-0.15,-0.080131,0,3.141593,0], a=0.523599, v=0.349066, r=0.005)  # [Move to [837.598, -150, -80.131] mm]
  movej(p[0.837598,-0.15,-0.050131,0,3.141593,0], a=0.523599, v=0.349066, r=0.005)  # [Move to [837.598, -150, -50.131] mm]
  movej(p[0.841925,-0.15,-0.050131,0,3.141593,0], a=0.523599, v=0.349066, r=0.005)  # [Move to [841.925, -150, -50.131] mm]
  movej(p[0.841925,-0.15,-0.080131,0,3.141593,0], a=0.523599, v=0.349066, r=0.005)  # [Move to [841.925, -150, -80.131] mm]
  movej(p[0.841925,-0.15,-0.050131,0,3.141593,0], a=0.523599, v=0.349066, r=0.005)  # [Move to [841.925, -150, -50.131] mm]
  movej(p[0.846076,-0.15,-0.050131,0,3.141593,0], a=0.523599, v=0.349066, r=0.005)  # [Move to [846.076, -150, -50.131] mm]
  movej(p[0.846076,-0.15,-0.080131,0,3.141593,0], a=0.523599, v=0.349066, r=0.005)  # [Move to [846.076, -150, -80.131] mm]
  movej(p[0.846076,-0.15,-0.050131,0,3.141593,0], a=0.523599, v=0.349066, r=0.005)  # [Move to [846.076, -150, -50.131] mm]
  movej(p[0.850254,-0.15,-0.050131,0,3.141593,0], a=0.523599, v=0.349066, r=0.005)  # [Move to [850.254, -150, -50.131] mm]
  movej(p[0.850254,-0.15,-0.080131,0,3.141593,0], a=0.523599, v=0.349066, r=0.005)  # [Move to [850.254, -150, -80.131] mm]
  movej(p[0.850254,-0.15,-0.050131,0,3.141593,0], a=0.523599, v=0.349066, r=0.005)  # [Move to [850.254, -150, -50.131] mm]
  movej(p[0.854648,-0.15,-0.050131,0,3.141593,0], a=0.523599, v=0.349066, r=0.005)  # [Move to [854.648, -150, -50.131] mm]
  movej(p[0.854648,-0.15,-0.080131,0,3.141593,0], a=0.523599, v=0.349066, r=0.005)  # [Move to [854.648, -150, -80.131] mm]
  movej(p[0.854648,-0.15,-0.050131,0,3.141593,0], a=0.523599, v=0.349066, r=0.005)  # [Move to [854.648, -150, -50.131] mm]
  movej(p[0.859463,-0.15,-0.050131,0,3.141593,0], a=0.523599, v=0.349066, r=0.005)  # [Move to [859.463, -150, -50.131] mm]
  movej(p[0.859463,-0.15,-0.080131,0,3.141593,0], a=0.523599, v=0.349066, r=0.005)  # [Move to [859.463, -150, -80.131] mm]
  movej(p[0.859463,-0.15,-0.050131,0,3.141593,0], a=0.523599, v=0.349066, r=0.005)  # [Move to [859.463, -150, -50.131] mm]
  movej(p[0.864785,-0.15,-0.050131,0,3.141593,0], a=0.523599, v=0.349066, r=0.005)  # [Move to [864.785, -150, -50.131] mm]
  movej(p[0.864785,-0.15,-0.080131,0,3.141593,0], a=0.523599, v=0.349066, r=0.005)  # [Move to [864.785, -150, -80.131] mm]
  movej(p[0.864785,-0.15,-0.050131,0,3.141593,0], a=0.523599, v=0.349066, r=0.005)  # [Move to [864.785, -150, -50.131] mm]
  movej(p[0.870237,-0.15,-0.050131,0,3.141593,0], a=0.523599, v=0.349066, r=0.005)  # [Move to [870.237, -150, -50.131] mm]
  movej(p[0.870237,-0.15,-0.080131,0,3.141593,0], a=0.523599, v=0.349066, r=0.005)  # [Move to [870.237, -150, -80.131] mm]
  movej(p[0.870237,-0.15,-0.050131,0,3.141593,0], a=0.523599, v=0.349066, r=0.005)  # [Move to [870.237, -150, -50.131] mm]
  movej(p[0.875807,-0.15,-0.050131,0,3.141593,0], a=0.523599, v=0.349066, r=0.005)  # [Move to [875.807, -150, -50.131] mm]
  movej(p[0.875807,-0.15,-0.080131,0,3.141593,0], a=0.523599, v=0.349066, r=0.005)  # [Move to [875.807, -150, -80.131] mm]
  movej(p[0.875807,-0.15,-0.050131,0,3.141593,0], a=0.523599, v=0.349066, r=0.005)  # [Move to [875.807, -150, -50.131] mm]
  movej(p[0.881646,-0.15,-0.050131,0,3.141593,0], a=0.523599, v=0.349066, r=0.005)  # [Move to [881.646, -150, -50.131] mm]
  movej(p[0.881646,-0.15,-0.080131,0,3.141593,0], a=0.523599, v=0.349066, r=0.005)  # [Move to [881.646, -150, -80.131] mm]
  movej(p[0.881646,-0.15,-0.050131,0,3.141593,0], a=0.523599, v=0.349066, r=0.005)  # [Move to [881.646, -150, -50.131] mm]
  movej(p[0.887124,-0.15,-0.050131,0,3.141593,0], a=0.523599, v=0.349066, r=0.005)  # [Move to [887.124, -150, -50.131] mm]
  movej(p[0.887124,-0.15,-0.080131,0,3.141593,0], a=0.523599, v=0.349066, r=0.005)  # [Move to [887.124, -150, -80.131] mm]
  movej(p[0.887124,-0.15,-0.050131,0,3.141593,0], a=0.523599, v=0.349066, r=0.005)  # [Move to [887.124, -150, -50.131] mm]
  movej(p[0.891846,-0.15,-0.050131,0,3.141593,0], a=0.523599, v=0.349066, r=0.005)  # [Move to [891.846, -150, -50.131] mm]
  movej(p[0.891846,-0.15,-0.080131,0,3.141593,0], a=0.523599, v=0.349066, r=0.005)  # [Move to [891.846, -150, -80.131] mm]
  movej(p[0.891846,-0.15,-0.050131,0,3.141593,0], a=0.523599, v=0.349066, r=0.005)  # [Move to [891.846, -150, -50.131] mm]
  movej(p[0.896267,-0.15,-0.050131,0,3.141593,0], a=0.523599, v=0.349066, r=0.005)  # [Move to [896.267, -150, -50.131] mm]
  movej(p[0.896267,-0.15,-0.080131,0,3.141593,0], a=0.523599, v=0.349066, r=0.005)  # [Move to [896.267, -150, -80.131] mm]
  movej(p[0.896267,-0.15,-0.050131,0,3.141593,0], a=0.523599, v=0.349066, r=0.005)  # [Move to [896.267, -150, -50.131] mm]
  movej(p[0.900637,-0.15,-0.050131,0,3.141593,0], a=0.523599, v=0.349066, r=0.005)  # [Move to [900.637, -150, -50.131] mm]
  movej(p[0.900637,-0.15,-0.080131,0,3.141593,0], a=0.523599, v=0.349066, r=0.005)  # [Move to [900.637, -150, -80.131] mm]
  movej(p[0.900637,-0.15,-0.050131,0,3.141593,0], a=0.523599, v=0.349066, r=0.005)  # [Move to [900.637, -150, -50.131] mm]
  movej(p[0.905198,-0.15,-0.050131,0,3.141593,0], a=0.523599, v=0.349066, r=0.005)  # [Move to [905.198, -150, -50.131] mm]
  movej(p[0.905198,-0.15,-0.080131,0,3.141593,0], a=0.523599, v=0.349066, r=0.005)  # [Move to [905.198, -150, -80.131] mm]
  movej(p[0.905198,-0.15,-0.050131,0,3.141593,0], a=0.523599, v=0.349066, r=0.005)  # [Move to [905.198, -150, -50.131] mm]
  movej(p[0.910104,-0.15,-0.050131,0,3.141593,0], a=0.523599, v=0.349066, r=0.005)  # [Move to [910.104, -150, -50.131] mm]
  movej(p[0.910104,-0.15,-0.080131,0,3.141593,0], a=0.523599, v=0.349066, r=0.005)  # [Move to [910.104, -150, -80.131] mm]
  movej(p[0.910104,-0.15,-0.050131,0,3.141593,0], a=0.523599, v=0.349066, r=0.005)  # [Move to [910.104, -150, -50.131] mm]
  movej(p[0.914996,-0.15,-0.050131,0,3.141593,0], a=0.523599, v=0.349066, r=0.005)  # [Move to [914.996, -150, -50.131] mm]
  movej(p[0.914996,-0.15,-0.080131,0,3.141593,0], a=0.523599, v=0.349066, r=0.005)  # [Move to [914.996, -150, -80.131] mm]
  movej(p[0.914996,-0.15,-0.050131,0,3.141593,0], a=0.523599, v=0.349066, r=0.005)  # [Move to [914.996, -150, -50.131] mm]
  movej(p[0.919654,-0.15,-0.050131,0,3.141593,0], a=0.523599, v=0.349066, r=0.005)  # [Move to [919.654, -150, -50.131] mm]
  movej(p[0.919654,-0.15,-0.080131,0,3.141593,0], a=0.523599, v=0.349066, r=0.005)  # [Move to [919.654, -150, -80.131] mm]
  movej(p[0.919654,-0.15,-0.050131,0,3.141593,0], a=0.523599, v=0.349066, r=0.005)  # [Move to [919.654, -150, -50.131] mm]
  movej(p[0.92413,-0.15,-0.050131,0,3.141593,0], a=0.523599, v=0.349066, r=0.005)  # [Move to [924.13, -150, -50.131] mm]
  movej(p[0.92413,-0.15,-0.080131,0,3.141593,0], a=0.523599, v=0.349066, r=0.005)  # [Move to [924.13, -150, -80.131] mm]
  movej(p[0.92413,-0.15,-0.050131,0,3.141593,0], a=0.523599, v=0.349066, r=0.005)  # [Move to [924.13, -150, -50.131] mm]
  movej(p[0.927064,-0.15,-0.050131,0,3.141593,0], a=0.523599, v=0.349066, r=0.005)  # [Move to [927.064, -150, -50.131] mm]
  movej(p[0.927064,-0.15,-0.080131,0,3.141593,0], a=0.523599, v=0.349066, r=0.005)  # [Move to [927.064, -150, -80.131] mm]
  movej(p[0.927064,-0.15,-0.050131,0,3.141593,0], a=0.523599, v=0.349066, r=0.005)  # [Move to [927.064, -150, -50.131] mm]
  movej(p[0.92854,-0.15,-0.050131,0,3.141593,0], a=0.523599, v=0.349066, r=0.005)  # [Move to [928.54, -150, -50.131] mm]
  movej(p[0.92854,-0.15,-0.080131,0,3.141593,0], a=0.523599, v=0.349066, r=0.005)  # [Move to [928.54, -150, -80.131] mm]
  movej(p[0.92854,-0.15,-0.050131,0,3.141593,0], a=0.523599, v=0.349066, r=0.005)  # [Move to [928.54, -150, -50.131] mm]
  movej(p[0.77146,-0.14825,-0.050131,0,3.141593,0], a=0.523599, v=0.349066, r=0.005)  # [Move to [771.46, -148.25, -50.131] mm]
  movej(p[0.77146,-0.14825,-0.080131,0,3.141593,0], a=0.523599, v=0.349066, r=0.005)  # [Move to [771.46, -148.25, -80.131] mm]
  movej(p[0.77146,-0.14825,-0.050131,0,3.141593,0], a=0.523599, v=0.349066, r=0.005)  # [Move to [771.46, -148.25, -50.131] mm]
  movej(p[0.773028,-0.14825,-0.050114,0,3.141593,0], a=0.523599, v=0.349066, r=0.005)  # [Move to [773.028, -148.25, -50.114] mm]
  movej(p[0.773028,-0.14825,-0.080114,0,3.141593,0], a=0.523599, v=0.349066, r=0.005)  # [Move to [773.028, -148.25, -80.114] mm]
  movej(p[0.773028,-0.14825,-0.050114,0,3.141593,0], a=0.523599, v=0.349066, r=0.005)  # [Move to [773.028, -148.25, -50.114] mm]
  movej(p[0.776015,-0.14825,-0.050085,0,3.141593,0], a=0.523599, v=0.349066, r=0.005)  # [Move to [776.015, -148.25, -50.085] mm]
  movej(p[0.776015,-0.14825,-0.080085,0,3.141593,0], a=0.523599, v=0.349066, r=0.005)  # [Move to [776.015, -148.25, -80.085] mm]
  movej(p[0.776015,-0.14825,-0.050085,0,3.141593,0], a=0.523599, v=0.349066, r=0.005)  # [Move to [776.015, -148.25, -50.085] mm]
  movej(p[0.780355,-0.14825,-0.050043,0,3.141593,0], a=0.523599, v=0.349066, r=0.005)  # [Move to [780.355, -148.25, -50.043] mm]
  movej(p[0.780355,-0.14825,-0.080043,0,3.141593,0], a=0.523599, v=0.349066, r=0.005)  # [Move to [780.355, -148.25, -80.043] mm]
  movej(p[0.780355,-0.14825,-0.050043,0,3.141593,0], a=0.523599, v=0.349066, r=0.005)  # [Move to [780.355, -148.25, -50.043] mm]
  movej(p[0.784765,-0.14825,-0.05,0,3.141593,0], a=0.523599, v=0.349066, r=0.005)  # [Move to [784.765, -148.25, -50] mm]
  movej(p[0.784765,-0.14825,-0.08,0,3.141593,0], a=0.523599, v=0.349066, r=0.005)  # [Move to [784.765, -148.25, -80] mm]
  movej(p[0.784765,-0.14825,-0.05,0,3.141593,0], a=0.523599, v=0.349066, r=0.005)  # [Move to [784.765, -148.25, -50] mm]
  movej(p[0.789408,-0.14825,-0.049952,0,3.141593,0], a=0.523599, v=0.349066, r=0.005)  # [Move to [789.408, -148.25, -49.952] mm]
  movej(p[0.789408,-0.14825,-0.079952,0,3.141593,0], a=0.523599, v=0.349066, r=0.005)  # [Move to [789.408, -148.25, -79.952] mm]
  movej(p[0.789408,-0.14825,-0.049952,0,3.141593,0], a=0.523599, v=0.349066, r=0.005)  # [Move to [789.408, -148.25, -49.952] mm]
  movej(p[0.794434,-0.14825,-0.049893,0,3.141593,0], a=0.523599, v=0.349066, r=0.005)  # [Move to [794.434, -148.25, -49.893] mm]
  movej(p[0.794434,-0.14825,-0.079893,0,3.141593,0], a=0.523599, v=0.349066, r=0.005)  # [Move to [794.434, -148.25, -79.893] mm]
  movej(p[0.794434,-0.14825,-0.049893,0,3.141593,0], a=0.523599, v=0.349066, r=0.005)  # [Move to [794.434, -148.25, -49.893] mm]
  movej(p[0.79938,-0.14825,-0.049825,0,3.141593,0], a=0.523599, v=0.349066, r=0.005)  # [Move to [799.38, -148.25, -49.825] mm]
  movej(p[0.79938,-0.14825,-0.079825,0,3.141593,0], a=0.523599, v=0.349066, r=0.005)  # [Move to [799.38, -148.25, -79.825] mm]
  movej(p[0.79938,-0.14825,-0.049825,0,3.141593,0], a=0.523599, v=0.349066, r=0.005)  # [Move to [799.38, -148.25, -49.825] mm]
  movej(p[0.803933,-0.14825,-0.049758,0,3.141593,0], a=0.523599, v=0.349066, r=0.005)  # [Move to [803.933, -148.25, -49.758] mm]
  movej(p[0.803933,-0.14825,-0.079758,0,3.141593,0], a=0.523599, v=0.349066, r=0.005)  # [Move to [803.933, -148.25, -79.758] mm]
  movej(p[0.803933,-0.14825,-0.049758,0,3.141593,0], a=0.523599, v=0.349066, r=0.005)  # [Move to [803.933, -148.25, -49.758] mm]
  movej(p[0.808268,-0.14825,-0.049696,0,3.141593,0], a=0.523599, v=0.349066, r=0.005)  # [Move to [808.268, -148.25, -49.696] mm]
  movej(p[0.808268,-0.14825,-0.079696,0,3.141593,0], a=0.523599, v=0.349066, r=0.005)  # [Move to [808.268, -148.25, -79.696] mm]
  movej(p[0.808268,-0.14825,-0.049696,0,3.141593,0], a=0.523599, v=0.349066, r=0.005)  # [Move to [808.268, -148.25, -49.696] mm]
  movej(p[0.812537,-0.14825,-0.049637,0,3.141593,0], a=0.523599, v=0.349066, r=0.005)  # [Move to [812.537, -148.25, -49.637] mm]
  movej(p[0.812537,-0.14825,-0.079637,0,3.141593,0], a=0.523599, v=0.349066, r=0.005)  # [Move to [812.537, -148.25, -79.637] mm]
  movej(p[0.812537,-0.14825,-0.049637,0,3.141593,0], a=0.523599, v=0.349066, r=0.005)  # [Move to [812.537, -148.25, -49.637] mm]
  movej(p[0.816973,-0.14825,-0.049583,0,3.141593,0], a=0.523599, v=0.349066, r=0.005)  # [Move to [816.973, -148.25, -49.583] mm]
  movej(p[0.816973,-0.14825,-0.079583,0,3.141593,0], a=0.523599, v=0.349066, r=0.005)  # [Move to [816.973, -148.25, -79.583] mm]
  movej(p[0.816973,-0.14825,-0.049583,0,3.141593,0], a=0.523599, v=0.349066, r=0.005)  # [Move to [816.973, -148.25, -49.583] mm]
  movej(p[0.822031,-0.14825,-0.049534,0,3.141593,0], a=0.523599, v=0.349066, r=0.005)  # [Move to [822.031, -148.25, -49.534] mm]
  movej(p[0.822031,-0.14825,-0.079534,0,3.141593,0], a=0.523599, v=0.349066, r=0.005)  # [Move to [822.031, -148.25, -79.534] mm]
  movej(p[0.822031,-0.14825,-0.049534,0,3.141593,0], a=0.523599, v=0.349066, r=0.005)  # [Move to [822.031, -148.25, -49.534] mm]
  movej(p[0.827562,-0.14825,-0.0495,0,3.141593,0], a=0.523599, v=0.349066, r=0.005)  # [Move to [827.562, -148.25, -49.5] mm]
  movej(p[0.827562,-0.14825,-0.0795,0,3.141593,0], a=0.523599, v=0.349066, r=0.005)  # [Move to [827.562, -148.25, -79.5] mm]
  movej(p[0.827562,-0.14825,-0.0495,0,3.141593,0], a=0.523599, v=0.349066, r=0.005)  # [Move to [827.562, -148.25, -49.5] mm]
  movej(p[0.832873,-0.14825,-0.049493,0,3.141593,0], a=0.523599, v=0.349066, r=0.005)  # [Move to [832.873, -148.25, -49.493] mm]
  movej(p[0.832873,-0.14825,-0.079493,0,3.141593,0], a=0.523599, v=0.349066, r=0.005)  # [Move to [832.873, -148.25, -79.493] mm]
  movej(p[0.832873,-0.14825,-0.049493,0,3.141593,0], a=0.523599, v=0.349066, r=0.005)  # [Move to [832.873, -148.25, -49.493] mm]
  movej(p[0.837619,-0.14825,-0.04951,0,3.141593,0], a=0.523599, v=0.349066, r=0.005)  # [Move to [837.619, -148.25, -49.51] mm]
  movej(p[0.837619,-0.14825,-0.07951,0,3.141593,0], a=0.523599, v=0.349066, r=0.005)  # [Move to [837.619, -148.25, -79.51] mm]
  movej(p[0.837619,-0.14825,-0.04951,0,3.141593,0], a=0.523599, v=0.349066, r=0.005)  # [Move to [837.619, -148.25, -49.51] mm]
  movej(p[0.841946,-0.14825,-0.049546,0,3.141593,0], a=0.523599, v=0.349066, r=0.005)  # [Move to [841.946, -148.25, -49.546] mm]
  movej(p[0.841946,-0.14825,-0.079546,0,3.141593,0], a=0.523599, v=0.349066, r=0.005)  # [Move to [841.946, -148.25, -79.546] mm]
  movej(p[0.841946,-0.14825,-0.049546,0,3.141593,0], a=0.523599, v=0.349066, r=0.005)  # [Move to [841.946, -148.25, -49.546] mm]
  movej(p[0.846091,-0.14825,-0.0496,0,3.141593,0], a=0.523599, v=0.349066, r=0.005)  # [Move to [846.091, -148.25, -49.6] mm]
  movej(p[0.846091,-0.14825,-0.0796,0,3.141593,0], a=0.523599, v=0.349066, r=0.005)  # [Move to [846.091, -148.25, -79.6] mm]
  movej(p[0.846091,-0.14825,-0.0496,0,3.141593,0], a=0.523599, v=0.349066, r=0.005)  # [Move to [846.091, -148.25, -49.6] mm]
  movej(p[0.850261,-0.14825,-0.049669,0,3.141593,0], a=0.523599, v=0.349066, r=0.005)  # [Move to [850.261, -148.25, -49.669] mm]
  movej(p[0.850261,-0.14825,-0.079669,0,3.141593,0], a=0.523599, v=0.349066, r=0.005)  # [Move to [850.261, -148.25, -79.669] mm]
  movej(p[0.850261,-0.14825,-0.049669,0,3.141593,0], a=0.523599, v=0.349066, r=0.005)  # [Move to [850.261, -148.25, -49.669] mm]
  movej(p[0.854646,-0.14825,-0.049757,0,3.141593,0], a=0.523599, v=0.349066, r=0.005)  # [Move to [854.646, -148.25, -49.757] mm]
  movej(p[0.854646,-0.14825,-0.079757,0,3.141593,0], a=0.523599, v=0.349066, r=0.005)  # [Move to [854.646, -148.25, -79.757] mm]
  movej(p[0.854646,-0.14825,-0.049757,0,3.141593,0], a=0.523599, v=0.349066, r=0.005)  # [Move to [854.646, -148.25, -49.757] mm]
  movej(p[0.859453,-0.14825,-0.049868,0,3.141593,0], a=0.523599, v=0.349066, r=0.005)  # [Move to [859.453, -148.25, -49.868] mm]
  movej(p[0.859453,-0.14825,-0.079868,0,3.141593,0], a=0.523599, v=0.349066, r=0.005)  # [Move to [859.453, -148.25, -79.868] mm]
  movej(p[0.859453,-0.14825,-0.049868,0,3.141593,0], a=0.523599, v=0.349066, r=0.005)  # [Move to [859.453, -148.25, -49.868] mm]
  movej(p[0.864769,-0.14825,-0.050004,0,3.141593,0], a=0.523599, v=0.349066, r=0.005)  # [Move to [864.769, -148.25, -50.004] mm]
  movej(p[0.864769,-0.14825,-0.080004,0,3.141593,0], a=0.523599, v=0.349066, r=0.005)  # [Move to [864.769, -148.25, -80.004] mm]
  movej(p[0.864769,-0.14825,-0.050004,0,3.141593,0], a=0.523599, v=0.349066, r=0.005)  # [Move to [864.769, -148.25, -50.004] mm]
  movej(p[0.87022,-0.14825,-0.050151,0,3.141593,0], a=0.523599, v=0.349066, r=0.005)  # [Move to [870.22, -148.25, -50.151] mm]
  movej(p[0.87022,-0.14825,-0.080151,0,3.141593,0], a=0.523599, v=0.349066, r=0.005)  # [Move to [870.22, -148.25, -80.151] mm]
  movej(p[0.87022,-0.14825,-0.050151,0,3.141593,0], a=0.523599, v=0.349066, r=0.005)  # [Move to [870.22, -148.25, -50.151] mm]
  movej(p[0.875789,-0.14825,-0.050299,0,3.141593,0], a=0.523599, v=0.349066, r=0.005)  # [Move to [875.789, -148.25, -50.299] mm]
  movej(p[0.875789,-0.14825,-0.080299,0,3.141593,0], a=0.523599, v=0.349066, r=0.005)  # [Move to [875.789, -148.25, -80.299] mm]
  movej(p[0.875789,-0.14825,-0.050299,0,3.141593,0], a=0.523599, v=0.349066, r=0.005)  # [Move to [875.789, -148.25, -50.299] mm]
  movej(p[0.881626,-0.14825,-0.050443,0,3.141593,0], a=0.523599, v=0.349066, r=0.005)  # [Move to [881.626, -148.25, -50.443] mm]
  movej(p[0.881626,-0.14825,-0.080443,0,3.141593,0], a=0.523599, v=0.349066, r=0.005)  # [Move to [881.626, -148.25, -80.443] mm]
  movej(p[0.881626,-0.14825,-0.050443,0,3.141593,0], a=0.523599, v=0.349066, r=0.005)  # [Move to [881.626, -148.25, -50.443] mm]
  movej(p[0.887097,-0.14825,-0.050556,0,3.141593,0], a=0.523599, v=0.349066, r=0.005)  # [Move to [887.097, -148.25, -50.556] mm]
  movej(p[0.887097,-0.14825,-0.080556,0,3.141593,0], a=0.523599, v=0.349066, r=0.005)  # [Move to [887.097, -148.25, -80.556] mm]
  movej(p[0.887097,-0.14825,-0.050556,0,3.141593,0], a=0.523599, v=0.349066, r=0.005)  # [Move to [887.097, -148.25, -50.556] mm]
  movej(p[0.891811,-0.14825,-0.050634,0,3.141593,0], a=0.523599, v=0.349066, r=0.005)  # [Move to [891.811, -148.25, -50.634] mm]
  movej(p[0.891811,-0.14825,-0.080634,0,3.141593,0], a=0.523599, v=0.349066, r=0.005)  # [Move to [891.811, -148.25, -80.634] mm]
  movej(p[0.891811,-0.14825,-0.050634,0,3.141593,0], a=0.523599, v=0.349066, r=0.005)  # [Move to [891.811, -148.25, -50.634] mm]
  movej(p[0.896224,-0.14825,-0.050691,0,3.141593,0], a=0.523599, v=0.349066, r=0.005)  # [Move to [896.224, -148.25, -50.691] mm]
  movej(p[0.896224,-0.14825,-0.080691,0,3.141593,0], a=0.523599, v=0.349066, r=0.005)  # [Move to [896.224, -148.25, -80.691] mm]
  movej(p[0.896224,-0.14825,-0.050691,0,3.141593,0], a=0.523599, v=0.349066, r=0.005)  # [Move to [896.224, -148.25, -50.691] mm]
  movej(p[0.900588,-0.14825,-0.050731,0,3.141593,0], a=0.523599, v=0.349066, r=0.005)  # [Move to [900.588, -148.25, -50.731] mm]
  movej(p[0.900588,-0.14825,-0.080731,0,3.141593,0], a=0.523599, v=0.349066, r=0.005)  # [Move to [900.588, -148.25, -80.731] mm]
  movej(p[0.900588,-0.14825,-0.050731,0,3.141593,0], a=0.523599, v=0.349066, r=0.005)  # [Move to [900.588, -148.25, -50.731] mm]
  movej(p[0.905146,-0.14825,-0.050755,0,3.141593,0], a=0.523599, v=0.349066, r=0.005)  # [Move to [905.146, -148.25, -50.755] mm]
  movej(p[0.905146,-0.14825,-0.080755,0,3.141593,0], a=0.523599, v=0.349066, r=0.005)  # [Move to [905.146, -148.25, -80.755] mm]
  movej(p[0.905146,-0.14825,-0.050755,0,3.141593,0], a=0.523599, v=0.349066, r=0.005)  # [Move to [905.146, -148.25, -50.755] mm]
  movej(p[0.910054,-0.14825,-0.05076,0,3.141593,0], a=0.523599, v=0.349066, r=0.005)  # [Move to [910.054, -148.25, -50.76] mm]
  movej(p[0.910054,-0.14825,-0.08076,0,3.141593,0], a=0.523599, v=0.349066, r=0.005)  # [Move to [910.054, -148.25, -80.76] mm]
  movej(p[0.910054,-0.14825,-0.05076,0,3.141593,0], a=0.523599, v=0.349066, r=0.005)  # [Move to [910.054, -148.25, -50.76] mm]
  movej(p[0.914953,-0.14825,-0.050744,0,3.141593,0], a=0.523599, v=0.349066, r=0.005)  # [Move to [914.953, -148.25, -50.744] mm]
  movej(p[0.914953,-0.14825,-0.080744,0,3.141593,0], a=0.523599, v=0.349066, r=0.005)  # [Move to [914.953, -148.25, -80.744] mm]
  movej(p[0.914953,-0.14825,-0.050744,0,3.141593,0], a=0.523599, v=0.349066, r=0.005)  # [Move to [914.953, -148.25, -50.744] mm]
  movej(p[0.919622,-0.14825,-0.050709,0,3.141593,0], a=0.523599, v=0.349066, r=0.005)  # [Move to [919.622, -148.25, -50.709] mm]
  movej(p[0.919622,-0.14825,-0.080709,0,3.141593,0], a=0.523599, v=0.349066, r=0.005)  # [Move to [919.622, -148.25, -80.709] mm]
  movej(p[0.919622,-0.14825,-0.050709,0,3.141593,0], a=0.523599, v=0.349066, r=0.005)  # [Move to [919.622, -148.25, -50.709] mm]
  movej(p[0.924112,-0.14825,-0.05066,0,3.141593,0], a=0.523599, v=0.349066, r=0.005)  # [Move to [924.112, -148.25, -50.66] mm]
  movej(p[0.924112,-0.14825,-0.08066,0,3.141593,0], a=0.523599, v=0.349066, r=0.005)  # [Move to [924.112, -148.25, -80.66] mm]
  movej(p[0.924112,-0.14825,-0.05066,0,3.141593,0], a=0.523599, v=0.349066, r=0.005)  # [Move to [924.112, -148.25, -50.66] mm]
  movej(p[0.927058,-0.14825,-0.050619,0,3.141593,0], a=0.523599, v=0.349066, r=0.005)  # [Move to [927.058, -148.25, -50.619] mm]
  movej(p[0.927058,-0.14825,-0.080619,0,3.141593,0], a=0.523599, v=0.349066, r=0.005)  # [Move to [927.058, -148.25, -80.619] mm]
  movej(p[0.927058,-0.14825,-0.050619,0,3.141593,0], a=0.523599, v=0.349066, r=0.005)  # [Move to [927.058, -148.25, -50.619] mm]
  movej(p[0.92854,-0.14825,-0.050596,0,3.141593,0], a=0.523599, v=0.349066, r=0.005)  # [Move to [928.54, -148.25, -50.596] mm]
  movej(p[0.92854,-0.14825,-0.080596,0,3.141593,0], a=0.523599, v=0.349066, r=0.005)  # [Move to [928.54, -148.25, -80.596] mm]
  movej(p[0.92854,-0.14825,-0.050596,0,3.141593,0], a=0.523599, v=0.349066, r=0.005)  # [Move to [928.54, -148.25, -50.596] mm]
  movej(p[0.77146,-0.144747,-0.050131,0,3.141593,0], a=0.523599, v=0.349066, r=0.005)  # [Move to [771.46, -144.747, -50.131] mm]
  movej(p[0.77146,-0.144747,-0.080131,0,3.141593,0], a=0.523599, v=0.349066, r=0.005)  # [Move to [771.46, -144.747, -80.131] mm]
  movej(p[0.77146,-0.144747,-0.050131,0,3.141593,0], a=0.523599, v=0.349066, r=0.005)  # [Move to [771.46, -144.747, -50.131] mm]
  movej(p[0.773028,-0.144747,-0.050082,0,3.141593,0], a=0.523599, v=0.349066, r=0.005)  # [Move to [773.028, -144.747, -50.082] mm]
  movej(p[0.773028,-0.144747,-0.080082,0,3.141593,0], a=0.523599, v=0.349066, r=0.005)  # [Move to [773.028, -144.747, -80.082] mm]
  movej(p[0.773028,-0.144747,-0.050082,0,3.141593,0], a=0.523599, v=0.349066, r=0.005)  # [Move to [773.028, -144.747, -50.082] mm]
  movej(p[0.776013,-0.144747,-0.049993,0,3.141593,0], a=0.523599, v=0.349066, r=0.005)  # [Move to [776.013, -144.747, -49.993] mm]
  movej(p[0.776013,-0.144747,-0.079993,0,3.141593,0], a=0.523599, v=0.349066, r=0.005)  # [Move to [776.013, -144.747, -79.993] mm]
  movej(p[0.776013,-0.144747,-0.049993,0,3.141593,0], a=0.523599, v=0.349066, r=0.005)  # [Move to [776.013, -144.747, -49.993] mm]
  movej(p[0.780345,-0.144747,-0.049869,0,3.141593,0], a=0.523599, v=0.349066, r=0.005)  # [Move to [780.345, -144.747, -49.869] mm]
  movej(p[0.780345,-0.144747,-0.079869,0,3.141593,0], a=0.523599, v=0.349066, r=0.005)  # [Move to [780.345, -144.747, -79.869] mm]
  movej(p[0.780345,-0.144747,-0.049869,0,3.141593,0], a=0.523599, v=0.349066, r=0.005)  # [Move to [780.345, -144.747, -49.869] mm]
  movej(p[0.784744,-0.144747,-0.049741,0,3.141593,0], a=0.523599, v=0.349066, r=0.005)  # [Move to [784.744, -144.747, -49.741] mm]
  movej(p[0.784744,-0.144747,-0.079741,0,3.141593,0], a=0.523599, v=0.349066, r=0.005)  # [Move to [784.744, -144.747, -79.741] mm]
  movej(p[0.784744,-0.144747,-0.049741,0,3.141593,0], a=0.523599, v=0.349066, r=0.005)  # [Move to [784.744, -144.747, -49.741] mm]
  movej(p[0.789375,-0.144747,-0.049598,0,3.141593,0], a=0.523599, v=0.349066, r=0.005)  # [Move to [789.375, -144.747, -49.598] mm]
  movej(p[0.789375,-0.144747,-0.079598,0,3.141593,0], a=0.523599, v=0.349066, r=0.005)  # [Move to [789.375, -144.747, -79.598] mm]
  movej(p[0.789375,-0.144747,-0.049598,0,3.141593,0], a=0.523599, v=0.349066, r=0.005)  # [Move to [789.375, -144.747, -49.598] mm]
  movej(p[0.794389,-0.144747,-0.049425,0,3.141593,0], a=0.523599, v=0.349066, r=0.005)  # [Move to [794.389, -144.747, -49.425] mm]
  movej(p[0.794389,-0.144747,-0.079425,0,3.141593,0], a=0.523599, v=0.349066, r=0.005)  # [Move to [794.389, -144.747, -79.425] mm]
  movej(p[0.794389,-0.144747,-0.049425,0,3.141593,0], a=0.523599, v=0.349066, r=0.005)  # [Move to [794.389, -144.747, -49.425] mm]
  movej(p[0.799327,-0.144747,-0.049227,0,3.141593,0], a=0.523599, v=0.349066, r=0.005)  # [Move to [799.327, -144.747, -49.227] mm]
  movej(p[0.799327,-0.144747,-0.079227,0,3.141593,0], a=0.523599, v=0.349066, r=0.005)  # [Move to [799.327, -144.747, -79.227] mm]
  movej(p[0.799327,-0.144747,-0.049227,0,3.141593,0], a=0.523599, v=0.349066, r=0.005)  # [Move to [799.327, -144.747, -49.227] mm]
  movej(p[0.803876,-0.144747,-0.049035,0,3.141593,0], a=0.523599, v=0.349066, r=0.005)  # [Move to [803.876, -144.747, -49.035] mm]
  movej(p[0.803876,-0.144747,-0.079035,0,3.141593,0], a=0.523599, v=0.349066, r=0.005)  # [Move to [803.876, -144.747, -79.035] mm]
  movej(p[0.803876,-0.144747,-0.049035,0,3.141593,0], a=0.523599, v=0.349066, r=0.005)  # [Move to [803.876, -144.747, -49.035] mm]
  movej(p[0.808212,-0.144747,-0.048853,0,3.141593,0], a=0.523599, v=0.349066, r=0.005)  # [Move to [808.212, -144.747, -48.853] mm]
  movej(p[0.808212,-0.144747,-0.078853,0,3.141593,0], a=0.523599, v=0.349066, r=0.005)  # [Move to [808.212, -144.747, -78.853] mm]
  movej(p[0.808212,-0.144747,-0.048853,0,3.141593,0], a=0.523599, v=0.349066, r=0.005)  # [Move to [808.212, -144.747, -48.853] mm]
  movej(p[0.812488,-0.144747,-0.048684,0,3.141593,0], a=0.523599, v=0.349066, r=0.005)  # [Move to [812.488, -144.747, -48.684] mm]
  movej(p[0.812488,-0.144747,-0.078684,0,3.141593,0], a=0.523599, v=0.349066, r=0.005)  # [Move to [812.488, -144.747, -78.684] mm]
  movej(p[0.812488,-0.144747,-0.048684,0,3.141593,0], a=0.523599, v=0.349066, r=0.005)  # [Move to [812.488, -144.747, -48.684] mm]
  movej(p[0.816935,-0.144747,-0.048528,0,3.141593,0], a=0.523599, v=0.349066, r=0.005)  # [Move to [816.935, -144.747, -48.528] mm]
  movej(p[0.816935,-0.144747,-0.078528,0,3.141593,0], a=0.523599, v=0.349066, r=0.005)  # [Move to [816.935, -144.747, -78.528] mm]
  movej(p[0.816935,-0.144747,-0.048528,0,3.141593,0], a=0.523599, v=0.349066, r=0.005)  # [Move to [816.935, -144.747, -48.528] mm]
  movej(p[0.822014,-0.144747,-0.048384,0,3.141593,0], a=0.523599, v=0.349066, r=0.005)  # [Move to [822.014, -144.747, -48.384] mm]
  movej(p[0.822014,-0.144747,-0.078384,0,3.141593,0], a=0.523599, v=0.349066, r=0.005)  # [Move to [822.014, -144.747, -78.384] mm]
  movej(p[0.822014,-0.144747,-0.048384,0,3.141593,0], a=0.523599, v=0.349066, r=0.005)  # [Move to [822.014, -144.747, -48.384] mm]
  movej(p[0.82757,-0.144747,-0.048285,0,3.141593,0], a=0.523599, v=0.349066, r=0.005)  # [Move to [827.57, -144.747, -48.285] mm]
  movej(p[0.82757,-0.144747,-0.078285,0,3.141593,0], a=0.523599, v=0.349066, r=0.005)  # [Move to [827.57, -144.747, -78.285] mm]
  movej(p[0.82757,-0.144747,-0.048285,0,3.141593,0], a=0.523599, v=0.349066, r=0.005)  # [Move to [827.57, -144.747, -48.285] mm]
  movej(p[0.832901,-0.144747,-0.048259,0,3.141593,0], a=0.523599, v=0.349066, r=0.005)  # [Move to [832.901, -144.747, -48.259] mm]
  movej(p[0.832901,-0.144747,-0.078259,0,3.141593,0], a=0.523599, v=0.349066, r=0.005)  # [Move to [832.901, -144.747, -78.259] mm]
  movej(p[0.832901,-0.144747,-0.048259,0,3.141593,0], a=0.523599, v=0.349066, r=0.005)  # [Move to [832.901, -144.747, -48.259] mm]
  movej(p[0.837657,-0.144747,-0.048304,0,3.141593,0], a=0.523599, v=0.349066, r=0.005)  # [Move to [837.657, -144.747, -48.304] mm]
  movej(p[0.837657,-0.144747,-0.078304,0,3.141593,0], a=0.523599, v=0.349066, r=0.005)  # [Move to [837.657, -144.747, -78.304] mm]
  movej(p[0.837657,-0.144747,-0.048304,0,3.141593,0], a=0.523599, v=0.349066, r=0.005)  # [Move to [837.657, -144.747, -48.304] mm]
  movej(p[0.841982,-0.144747,-0.048407,0,3.141593,0], a=0.523599, v=0.349066, r=0.005)  # [Move to [841.982, -144.747, -48.407] mm]
  movej(p[0.841982,-0.144747,-0.078407,0,3.141593,0], a=0.523599, v=0.349066, r=0.005)  # [Move to [841.982, -144.747, -78.407] mm]
  movej(p[0.841982,-0.144747,-0.048407,0,3.141593,0], a=0.523599, v=0.349066, r=0.005)  # [Move to [841.982, -144.747, -48.407] mm]
  movej(p[0.846118,-0.144747,-0.048561,0,3.141593,0], a=0.523599, v=0.349066, r=0.005)  # [Move to [846.118, -144.747, -48.561] mm]
  movej(p[0.846118,-0.144747,-0.078561,0,3.141593,0], a=0.523599, v=0.349066, r=0.005)  # [Move to [846.118, -144.747, -78.561] mm]
  movej(p[0.846118,-0.144747,-0.048561,0,3.141593,0], a=0.523599, v=0.349066, r=0.005)  # [Move to [846.118, -144.747, -48.561] mm]
  movej(p[0.850274,-0.144747,-0.048763,0,3.141593,0], a=0.523599, v=0.349066, r=0.005)  # [Move to [850.274, -144.747, -48.763] mm]
  movej(p[0.850274,-0.144747,-0.078763,0,3.141593,0], a=0.523599, v=0.349066, r=0.005)  # [Move to [850.274, -144.747, -78.763] mm]
  movej(p[0.850274,-0.144747,-0.048763,0,3.141593,0], a=0.523599, v=0.349066, r=0.005)  # [Move to [850.274, -144.747, -48.763] mm]
  movej(p[0.854641,-0.144747,-0.04902,0,3.141593,0], a=0.523599, v=0.349066, r=0.005)  # [Move to [854.641, -144.747, -49.02] mm]
  movej(p[0.854641,-0.144747,-0.07902,0,3.141593,0], a=0.523599, v=0.349066, r=0.005)  # [Move to [854.641, -144.747, -79.02] mm]
  movej(p[0.854641,-0.144747,-0.04902,0,3.141593,0], a=0.523599, v=0.349066, r=0.005)  # [Move to [854.641, -144.747, -49.02] mm]
  movej(p[0.859431,-0.144747,-0.049347,0,3.141593,0], a=0.523599, v=0.349066, r=0.005)  # [Move to [859.431, -144.747, -49.347] mm]
  movej(p[0.859431,-0.144747,-0.079347,0,3.141593,0], a=0.523599, v=0.349066, r=0.005)  # [Move to [859.431, -144.747, -79.347] mm]
  movej(p[0.859431,-0.144747,-0.049347,0,3.141593,0], a=0.523599, v=0.349066, r=0.005)  # [Move to [859.431, -144.747, -49.347] mm]
  movej(p[0.864738,-0.144747,-0.049752,0,3.141593,0], a=0.523599, v=0.349066, r=0.005)  # [Move to [864.738, -144.747, -49.752] mm]
  movej(p[0.864738,-0.144747,-0.079752,0,3.141593,0], a=0.523599, v=0.349066, r=0.005)  # [Move to [864.738, -144.747, -79.752] mm]
  movej(p[0.864738,-0.144747,-0.049752,0,3.141593,0], a=0.523599, v=0.349066, r=0.005)  # [Move to [864.738, -144.747, -49.752] mm]
  movej(p[0.870185,-0.144747,-0.050191,0,3.141593,0], a=0.523599, v=0.349066, r=0.005)  # [Move to [870.185, -144.747, -50.191] mm]
  movej(p[0.870185,-0.144747,-0.080191,0,3.141593,0], a=0.523599, v=0.349066, r=0.005)  # [Move to [870.185, -144.747, -80.191] mm]
  movej(p[0.870185,-0.144747,-0.050191,0,3.141593,0], a=0.523599, v=0.349066, r=0.005)  # [Move to [870.185, -144.747, -50.191] mm]
  movej(p[0.875752,-0.144747,-0.050634,0,3.141593,0], a=0.523599, v=0.349066, r=0.005)  # [Move to [875.752, -144.747, -50.634] mm]
  movej(p[0.875752,-0.144747,-0.080634,0,3.141593,0], a=0.523599, v=0.349066, r=0.005)  # [Move to [875.752, -144.747, -80.634] mm]
  movej(p[0.875752,-0.144747,-0.050634,0,3.141593,0], a=0.523599, v=0.349066, r=0.005)  # [Move to [875.752, -144.747, -50.634] mm]
  movej(p[0.881583,-0.144747,-0.051062,0,3.141593,0], a=0.523599, v=0.349066, r=0.005)  # [Move to [881.583, -144.747, -51.062] mm]
  movej(p[0.881583,-0.144747,-0.081062,0,3.141593,0], a=0.523599, v=0.349066, r=0.005)  # [Move to [881.583, -144.747, -81.062] mm]
  movej(p[0.881583,-0.144747,-0.051062,0,3.141593,0], a=0.523599, v=0.349066, r=0.005)  # [Move to [881.583, -144.747, -51.062] mm]
  movej(p[0.887042,-0.144747,-0.051395,0,3.141593,0], a=0.523599, v=0.349066, r=0.005)  # [Move to [887.042, -144.747, -51.395] mm]
  movej(p[0.887042,-0.144747,-0.081395,0,3.141593,0], a=0.523599, v=0.349066, r=0.005)  # [Move to [887.042, -144.747, -81.395] mm]
  movej(p[0.887042,-0.144747,-0.051395,0,3.141593,0], a=0.523599, v=0.349066, r=0.005)  # [Move to [887.042, -144.747, -51.395] mm]
  movej(p[0.89174,-0.144747,-0.051621,0,3.141593,0], a=0.523599, v=0.349066, r=0.005)  # [Move to [891.74, -144.747, -51.621] mm]
  movej(p[0.89174,-0.144747,-0.081621,0,3.141593,0], a=0.523599, v=0.349066, r=0.005)  # [Move to [891.74, -144.747, -81.621] mm]
  movej(p[0.89174,-0.144747,-0.051621,0,3.141593,0], a=0.523599, v=0.349066, r=0.005)  # [Move to [891.74, -144.747, -51.621] mm]
  movej(p[0.896138,-0.144747,-0.051784,0,3.141593,0], a=0.523599, v=0.349066, r=0.005)  # [Move to [896.138, -144.747, -51.784] mm]
  movej(p[0.896138,-0.144747,-0.081784,0,3.141593,0], a=0.523599, v=0.349066, r=0.005)  # [Move to [896.138, -144.747, -81.784] mm]
  movej(p[0.896138,-0.144747,-0.051784,0,3.141593,0], a=0.523599, v=0.349066, r=0.005)  # [Move to [896.138, -144.747, -51.784] mm]
  movej(p[0.900489,-0.144747,-0.051897,0,3.141593,0], a=0.523599, v=0.349066, r=0.005)  # [Move to [900.489, -144.747, -51.897] mm]
  movej(p[0.900489,-0.144747,-0.081897,0,3.141593,0], a=0.523599, v=0.349066, r=0.005)  # [Move to [900.489, -144.747, -81.897] mm]
  movej(p[0.900489,-0.144747,-0.051897,0,3.141593,0], a=0.523599, v=0.349066, r=0.005)  # [Move to [900.489, -144.747, -51.897] mm]
  movej(p[0.905041,-0.144747,-0.051965,0,3.141593,0], a=0.523599, v=0.349066, r=0.005)  # [Move to [905.041, -144.747, -51.965] mm]
  movej(p[0.905041,-0.144747,-0.081965,0,3.141593,0], a=0.523599, v=0.349066, r=0.005)  # [Move to [905.041, -144.747, -81.965] mm]
  movej(p[0.905041,-0.144747,-0.051965,0,3.141593,0], a=0.523599, v=0.349066, r=0.005)  # [Move to [905.041, -144.747, -51.965] mm]
  movej(p[0.909953,-0.144747,-0.051977,0,3.141593,0], a=0.523599, v=0.349066, r=0.005)  # [Move to [909.953, -144.747, -51.977] mm]
  movej(p[0.909953,-0.144747,-0.081977,0,3.141593,0], a=0.523599, v=0.349066, r=0.005)  # [Move to [909.953, -144.747, -81.977] mm]
  movej(p[0.909953,-0.144747,-0.051977,0,3.141593,0], a=0.523599, v=0.349066, r=0.005)  # [Move to [909.953, -144.747, -51.977] mm]
  movej(p[0.914866,-0.144747,-0.051927,0,3.141593,0], a=0.523599, v=0.349066, r=0.005)  # [Move to [914.866, -144.747, -51.927] mm]
  movej(p[0.914866,-0.144747,-0.081927,0,3.141593,0], a=0.523599, v=0.349066, r=0.005)  # [Move to [914.866, -144.747, -81.927] mm]
  movej(p[0.914866,-0.144747,-0.051927,0,3.141593,0], a=0.523599, v=0.349066, r=0.005)  # [Move to [914.866, -144.747, -51.927] mm]
  movej(p[0.919558,-0.144747,-0.051826,0,3.141593,0], a=0.523599, v=0.349066, r=0.005)  # [Move to [919.558, -144.747, -51.826] mm]
  movej(p[0.919558,-0.144747,-0.081826,0,3.141593,0], a=0.523599, v=0.349066, r=0.005)  # [Move to [919.558, -144.747, -81.826] mm]
  movej(p[0.919558,-0.144747,-0.051826,0,3.141593,0], a=0.523599, v=0.349066, r=0.005)  # [Move to [919.558, -144.747, -51.826] mm]
  movej(p[0.924077,-0.144747,-0.051683,0,3.141593,0], a=0.523599, v=0.349066, r=0.005)  # [Move to [924.077, -144.747, -51.683] mm]
  movej(p[0.924077,-0.144747,-0.081683,0,3.141593,0], a=0.523599, v=0.349066, r=0.005)  # [Move to [924.077, -144.747, -81.683] mm]
  movej(p[0.924077,-0.144747,-0.051683,0,3.141593,0], a=0.523599, v=0.349066, r=0.005)  # [Move to [924.077, -144.747, -51.683] mm]
  movej(p[0.927045,-0.144747,-0.051562,0,3.141593,0], a=0.523599, v=0.349066, r=0.005)  # [Move to [927.045, -144.747, -51.562] mm]
  movej(p[0.927045,-0.144747,-0.081562,0,3.141593,0], a=0.523599, v=0.349066, r=0.005)  # [Move to [927.045, -144.747, -81.562] mm]
  movej(p[0.927045,-0.144747,-0.051562,0,3.141593,0], a=0.523599, v=0.349066, r=0.005)  # [Move to [927.045, -144.747, -51.562] mm]
  movej(p[0.92854,-0.144747,-0.051495,0,3.141593,0], a=0.523599, v=0.349066, r=0.005)  # [Move to [928.54, -144.747, -51.495] mm]
  movej(p[0.92854,-0.144747,-0.081495,0,3.141593,0], a=0.523599, v=0.349066, r=0.005)  # [Move to [928.54, -144.747, -81.495] mm]
  movej(p[0.92854,-0.144747,-0.051495,0,3.141593,0], a=0.523599, v=0.349066, r=0.005)  # [Move to [928.54, -144.747, -51.495] mm]
  movej(p[0.77146,-0.139472,-0.050131,0,3.141593,0], a=0.523599, v=0.349066, r=0.005)  # [Move to [771.46, -139.472, -50.131] mm]
  movej(p[0.77146,-0.139472,-0.080131,0,3.141593,0], a=0.523599, v=0.349066, r=0.005)  # [Move to [771.46, -139.472, -80.131] mm]
  movej(p[0.77146,-0.139472,-0.050131,0,3.141593,0], a=0.523599, v=0.349066, r=0.005)  # [Move to [771.46, -139.472, -50.131] mm]
  movej(p[0.773028,-0.139472,-0.050034,0,3.141593,0], a=0.523599, v=0.349066, r=0.005)  # [Move to [773.028, -139.472, -50.034] mm]
  movej(p[0.773028,-0.139472,-0.080034,0,3.141593,0], a=0.523599, v=0.349066, r=0.005)  # [Move to [773.028, -139.472, -80.034] mm]
  movej(p[0.773028,-0.139472,-0.050034,0,3.141593,0], a=0.523599, v=0.349066, r=0.005)  # [Move to [773.028, -139.472, -50.034] mm]
  movej(p[0.776009,-0.139472,-0.049857,0,3.141593,0], a=0.523599, v=0.349066, r=0.005)  # [Move to [776.009, -139.472, -49.857] mm]
  movej(p[0.776009,-0.139472,-0.079857,0,3.141593,0], a=0.523599, v=0.349066, r=0.005)  # [Move to [776.009, -139.472, -79.857] mm]
  movej(p[0.776009,-0.139472,-0.049857,0,3.141593,0], a=0.523599, v=0.349066, r=0.005)  # [Move to [776.009, -139.472, -49.857] mm]
  movej(p[0.780331,-0.139472,-0.04961,0,3.141593,0], a=0.523599, v=0.349066, r=0.005)  # [Move to [780.331, -139.472, -49.61] mm]
  movej(p[0.780331,-0.139472,-0.07961,0,3.141593,0], a=0.523599, v=0.349066, r=0.005)  # [Move to [780.331, -139.472, -79.61] mm]
  movej(p[0.780331,-0.139472,-0.04961,0,3.141593,0], a=0.523599, v=0.349066, r=0.005)  # [Move to [780.331, -139.472, -49.61] mm]
  movej(p[0.784715,-0.139472,-0.049357,0,3.141593,0], a=0.523599, v=0.349066, r=0.005)  # [Move to [784.715, -139.472, -49.357] mm]
  movej(p[0.784715,-0.139472,-0.079357,0,3.141593,0], a=0.523599, v=0.349066, r=0.005)  # [Move to [784.715, -139.472, -79.357] mm]
  movej(p[0.784715,-0.139472,-0.049357,0,3.141593,0], a=0.523599, v=0.349066, r=0.005)  # [Move to [784.715, -139.472, -49.357] mm]
  movej(p[0.789329,-0.139472,-0.049078,0,3.141593,0], a=0.523599, v=0.349066, r=0.005)  # [Move to [789.329, -139.472, -49.078] mm]
  movej(p[0.789329,-0.139472,-0.079078,0,3.141593,0], a=0.523599, v=0.349066, r=0.005)  # [Move to [789.329, -139.472, -79.078] mm]
  movej(p[0.789329,-0.139472,-0.049078,0,3.141593,0], a=0.523599, v=0.349066, r=0.005)  # [Move to [789.329, -139.472, -49.078] mm]
  movej(p[0.794326,-0.139472,-0.048746,0,3.141593,0], a=0.523599, v=0.349066, r=0.005)  # [Move to [794.326, -139.472, -48.746] mm]
  movej(p[0.794326,-0.139472,-0.078746,0,3.141593,0], a=0.523599, v=0.349066, r=0.005)  # [Move to [794.326, -139.472, -78.746] mm]
  movej(p[0.794326,-0.139472,-0.048746,0,3.141593,0], a=0.523599, v=0.349066, r=0.005)  # [Move to [794.326, -139.472, -48.746] mm]
  movej(p[0.799252,-0.139472,-0.048373,0,3.141593,0], a=0.523599, v=0.349066, r=0.005)  # [Move to [799.252, -139.472, -48.373] mm]
  movej(p[0.799252,-0.139472,-0.078373,0,3.141593,0], a=0.523599, v=0.349066, r=0.005)  # [Move to [799.252, -139.472, -78.373] mm]
  movej(p[0.799252,-0.139472,-0.048373,0,3.141593,0], a=0.523599, v=0.349066, r=0.005)  # [Move to [799.252, -139.472, -48.373] mm]
  movej(p[0.803796,-0.139472,-0.048013,0,3.141593,0], a=0.523599, v=0.349066, r=0.005)  # [Move to [803.796, -139.472, -48.013] mm]
  movej(p[0.803796,-0.139472,-0.078013,0,3.141593,0], a=0.523599, v=0.349066, r=0.005)  # [Move to [803.796, -139.472, -78.013] mm]
  movej(p[0.803796,-0.139472,-0.048013,0,3.141593,0], a=0.523599, v=0.349066, r=0.005)  # [Move to [803.796, -139.472, -48.013] mm]
  movej(p[0.808132,-0.139472,-0.047673,0,3.141593,0], a=0.523599, v=0.349066, r=0.005)  # [Move to [808.132, -139.472, -47.673] mm]
  movej(p[0.808132,-0.139472,-0.077673,0,3.141593,0], a=0.523599, v=0.349066, r=0.005)  # [Move to [808.132, -139.472, -77.673] mm]
  movej(p[0.808132,-0.139472,-0.047673,0,3.141593,0], a=0.523599, v=0.349066, r=0.005)  # [Move to [808.132, -139.472, -47.673] mm]
  movej(p[0.812414,-0.139472,-0.047359,0,3.141593,0], a=0.523599, v=0.349066, r=0.005)  # [Move to [812.414, -139.472, -47.359] mm]
  movej(p[0.812414,-0.139472,-0.077359,0,3.141593,0], a=0.523599, v=0.349066, r=0.005)  # [Move to [812.414, -139.472, -77.359] mm]
  movej(p[0.812414,-0.139472,-0.047359,0,3.141593,0], a=0.523599, v=0.349066, r=0.005)  # [Move to [812.414, -139.472, -47.359] mm]
  movej(p[0.816876,-0.139472,-0.047068,0,3.141593,0], a=0.523599, v=0.349066, r=0.005)  # [Move to [816.876, -139.472, -47.068] mm]
  movej(p[0.816876,-0.139472,-0.077068,0,3.141593,0], a=0.523599, v=0.349066, r=0.005)  # [Move to [816.876, -139.472, -77.068] mm]
  movej(p[0.816876,-0.139472,-0.047068,0,3.141593,0], a=0.523599, v=0.349066, r=0.005)  # [Move to [816.876, -139.472, -47.068] mm]
  movej(p[0.821983,-0.139472,-0.046797,0,3.141593,0], a=0.523599, v=0.349066, r=0.005)  # [Move to [821.983, -139.472, -46.797] mm]
  movej(p[0.821983,-0.139472,-0.076797,0,3.141593,0], a=0.523599, v=0.349066, r=0.005)  # [Move to [821.983, -139.472, -76.797] mm]
  movej(p[0.821983,-0.139472,-0.046797,0,3.141593,0], a=0.523599, v=0.349066, r=0.005)  # [Move to [821.983, -139.472, -46.797] mm]
  movej(p[0.827573,-0.139472,-0.046605,0,3.141593,0], a=0.523599, v=0.349066, r=0.005)  # [Move to [827.573, -139.472, -46.605] mm]
  movej(p[0.827573,-0.139472,-0.076605,0,3.141593,0], a=0.523599, v=0.349066, r=0.005)  # [Move to [827.573, -139.472, -76.605] mm]
  movej(p[0.827573,-0.139472,-0.046605,0,3.141593,0], a=0.523599, v=0.349066, r=0.005)  # [Move to [827.573, -139.472, -46.605] mm]
  movej(p[0.832933,-0.139472,-0.046548,0,3.141593,0], a=0.523599, v=0.349066, r=0.005)  # [Move to [832.933, -139.472, -46.548] mm]
  movej(p[0.832933,-0.139472,-0.076548,0,3.141593,0], a=0.523599, v=0.349066, r=0.005)  # [Move to [832.933, -139.472, -76.548] mm]
  movej(p[0.832933,-0.139472,-0.046548,0,3.141593,0], a=0.523599, v=0.349066, r=0.005)  # [Move to [832.933, -139.472, -46.548] mm]
  movej(p[0.837703,-0.139472,-0.046623,0,3.141593,0], a=0.523599, v=0.349066, r=0.005)  # [Move to [837.703, -139.472, -46.623] mm]
  movej(p[0.837703,-0.139472,-0.076623,0,3.141593,0], a=0.523599, v=0.349066, r=0.005)  # [Move to [837.703, -139.472, -76.623] mm]
  movej(p[0.837703,-0.139472,-0.046623,0,3.141593,0], a=0.523599, v=0.349066, r=0.005)  # [Move to [837.703, -139.472, -46.623] mm]
  movej(p[0.842026,-0.139472,-0.046811,0,3.141593,0], a=0.523599, v=0.349066, r=0.005)  # [Move to [842.026, -139.472, -46.811] mm]
  movej(p[0.842026,-0.139472,-0.076811,0,3.141593,0], a=0.523599, v=0.349066, r=0.005)  # [Move to [842.026, -139.472, -76.811] mm]
  movej(p[0.842026,-0.139472,-0.046811,0,3.141593,0], a=0.523599, v=0.349066, r=0.005)  # [Move to [842.026, -139.472, -46.811] mm]
  movej(p[0.84615,-0.139472,-0.047098,0,3.141593,0], a=0.523599, v=0.349066, r=0.005)  # [Move to [846.15, -139.472, -47.098] mm]
  movej(p[0.84615,-0.139472,-0.077098,0,3.141593,0], a=0.523599, v=0.349066, r=0.005)  # [Move to [846.15, -139.472, -77.098] mm]
  movej(p[0.84615,-0.139472,-0.047098,0,3.141593,0], a=0.523599, v=0.349066, r=0.005)  # [Move to [846.15, -139.472, -47.098] mm]
  movej(p[0.850287,-0.139472,-0.047478,0,3.141593,0], a=0.523599, v=0.349066, r=0.005)  # [Move to [850.287, -139.472, -47.478] mm]
  movej(p[0.850287,-0.139472,-0.077478,0,3.141593,0], a=0.523599, v=0.349066, r=0.005)  # [Move to [850.287, -139.472, -77.478] mm]
  movej(p[0.850287,-0.139472,-0.047478,0,3.141593,0], a=0.523599, v=0.349066, r=0.005)  # [Move to [850.287, -139.472, -47.478] mm]
  movej(p[0.854633,-0.139472,-0.047969,0,3.141593,0], a=0.523599, v=0.349066, r=0.005)  # [Move to [854.633, -139.472, -47.969] mm]
  movej(p[0.854633,-0.139472,-0.077969,0,3.141593,0], a=0.523599, v=0.349066, r=0.005)  # [Move to [854.633, -139.472, -77.969] mm]
  movej(p[0.854633,-0.139472,-0.047969,0,3.141593,0], a=0.523599, v=0.349066, r=0.005)  # [Move to [854.633, -139.472, -47.969] mm]
  movej(p[0.8594,-0.139472,-0.048598,0,3.141593,0], a=0.523599, v=0.349066, r=0.005)  # [Move to [859.4, -139.472, -48.598] mm]
  movej(p[0.8594,-0.139472,-0.078598,0,3.141593,0], a=0.523599, v=0.349066, r=0.005)  # [Move to [859.4, -139.472, -78.598] mm]
  movej(p[0.8594,-0.139472,-0.048598,0,3.141593,0], a=0.523599, v=0.349066, r=0.005)  # [Move to [859.4, -139.472, -48.598] mm]
  movej(p[0.864693,-0.139472,-0.049388,0,3.141593,0], a=0.523599, v=0.349066, r=0.005)  # [Move to [864.693, -139.472, -49.388] mm]
  movej(p[0.864693,-0.139472,-0.079388,0,3.141593,0], a=0.523599, v=0.349066, r=0.005)  # [Move to [864.693, -139.472, -79.388] mm]
  movej(p[0.864693,-0.139472,-0.049388,0,3.141593,0], a=0.523599, v=0.349066, r=0.005)  # [Move to [864.693, -139.472, -49.388] mm]
  movej(p[0.870134,-0.139472,-0.050247,0,3.141593,0], a=0.523599, v=0.349066, r=0.005)  # [Move to [870.134, -139.472, -50.247] mm]
  movej(p[0.870134,-0.139472,-0.080247,0,3.141593,0], a=0.523599, v=0.349066, r=0.005)  # [Move to [870.134, -139.472, -80.247] mm]
  movej(p[0.870134,-0.139472,-0.050247,0,3.141593,0], a=0.523599, v=0.349066, r=0.005)  # [Move to [870.134, -139.472, -50.247] mm]
  movej(p[0.875696,-0.139472,-0.051116,0,3.141593,0], a=0.523599, v=0.349066, r=0.005)  # [Move to [875.696, -139.472, -51.116] mm]
  movej(p[0.875696,-0.139472,-0.081116,0,3.141593,0], a=0.523599, v=0.349066, r=0.005)  # [Move to [875.696, -139.472, -81.116] mm]
  movej(p[0.875696,-0.139472,-0.051116,0,3.141593,0], a=0.523599, v=0.349066, r=0.005)  # [Move to [875.696, -139.472, -51.116] mm]
  movej(p[0.881519,-0.139472,-0.051951,0,3.141593,0], a=0.523599, v=0.349066, r=0.005)  # [Move to [881.519, -139.472, -51.951] mm]
  movej(p[0.881519,-0.139472,-0.081951,0,3.141593,0], a=0.523599, v=0.349066, r=0.005)  # [Move to [881.519, -139.472, -81.951] mm]
  movej(p[0.881519,-0.139472,-0.051951,0,3.141593,0], a=0.523599, v=0.349066, r=0.005)  # [Move to [881.519, -139.472, -51.951] mm]
  movej(p[0.886958,-0.139472,-0.052591,0,3.141593,0], a=0.523599, v=0.349066, r=0.005)  # [Move to [886.958, -139.472, -52.591] mm]
  movej(p[0.886958,-0.139472,-0.082591,0,3.141593,0], a=0.523599, v=0.349066, r=0.005)  # [Move to [886.958, -139.472, -82.591] mm]
  movej(p[0.886958,-0.139472,-0.052591,0,3.141593,0], a=0.523599, v=0.349066, r=0.005)  # [Move to [886.958, -139.472, -52.591] mm]
  movej(p[0.891633,-0.139472,-0.053017,0,3.141593,0], a=0.523599, v=0.349066, r=0.005)  # [Move to [891.633, -139.472, -53.017] mm]
  movej(p[0.891633,-0.139472,-0.083017,0,3.141593,0], a=0.523599, v=0.349066, r=0.005)  # [Move to [891.633, -139.472, -83.017] mm]
  movej(p[0.891633,-0.139472,-0.053017,0,3.141593,0], a=0.523599, v=0.349066, r=0.005)  # [Move to [891.633, -139.472, -53.017] mm]
  movej(p[0.89601,-0.139472,-0.05332,0,3.141593,0], a=0.523599, v=0.349066, r=0.005)  # [Move to [896.01, -139.472, -53.32] mm]
  movej(p[0.89601,-0.139472,-0.08332,0,3.141593,0], a=0.523599, v=0.349066, r=0.005)  # [Move to [896.01, -139.472, -83.32] mm]
  movej(p[0.89601,-0.139472,-0.05332,0,3.141593,0], a=0.523599, v=0.349066, r=0.005)  # [Move to [896.01, -139.472, -53.32] mm]
  movej(p[0.900345,-0.139472,-0.053526,0,3.141593,0], a=0.523599, v=0.349066, r=0.005)  # [Move to [900.345, -139.472, -53.526] mm]
  movej(p[0.900345,-0.139472,-0.083526,0,3.141593,0], a=0.523599, v=0.349066, r=0.005)  # [Move to [900.345, -139.472, -83.526] mm]
  movej(p[0.900345,-0.139472,-0.053526,0,3.141593,0], a=0.523599, v=0.349066, r=0.005)  # [Move to [900.345, -139.472, -53.526] mm]
  movej(p[0.904888,-0.139472,-0.053646,0,3.141593,0], a=0.523599, v=0.349066, r=0.005)  # [Move to [904.888, -139.472, -53.646] mm]
  movej(p[0.904888,-0.139472,-0.083646,0,3.141593,0], a=0.523599, v=0.349066, r=0.005)  # [Move to [904.888, -139.472, -83.646] mm]
  movej(p[0.904888,-0.139472,-0.053646,0,3.141593,0], a=0.523599, v=0.349066, r=0.005)  # [Move to [904.888, -139.472, -53.646] mm]
  movej(p[0.909805,-0.139472,-0.053663,0,3.141593,0], a=0.523599, v=0.349066, r=0.005)  # [Move to [909.805, -139.472, -53.663] mm]
  movej(p[0.909805,-0.139472,-0.083663,0,3.141593,0], a=0.523599, v=0.349066, r=0.005)  # [Move to [909.805, -139.472, -83.663] mm]
  movej(p[0.909805,-0.139472,-0.053663,0,3.141593,0], a=0.523599, v=0.349066, r=0.005)  # [Move to [909.805, -139.472, -53.663] mm]
  movej(p[0.91474,-0.139472,-0.053566,0,3.141593,0], a=0.523599, v=0.349066, r=0.005)  # [Move to [914.74, -139.472, -53.566] mm]
  movej(p[0.91474,-0.139472,-0.083566,0,3.141593,0], a=0.523599, v=0.349066, r=0.005)  # [Move to [914.74, -139.472, -83.566] mm]
  movej(p[0.91474,-0.139472,-0.053566,0,3.141593,0], a=0.523599, v=0.349066, r=0.005)  # [Move to [914.74, -139.472, -53.566] mm]
  movej(p[0.919465,-0.139472,-0.053376,0,3.141593,0], a=0.523599, v=0.349066, r=0.005)  # [Move to [919.465, -139.472, -53.376] mm]
  movej(p[0.919465,-0.139472,-0.083376,0,3.141593,0], a=0.523599, v=0.349066, r=0.005)  # [Move to [919.465, -139.472, -83.376] mm]
  movej(p[0.919465,-0.139472,-0.053376,0,3.141593,0], a=0.523599, v=0.349066, r=0.005)  # [Move to [919.465, -139.472, -53.376] mm]
  movej(p[0.924026,-0.139472,-0.053106,0,3.141593,0], a=0.523599, v=0.349066, r=0.005)  # [Move to [924.026, -139.472, -53.106] mm]
  movej(p[0.924026,-0.139472,-0.083106,0,3.141593,0], a=0.523599, v=0.349066, r=0.005)  # [Move to [924.026, -139.472, -83.106] mm]
  movej(p[0.924026,-0.139472,-0.053106,0,3.141593,0], a=0.523599, v=0.349066, r=0.005)  # [Move to [924.026, -139.472, -53.106] mm]
  movej(p[0.927027,-0.139472,-0.052877,0,3.141593,0], a=0.523599, v=0.349066, r=0.005)  # [Move to [927.027, -139.472, -52.877] mm]
  movej(p[0.927027,-0.139472,-0.082877,0,3.141593,0], a=0.523599, v=0.349066, r=0.005)  # [Move to [927.027, -139.472, -82.877] mm]
  movej(p[0.927027,-0.139472,-0.052877,0,3.141593,0], a=0.523599, v=0.349066, r=0.005)  # [Move to [927.027, -139.472, -52.877] mm]
  movej(p[0.92854,-0.139472,-0.052749,0,3.141593,0], a=0.523599, v=0.349066, r=0.005)  # [Move to [928.54, -139.472, -52.749] mm]
  movej(p[0.92854,-0.139472,-0.082749,0,3.141593,0], a=0.523599, v=0.349066, r=0.005)  # [Move to [928.54, -139.472, -82.749] mm]
  movej(p[0.92854,-0.139472,-0.052749,0,3.141593,0], a=0.523599, v=0.349066, r=0.005)  # [Move to [928.54, -139.472, -52.749] mm]
  movej(p[0.77146,-0.134174,-0.050131,0,3.141593,0], a=0.523599, v=0.349066, r=0.005)  # [Move to [771.46, -134.174, -50.131] mm]
  movej(p[0.77146,-0.134174,-0.080131,0,3.141593,0], a=0.523599, v=0.349066, r=0.005)  # [Move to [771.46, -134.174, -80.131] mm]
  movej(p[0.77146,-0.134174,-0.050131,0,3.141593,0], a=0.523599, v=0.349066, r=0.005)  # [Move to [771.46, -134.174, -50.131] mm]
  movej(p[0.773027,-0.134174,-0.049986,0,3.141593,0], a=0.523599, v=0.349066, r=0.005)  # [Move to [773.027, -134.174, -49.986] mm]
  movej(p[0.773027,-0.134174,-0.079986,0,3.141593,0], a=0.523599, v=0.349066, r=0.005)  # [Move to [773.027, -134.174, -79.986] mm]
  movej(p[0.773027,-0.134174,-0.049986,0,3.141593,0], a=0.523599, v=0.349066, r=0.005)  # [Move to [773.027, -134.174, -49.986] mm]
  movej(p[0.776003,-0.134174,-0.049722,0,3.141593,0], a=0.523599, v=0.349066, r=0.005)  # [Move to [776.003, -134.174, -49.722] mm]
  movej(p[0.776003,-0.134174,-0.079722,0,3.141593,0], a=0.523599, v=0.349066, r=0.005)  # [Move to [776.003, -134.174, -79.722] mm]
  movej(p[0.776003,-0.134174,-0.049722,0,3.141593,0], a=0.523599, v=0.349066, r=0.005)  # [Move to [776.003, -134.174, -49.722] mm]
  movej(p[0.780315,-0.134174,-0.049353,0,3.141593,0], a=0.523599, v=0.349066, r=0.005)  # [Move to [780.315, -134.174, -49.353] mm]
  movej(p[0.780315,-0.134174,-0.079353,0,3.141593,0], a=0.523599, v=0.349066, r=0.005)  # [Move to [780.315, -134.174, -79.353] mm]
  movej(p[0.780315,-0.134174,-0.049353,0,3.141593,0], a=0.523599, v=0.349066, r=0.005)  # [Move to [780.315, -134.174, -49.353] mm]
  movej(p[0.784687,-0.134174,-0.048978,0,3.141593,0], a=0.523599, v=0.349066, r=0.005)  # [Move to [784.687, -134.174, -48.978] mm]
  movej(p[0.784687,-0.134174,-0.078978,0,3.141593,0], a=0.523599, v=0.349066, r=0.005)  # [Move to [784.687, -134.174, -78.978] mm]
  movej(p[0.784687,-0.134174,-0.048978,0,3.141593,0], a=0.523599, v=0.349066, r=0.005)  # [Move to [784.687, -134.174, -48.978] mm]
  movej(p[0.789287,-0.134174,-0.048569,0,3.141593,0], a=0.523599, v=0.349066, r=0.005)  # [Move to [789.287, -134.174, -48.569] mm]
  movej(p[0.789287,-0.134174,-0.078569,0,3.141593,0], a=0.523599, v=0.349066, r=0.005)  # [Move to [789.287, -134.174, -78.569] mm]
  movej(p[0.789287,-0.134174,-0.048569,0,3.141593,0], a=0.523599, v=0.349066, r=0.005)  # [Move to [789.287, -134.174, -48.569] mm]
  movej(p[0.794269,-0.134174,-0.048089,0,3.141593,0], a=0.523599, v=0.349066, r=0.005)  # [Move to [794.269, -134.174, -48.089] mm]
  movej(p[0.794269,-0.134174,-0.078089,0,3.141593,0], a=0.523599, v=0.349066, r=0.005)  # [Move to [794.269, -134.174, -78.089] mm]
  movej(p[0.794269,-0.134174,-0.048089,0,3.141593,0], a=0.523599, v=0.349066, r=0.005)  # [Move to [794.269, -134.174, -48.089] mm]
  movej(p[0.799183,-0.134174,-0.047559,0,3.141593,0], a=0.523599, v=0.349066, r=0.005)  # [Move to [799.183, -134.174, -47.559] mm]
  movej(p[0.799183,-0.134174,-0.077559,0,3.141593,0], a=0.523599, v=0.349066, r=0.005)  # [Move to [799.183, -134.174, -77.559] mm]
  movej(p[0.799183,-0.134174,-0.047559,0,3.141593,0], a=0.523599, v=0.349066, r=0.005)  # [Move to [799.183, -134.174, -47.559] mm]
  movej(p[0.80372,-0.134174,-0.047052,0,3.141593,0], a=0.523599, v=0.349066, r=0.005)  # [Move to [803.72, -134.174, -47.052] mm]
  movej(p[0.80372,-0.134174,-0.077052,0,3.141593,0], a=0.523599, v=0.349066, r=0.005)  # [Move to [803.72, -134.174, -77.052] mm]
  movej(p[0.80372,-0.134174,-0.047052,0,3.141593,0], a=0.523599, v=0.349066, r=0.005)  # [Move to [803.72, -134.174, -47.052] mm]
  movej(p[0.808056,-0.134174,-0.046577,0,3.141593,0], a=0.523599, v=0.349066, r=0.005)  # [Move to [808.056, -134.174, -46.577] mm]
  movej(p[0.808056,-0.134174,-0.076577,0,3.141593,0], a=0.523599, v=0.349066, r=0.005)  # [Move to [808.056, -134.174, -76.577] mm]
  movej(p[0.808056,-0.134174,-0.046577,0,3.141593,0], a=0.523599, v=0.349066, r=0.005)  # [Move to [808.056, -134.174, -46.577] mm]
  movej(p[0.812343,-0.134174,-0.046139,0,3.141593,0], a=0.523599, v=0.349066, r=0.005)  # [Move to [812.343, -134.174, -46.139] mm]
  movej(p[0.812343,-0.134174,-0.076139,0,3.141593,0], a=0.523599, v=0.349066, r=0.005)  # [Move to [812.343, -134.174, -76.139] mm]
  movej(p[0.812343,-0.134174,-0.046139,0,3.141593,0], a=0.523599, v=0.349066, r=0.005)  # [Move to [812.343, -134.174, -46.139] mm]
  movej(p[0.816818,-0.134174,-0.045733,0,3.141593,0], a=0.523599, v=0.349066, r=0.005)  # [Move to [816.818, -134.174, -45.733] mm]
  movej(p[0.816818,-0.134174,-0.075733,0,3.141593,0], a=0.523599, v=0.349066, r=0.005)  # [Move to [816.818, -134.174, -75.733] mm]
  movej(p[0.816818,-0.134174,-0.045733,0,3.141593,0], a=0.523599, v=0.349066, r=0.005)  # [Move to [816.818, -134.174, -45.733] mm]
  movej(p[0.821948,-0.134174,-0.045354,0,3.141593,0], a=0.523599, v=0.349066, r=0.005)  # [Move to [821.948, -134.174, -45.354] mm]
  movej(p[0.821948,-0.134174,-0.075354,0,3.141593,0], a=0.523599, v=0.349066, r=0.005)  # [Move to [821.948, -134.174, -75.354] mm]
  movej(p[0.821948,-0.134174,-0.045354,0,3.141593,0], a=0.523599, v=0.349066, r=0.005)  # [Move to [821.948, -134.174, -45.354] mm]
  movej(p[0.82757,-0.134174,-0.04508,0,3.141593,0], a=0.523599, v=0.349066, r=0.005)  # [Move to [827.57, -134.174, -45.08] mm]
  movej(p[0.82757,-0.134174,-0.07508,0,3.141593,0], a=0.523599, v=0.349066, r=0.005)  # [Move to [827.57, -134.174, -75.08] mm]
  movej(p[0.82757,-0.134174,-0.04508,0,3.141593,0], a=0.523599, v=0.349066, r=0.005)  # [Move to [827.57, -134.174, -45.08] mm]
  movej(p[0.832955,-0.134174,-0.044994,0,3.141593,0], a=0.523599, v=0.349066, r=0.005)  # [Move to [832.955, -134.174, -44.994] mm]
  movej(p[0.832955,-0.134174,-0.074994,0,3.141593,0], a=0.523599, v=0.349066, r=0.005)  # [Move to [832.955, -134.174, -74.994] mm]
  movej(p[0.832955,-0.134174,-0.044994,0,3.141593,0], a=0.523599, v=0.349066, r=0.005)  # [Move to [832.955, -134.174, -44.994] mm]
  movej(p[0.837739,-0.134174,-0.045092,0,3.141593,0], a=0.523599, v=0.349066, r=0.005)  # [Move to [837.739, -134.174, -45.092] mm]
  movej(p[0.837739,-0.134174,-0.075092,0,3.141593,0], a=0.523599, v=0.349066, r=0.005)  # [Move to [837.739, -134.174, -75.092] mm]
  movej(p[0.837739,-0.134174,-0.045092,0,3.141593,0], a=0.523599, v=0.349066, r=0.005)  # [Move to [837.739, -134.174, -45.092] mm]
  movej(p[0.842063,-0.134174,-0.045353,0,3.141593,0], a=0.523599, v=0.349066, r=0.005)  # [Move to [842.063, -134.174, -45.353] mm]
  movej(p[0.842063,-0.134174,-0.075353,0,3.141593,0], a=0.523599, v=0.349066, r=0.005)  # [Move to [842.063, -134.174, -75.353] mm]
  movej(p[0.842063,-0.134174,-0.045353,0,3.141593,0], a=0.523599, v=0.349066, r=0.005)  # [Move to [842.063, -134.174, -45.353] mm]
  movej(p[0.846176,-0.134174,-0.045755,0,3.141593,0], a=0.523599, v=0.349066, r=0.005)  # [Move to [846.176, -134.174, -45.755] mm]
  movej(p[0.846176,-0.134174,-0.075755,0,3.141593,0], a=0.523599, v=0.349066, r=0.005)  # [Move to [846.176, -134.174, -75.755] mm]
  movej(p[0.846176,-0.134174,-0.045755,0,3.141593,0], a=0.523599, v=0.349066, r=0.005)  # [Move to [846.176, -134.174, -45.755] mm]
  movej(p[0.850298,-0.134174,-0.046294,0,3.141593,0], a=0.523599, v=0.349066, r=0.005)  # [Move to [850.298, -134.174, -46.294] mm]
  movej(p[0.850298,-0.134174,-0.076294,0,3.141593,0], a=0.523599, v=0.349066, r=0.005)  # [Move to [850.298, -134.174, -76.294] mm]
  movej(p[0.850298,-0.134174,-0.046294,0,3.141593,0], a=0.523599, v=0.349066, r=0.005)  # [Move to [850.298, -134.174, -46.294] mm]
  movej(p[0.854625,-0.134174,-0.046995,0,3.141593,0], a=0.523599, v=0.349066, r=0.005)  # [Move to [854.625, -134.174, -46.995] mm]
  movej(p[0.854625,-0.134174,-0.076995,0,3.141593,0], a=0.523599, v=0.349066, r=0.005)  # [Move to [854.625, -134.174, -76.995] mm]
  movej(p[0.854625,-0.134174,-0.046995,0,3.141593,0], a=0.523599, v=0.349066, r=0.005)  # [Move to [854.625, -134.174, -46.995] mm]
  movej(p[0.859372,-0.134174,-0.047901,0,3.141593,0], a=0.523599, v=0.349066, r=0.005)  # [Move to [859.372, -134.174, -47.901] mm]
  movej(p[0.859372,-0.134174,-0.077901,0,3.141593,0], a=0.523599, v=0.349066, r=0.005)  # [Move to [859.372, -134.174, -77.901] mm]
  movej(p[0.859372,-0.134174,-0.047901,0,3.141593,0], a=0.523599, v=0.349066, r=0.005)  # [Move to [859.372, -134.174, -47.901] mm]
  movej(p[0.864652,-0.134174,-0.049047,0,3.141593,0], a=0.523599, v=0.349066, r=0.005)  # [Move to [864.652, -134.174, -49.047] mm]
  movej(p[0.864652,-0.134174,-0.079047,0,3.141593,0], a=0.523599, v=0.349066, r=0.005)  # [Move to [864.652, -134.174, -79.047] mm]
  movej(p[0.864652,-0.134174,-0.049047,0,3.141593,0], a=0.523599, v=0.349066, r=0.005)  # [Move to [864.652, -134.174, -49.047] mm]
  movej(p[0.870085,-0.134174,-0.050299,0,3.141593,0], a=0.523599, v=0.349066, r=0.005)  # [Move to [870.085, -134.174, -50.299] mm]
  movej(p[0.870085,-0.134174,-0.080299,0,3.141593,0], a=0.523599, v=0.349066, r=0.005)  # [Move to [870.085, -134.174, -80.299] mm]
  movej(p[0.870085,-0.134174,-0.050299,0,3.141593,0], a=0.523599, v=0.349066, r=0.005)  # [Move to [870.085, -134.174, -50.299] mm]
  movej(p[0.875641,-0.134174,-0.051566,0,3.141593,0], a=0.523599, v=0.349066, r=0.005)  # [Move to [875.641, -134.174, -51.566] mm]
  movej(p[0.875641,-0.134174,-0.081566,0,3.141593,0], a=0.523599, v=0.349066, r=0.005)  # [Move to [875.641, -134.174, -81.566] mm]
  movej(p[0.875641,-0.134174,-0.051566,0,3.141593,0], a=0.523599, v=0.349066, r=0.005)  # [Move to [875.641, -134.174, -51.566] mm]
  movej(p[0.881454,-0.134174,-0.052777,0,3.141593,0], a=0.523599, v=0.349066, r=0.005)  # [Move to [881.454, -134.174, -52.777] mm]
  movej(p[0.881454,-0.134174,-0.082777,0,3.141593,0], a=0.523599, v=0.349066, r=0.005)  # [Move to [881.454, -134.174, -82.777] mm]
  movej(p[0.881454,-0.134174,-0.052777,0,3.141593,0], a=0.523599, v=0.349066, r=0.005)  # [Move to [881.454, -134.174, -52.777] mm]
  movej(p[0.886875,-0.134174,-0.053697,0,3.141593,0], a=0.523599, v=0.349066, r=0.005)  # [Move to [886.875, -134.174, -53.697] mm]
  movej(p[0.886875,-0.134174,-0.083697,0,3.141593,0], a=0.523599, v=0.349066, r=0.005)  # [Move to [886.875, -134.174, -83.697] mm]
  movej(p[0.886875,-0.134174,-0.053697,0,3.141593,0], a=0.523599, v=0.349066, r=0.005)  # [Move to [886.875, -134.174, -53.697] mm]
  movej(p[0.891529,-0.134174,-0.054302,0,3.141593,0], a=0.523599, v=0.349066, r=0.005)  # [Move to [891.529, -134.174, -54.302] mm]
  movej(p[0.891529,-0.134174,-0.084302,0,3.141593,0], a=0.523599, v=0.349066, r=0.005)  # [Move to [891.529, -134.174, -84.302] mm]
  movej(p[0.891529,-0.134174,-0.054302,0,3.141593,0], a=0.523599, v=0.349066, r=0.005)  # [Move to [891.529, -134.174, -54.302] mm]
  movej(p[0.895887,-0.134174,-0.054727,0,3.141593,0], a=0.523599, v=0.349066, r=0.005)  # [Move to [895.887, -134.174, -54.727] mm]
  movej(p[0.895887,-0.134174,-0.084727,0,3.141593,0], a=0.523599, v=0.349066, r=0.005)  # [Move to [895.887, -134.174, -84.727] mm]
  movej(p[0.895887,-0.134174,-0.054727,0,3.141593,0], a=0.523599, v=0.349066, r=0.005)  # [Move to [895.887, -134.174, -54.727] mm]
  movej(p[0.900208,-0.134174,-0.055012,0,3.141593,0], a=0.523599, v=0.349066, r=0.005)  # [Move to [900.208, -134.174, -55.012] mm]
  movej(p[0.900208,-0.134174,-0.085012,0,3.141593,0], a=0.523599, v=0.349066, r=0.005)  # [Move to [900.208, -134.174, -85.012] mm]
  movej(p[0.900208,-0.134174,-0.055012,0,3.141593,0], a=0.523599, v=0.349066, r=0.005)  # [Move to [900.208, -134.174, -55.012] mm]
  movej(p[0.904744,-0.134174,-0.055176,0,3.141593,0], a=0.523599, v=0.349066, r=0.005)  # [Move to [904.744, -134.174, -55.176] mm]
  movej(p[0.904744,-0.134174,-0.085176,0,3.141593,0], a=0.523599, v=0.349066, r=0.005)  # [Move to [904.744, -134.174, -85.176] mm]
  movej(p[0.904744,-0.134174,-0.055176,0,3.141593,0], a=0.523599, v=0.349066, r=0.005)  # [Move to [904.744, -134.174, -55.176] mm]
  movej(p[0.909668,-0.134174,-0.055196,0,3.141593,0], a=0.523599, v=0.349066, r=0.005)  # [Move to [909.668, -134.174, -55.196] mm]
  movej(p[0.909668,-0.134174,-0.085196,0,3.141593,0], a=0.523599, v=0.349066, r=0.005)  # [Move to [909.668, -134.174, -85.196] mm]
  movej(p[0.909668,-0.134174,-0.055196,0,3.141593,0], a=0.523599, v=0.349066, r=0.005)  # [Move to [909.668, -134.174, -55.196] mm]
  movej(p[0.914623,-0.134174,-0.05506,0,3.141593,0], a=0.523599, v=0.349066, r=0.005)  # [Move to [914.623, -134.174, -55.06] mm]
  movej(p[0.914623,-0.134174,-0.08506,0,3.141593,0], a=0.523599, v=0.349066, r=0.005)  # [Move to [914.623, -134.174, -85.06] mm]
  movej(p[0.914623,-0.134174,-0.05506,0,3.141593,0], a=0.523599, v=0.349066, r=0.005)  # [Move to [914.623, -134.174, -55.06] mm]
  movej(p[0.919379,-0.134174,-0.054792,0,3.141593,0], a=0.523599, v=0.349066, r=0.005)  # [Move to [919.379, -134.174, -54.792] mm]
  movej(p[0.919379,-0.134174,-0.084792,0,3.141593,0], a=0.523599, v=0.349066, r=0.005)  # [Move to [919.379, -134.174, -84.792] mm]
  movej(p[0.919379,-0.134174,-0.054792,0,3.141593,0], a=0.523599, v=0.349066, r=0.005)  # [Move to [919.379, -134.174, -54.792] mm]
  movej(p[0.923979,-0.134174,-0.054414,0,3.141593,0], a=0.523599, v=0.349066, r=0.005)  # [Move to [923.979, -134.174, -54.414] mm]
  movej(p[0.923979,-0.134174,-0.084414,0,3.141593,0], a=0.523599, v=0.349066, r=0.005)  # [Move to [923.979, -134.174, -84.414] mm]
  movej(p[0.923979,-0.134174,-0.054414,0,3.141593,0], a=0.523599, v=0.349066, r=0.005)  # [Move to [923.979, -134.174, -54.414] mm]
  movej(p[0.927011,-0.134174,-0.054091,0,3.141593,0], a=0.523599, v=0.349066, r=0.005)  # [Move to [927.011, -134.174, -54.091] mm]
  movej(p[0.927011,-0.134174,-0.084091,0,3.141593,0], a=0.523599, v=0.349066, r=0.005)  # [Move to [927.011, -134.174, -84.091] mm]
  movej(p[0.927011,-0.134174,-0.054091,0,3.141593,0], a=0.523599, v=0.349066, r=0.005)  # [Move to [927.011, -134.174, -54.091] mm]
  movej(p[0.92854,-0.134174,-0.05391,0,3.141593,0], a=0.523599, v=0.349066, r=0.005)  # [Move to [928.54, -134.174, -53.91] mm]
  movej(p[0.92854,-0.134174,-0.08391,0,3.141593,0], a=0.523599, v=0.349066, r=0.005)  # [Move to [928.54, -134.174, -83.91] mm]
  movej(p[0.92854,-0.134174,-0.05391,0,3.141593,0], a=0.523599, v=0.349066, r=0.005)  # [Move to [928.54, -134.174, -53.91] mm]
  movej(p[0.77146,-0.128848,-0.050131,0,3.141593,0], a=0.523599, v=0.349066, r=0.005)  # [Move to [771.46, -128.848, -50.131] mm]
  movej(p[0.77146,-0.128848,-0.080131,0,3.141593,0], a=0.523599, v=0.349066, r=0.005)  # [Move to [771.46, -128.848, -80.131] mm]
  movej(p[0.77146,-0.128848,-0.050131,0,3.141593,0], a=0.523599, v=0.349066, r=0.005)  # [Move to [771.46, -128.848, -50.131] mm]
  movej(p[0.773025,-0.128848,-0.049939,0,3.141593,0], a=0.523599, v=0.349066, r=0.005)  # [Move to [773.025, -128.848, -49.939] mm]
  movej(p[0.773025,-0.128848,-0.079939,0,3.141593,0], a=0.523599, v=0.349066, r=0.005)  # [Move to [773.025, -128.848, -79.939] mm]
  movej(p[0.773025,-0.128848,-0.049939,0,3.141593,0], a=0.523599, v=0.349066, r=0.005)  # [Move to [773.025, -128.848, -49.939] mm]
  movej(p[0.775996,-0.128848,-0.049587,0,3.141593,0], a=0.523599, v=0.349066, r=0.005)  # [Move to [775.996, -128.848, -49.587] mm]
  movej(p[0.775996,-0.128848,-0.079587,0,3.141593,0], a=0.523599, v=0.349066, r=0.005)  # [Move to [775.996, -128.848, -79.587] mm]
  movej(p[0.775996,-0.128848,-0.049587,0,3.141593,0], a=0.523599, v=0.349066, r=0.005)  # [Move to [775.996, -128.848, -49.587] mm]
  movej(p[0.780299,-0.128848,-0.049096,0,3.141593,0], a=0.523599, v=0.349066, r=0.005)  # [Move to [780.299, -128.848, -49.096] mm]
  movej(p[0.780299,-0.128848,-0.079096,0,3.141593,0], a=0.523599, v=0.349066, r=0.005)  # [Move to [780.299, -128.848, -79.096] mm]
  movej(p[0.780299,-0.128848,-0.049096,0,3.141593,0], a=0.523599, v=0.349066, r=0.005)  # [Move to [780.299, -128.848, -49.096] mm]
  movej(p[0.78466,-0.128848,-0.048602,0,3.141593,0], a=0.523599, v=0.349066, r=0.005)  # [Move to [784.66, -128.848, -48.602] mm]
  movej(p[0.78466,-0.128848,-0.078602,0,3.141593,0], a=0.523599, v=0.349066, r=0.005)  # [Move to [784.66, -128.848, -78.602] mm]
  movej(p[0.78466,-0.128848,-0.048602,0,3.141593,0], a=0.523599, v=0.349066, r=0.005)  # [Move to [784.66, -128.848, -48.602] mm]
  movej(p[0.789248,-0.128848,-0.048069,0,3.141593,0], a=0.523599, v=0.349066, r=0.005)  # [Move to [789.248, -128.848, -48.069] mm]
  movej(p[0.789248,-0.128848,-0.078069,0,3.141593,0], a=0.523599, v=0.349066, r=0.005)  # [Move to [789.248, -128.848, -78.069] mm]
  movej(p[0.789248,-0.128848,-0.048069,0,3.141593,0], a=0.523599, v=0.349066, r=0.005)  # [Move to [789.248, -128.848, -48.069] mm]
  movej(p[0.794217,-0.128848,-0.047454,0,3.141593,0], a=0.523599, v=0.349066, r=0.005)  # [Move to [794.217, -128.848, -47.454] mm]
  movej(p[0.794217,-0.128848,-0.077454,0,3.141593,0], a=0.523599, v=0.349066, r=0.005)  # [Move to [794.217, -128.848, -77.454] mm]
  movej(p[0.794217,-0.128848,-0.047454,0,3.141593,0], a=0.523599, v=0.349066, r=0.005)  # [Move to [794.217, -128.848, -47.454] mm]
  movej(p[0.799121,-0.128848,-0.046786,0,3.141593,0], a=0.523599, v=0.349066, r=0.005)  # [Move to [799.121, -128.848, -46.786] mm]
  movej(p[0.799121,-0.128848,-0.076786,0,3.141593,0], a=0.523599, v=0.349066, r=0.005)  # [Move to [799.121, -128.848, -76.786] mm]
  movej(p[0.799121,-0.128848,-0.046786,0,3.141593,0], a=0.523599, v=0.349066, r=0.005)  # [Move to [799.121, -128.848, -46.786] mm]
  movej(p[0.803653,-0.128848,-0.046153,0,3.141593,0], a=0.523599, v=0.349066, r=0.005)  # [Move to [803.653, -128.848, -46.153] mm]
  movej(p[0.803653,-0.128848,-0.076153,0,3.141593,0], a=0.523599, v=0.349066, r=0.005)  # [Move to [803.653, -128.848, -76.153] mm]
  movej(p[0.803653,-0.128848,-0.046153,0,3.141593,0], a=0.523599, v=0.349066, r=0.005)  # [Move to [803.653, -128.848, -46.153] mm]
  movej(p[0.807987,-0.128848,-0.045565,0,3.141593,0], a=0.523599, v=0.349066, r=0.005)  # [Move to [807.987, -128.848, -45.565] mm]
  movej(p[0.807987,-0.128848,-0.075565,0,3.141593,0], a=0.523599, v=0.349066, r=0.005)  # [Move to [807.987, -128.848, -75.565] mm]
  movej(p[0.807987,-0.128848,-0.045565,0,3.141593,0], a=0.523599, v=0.349066, r=0.005)  # [Move to [807.987, -128.848, -45.565] mm]
  movej(p[0.812278,-0.128848,-0.045025,0,3.141593,0], a=0.523599, v=0.349066, r=0.005)  # [Move to [812.278, -128.848, -45.025] mm]
  movej(p[0.812278,-0.128848,-0.075025,0,3.141593,0], a=0.523599, v=0.349066, r=0.005)  # [Move to [812.278, -128.848, -75.025] mm]
  movej(p[0.812278,-0.128848,-0.045025,0,3.141593,0], a=0.523599, v=0.349066, r=0.005)  # [Move to [812.278, -128.848, -45.025] mm]
  movej(p[0.816763,-0.128848,-0.044527,0,3.141593,0], a=0.523599, v=0.349066, r=0.005)  # [Move to [816.763, -128.848, -44.527] mm]
  movej(p[0.816763,-0.128848,-0.074527,0,3.141593,0], a=0.523599, v=0.349066, r=0.005)  # [Move to [816.763, -128.848, -74.527] mm]
  movej(p[0.816763,-0.128848,-0.044527,0,3.141593,0], a=0.523599, v=0.349066, r=0.005)  # [Move to [816.763, -128.848, -44.527] mm]
  movej(p[0.821914,-0.128848,-0.044061,0,3.141593,0], a=0.523599, v=0.349066, r=0.005)  # [Move to [821.914, -128.848, -44.061] mm]
  movej(p[0.821914,-0.128848,-0.074061,0,3.141593,0], a=0.523599, v=0.349066, r=0.005)  # [Move to [821.914, -128.848, -74.061] mm]
  movej(p[0.821914,-0.128848,-0.044061,0,3.141593,0], a=0.523599, v=0.349066, r=0.005)  # [Move to [821.914, -128.848, -44.061] mm]
  movej(p[0.827562,-0.128848,-0.043722,0,3.141593,0], a=0.523599, v=0.349066, r=0.005)  # [Move to [827.562, -128.848, -43.722] mm]
  movej(p[0.827562,-0.128848,-0.073722,0,3.141593,0], a=0.523599, v=0.349066, r=0.005)  # [Move to [827.562, -128.848, -73.722] mm]
  movej(p[0.827562,-0.128848,-0.043722,0,3.141593,0], a=0.523599, v=0.349066, r=0.005)  # [Move to [827.562, -128.848, -43.722] mm]
  movej(p[0.83297,-0.128848,-0.043615,0,3.141593,0], a=0.523599, v=0.349066, r=0.005)  # [Move to [832.97, -128.848, -43.615] mm]
  movej(p[0.83297,-0.128848,-0.073615,0,3.141593,0], a=0.523599, v=0.349066, r=0.005)  # [Move to [832.97, -128.848, -73.615] mm]
  movej(p[0.83297,-0.128848,-0.043615,0,3.141593,0], a=0.523599, v=0.349066, r=0.005)  # [Move to [832.97, -128.848, -43.615] mm]
  movej(p[0.837767,-0.128848,-0.043734,0,3.141593,0], a=0.523599, v=0.349066, r=0.005)  # [Move to [837.767, -128.848, -43.734] mm]
  movej(p[0.837767,-0.128848,-0.073734,0,3.141593,0], a=0.523599, v=0.349066, r=0.005)  # [Move to [837.767, -128.848, -73.734] mm]
  movej(p[0.837767,-0.128848,-0.043734,0,3.141593,0], a=0.523599, v=0.349066, r=0.005)  # [Move to [837.767, -128.848, -43.734] mm]
  movej(p[0.842092,-0.128848,-0.044058,0,3.141593,0], a=0.523599, v=0.349066, r=0.005)  # [Move to [842.092, -128.848, -44.058] mm]
  movej(p[0.842092,-0.128848,-0.074058,0,3.141593,0], a=0.523599, v=0.349066, r=0.005)  # [Move to [842.092, -128.848, -74.058] mm]
  movej(p[0.842092,-0.128848,-0.044058,0,3.141593,0], a=0.523599, v=0.349066, r=0.005)  # [Move to [842.092, -128.848, -44.058] mm]
  movej(p[0.846198,-0.128848,-0.044561,0,3.141593,0], a=0.523599, v=0.349066, r=0.005)  # [Move to [846.198, -128.848, -44.561] mm]
  movej(p[0.846198,-0.128848,-0.074561,0,3.141593,0], a=0.523599, v=0.349066, r=0.005)  # [Move to [846.198, -128.848, -74.561] mm]
  movej(p[0.846198,-0.128848,-0.044561,0,3.141593,0], a=0.523599, v=0.349066, r=0.005)  # [Move to [846.198, -128.848, -44.561] mm]
  movej(p[0.850308,-0.128848,-0.045239,0,3.141593,0], a=0.523599, v=0.349066, r=0.005)  # [Move to [850.308, -128.848, -45.239] mm]
  movej(p[0.850308,-0.128848,-0.075239,0,3.141593,0], a=0.523599, v=0.349066, r=0.005)  # [Move to [850.308, -128.848, -75.239] mm]
  movej(p[0.850308,-0.128848,-0.045239,0,3.141593,0], a=0.523599, v=0.349066, r=0.005)  # [Move to [850.308, -128.848, -45.239] mm]
  movej(p[0.854619,-0.128848,-0.046124,0,3.141593,0], a=0.523599, v=0.349066, r=0.005)  # [Move to [854.619, -128.848, -46.124] mm]
  movej(p[0.854619,-0.128848,-0.076124,0,3.141593,0], a=0.523599, v=0.349066, r=0.005)  # [Move to [854.619, -128.848, -76.124] mm]
  movej(p[0.854619,-0.128848,-0.046124,0,3.141593,0], a=0.523599, v=0.349066, r=0.005)  # [Move to [854.619, -128.848, -46.124] mm]
  movej(p[0.85935,-0.128848,-0.047276,0,3.141593,0], a=0.523599, v=0.349066, r=0.005)  # [Move to [859.35, -128.848, -47.276] mm]
  movej(p[0.85935,-0.128848,-0.077276,0,3.141593,0], a=0.523599, v=0.349066, r=0.005)  # [Move to [859.35, -128.848, -77.276] mm]
  movej(p[0.85935,-0.128848,-0.047276,0,3.141593,0], a=0.523599, v=0.349066, r=0.005)  # [Move to [859.35, -128.848, -47.276] mm]
  movej(p[0.864617,-0.128848,-0.04874,0,3.141593,0], a=0.523599, v=0.349066, r=0.005)  # [Move to [864.617, -128.848, -48.74] mm]
  movej(p[0.864617,-0.128848,-0.07874,0,3.141593,0], a=0.523599, v=0.349066, r=0.005)  # [Move to [864.617, -128.848, -78.74] mm]
  movej(p[0.864617,-0.128848,-0.04874,0,3.141593,0], a=0.523599, v=0.349066, r=0.005)  # [Move to [864.617, -128.848, -48.74] mm]
  movej(p[0.870041,-0.128848,-0.050344,0,3.141593,0], a=0.523599, v=0.349066, r=0.005)  # [Move to [870.041, -128.848, -50.344] mm]
  movej(p[0.870041,-0.128848,-0.080344,0,3.141593,0], a=0.523599, v=0.349066, r=0.005)  # [Move to [870.041, -128.848, -80.344] mm]
  movej(p[0.870041,-0.128848,-0.050344,0,3.141593,0], a=0.523599, v=0.349066, r=0.005)  # [Move to [870.041, -128.848, -50.344] mm]
  movej(p[0.875589,-0.128848,-0.051967,0,3.141593,0], a=0.523599, v=0.349066, r=0.005)  # [Move to [875.589, -128.848, -51.967] mm]
  movej(p[0.875589,-0.128848,-0.081967,0,3.141593,0], a=0.523599, v=0.349066, r=0.005)  # [Move to [875.589, -128.848, -81.967] mm]
  movej(p[0.875589,-0.128848,-0.051967,0,3.141593,0], a=0.523599, v=0.349066, r=0.005)  # [Move to [875.589, -128.848, -51.967] mm]
  movej(p[0.881392,-0.128848,-0.053516,0,3.141593,0], a=0.523599, v=0.349066, r=0.005)  # [Move to [881.392, -128.848, -53.516] mm]
  movej(p[0.881392,-0.128848,-0.083516,0,3.141593,0], a=0.523599, v=0.349066, r=0.005)  # [Move to [881.392, -128.848, -83.516] mm]
  movej(p[0.881392,-0.128848,-0.053516,0,3.141593,0], a=0.523599, v=0.349066, r=0.005)  # [Move to [881.392, -128.848, -53.516] mm]
  movej(p[0.886796,-0.128848,-0.054685,0,3.141593,0], a=0.523599, v=0.349066, r=0.005)  # [Move to [886.796, -128.848, -54.685] mm]
  movej(p[0.886796,-0.128848,-0.084685,0,3.141593,0], a=0.523599, v=0.349066, r=0.005)  # [Move to [886.796, -128.848, -84.685] mm]
  movej(p[0.886796,-0.128848,-0.054685,0,3.141593,0], a=0.523599, v=0.349066, r=0.005)  # [Move to [886.796, -128.848, -54.685] mm]
  movej(p[0.891432,-0.128848,-0.055447,0,3.141593,0], a=0.523599, v=0.349066, r=0.005)  # [Move to [891.432, -128.848, -55.447] mm]
  movej(p[0.891432,-0.128848,-0.085447,0,3.141593,0], a=0.523599, v=0.349066, r=0.005)  # [Move to [891.432, -128.848, -85.447] mm]
  movej(p[0.891432,-0.128848,-0.055447,0,3.141593,0], a=0.523599, v=0.349066, r=0.005)  # [Move to [891.432, -128.848, -55.447] mm]
  movej(p[0.895774,-0.128848,-0.055978,0,3.141593,0], a=0.523599, v=0.349066, r=0.005)  # [Move to [895.774, -128.848, -55.978] mm]
  movej(p[0.895774,-0.128848,-0.085978,0,3.141593,0], a=0.523599, v=0.349066, r=0.005)  # [Move to [895.774, -128.848, -85.978] mm]
  movej(p[0.895774,-0.128848,-0.055978,0,3.141593,0], a=0.523599, v=0.349066, r=0.005)  # [Move to [895.774, -128.848, -55.978] mm]
  movej(p[0.900083,-0.128848,-0.056333,0,3.141593,0], a=0.523599, v=0.349066, r=0.005)  # [Move to [900.083, -128.848, -56.333] mm]
  movej(p[0.900083,-0.128848,-0.086333,0,3.141593,0], a=0.523599, v=0.349066, r=0.005)  # [Move to [900.083, -128.848, -86.333] mm]
  movej(p[0.900083,-0.128848,-0.056333,0,3.141593,0], a=0.523599, v=0.349066, r=0.005)  # [Move to [900.083, -128.848, -56.333] mm]
  movej(p[0.904614,-0.128848,-0.056535,0,3.141593,0], a=0.523599, v=0.349066, r=0.005)  # [Move to [904.614, -128.848, -56.535] mm]
  movej(p[0.904614,-0.128848,-0.086535,0,3.141593,0], a=0.523599, v=0.349066, r=0.005)  # [Move to [904.614, -128.848, -86.535] mm]
  movej(p[0.904614,-0.128848,-0.056535,0,3.141593,0], a=0.523599, v=0.349066, r=0.005)  # [Move to [904.614, -128.848, -56.535] mm]
  movej(p[0.909545,-0.128848,-0.056561,0,3.141593,0], a=0.523599, v=0.349066, r=0.005)  # [Move to [909.545, -128.848, -56.561] mm]
  movej(p[0.909545,-0.128848,-0.086561,0,3.141593,0], a=0.523599, v=0.349066, r=0.005)  # [Move to [909.545, -128.848, -86.561] mm]
  movej(p[0.909545,-0.128848,-0.056561,0,3.141593,0], a=0.523599, v=0.349066, r=0.005)  # [Move to [909.545, -128.848, -56.561] mm]
  movej(p[0.91452,-0.128848,-0.056395,0,3.141593,0], a=0.523599, v=0.349066, r=0.005)  # [Move to [914.52, -128.848, -56.395] mm]
  movej(p[0.91452,-0.128848,-0.086395,0,3.141593,0], a=0.523599, v=0.349066, r=0.005)  # [Move to [914.52, -128.848, -86.395] mm]
  movej(p[0.91452,-0.128848,-0.056395,0,3.141593,0], a=0.523599, v=0.349066, r=0.005)  # [Move to [914.52, -128.848, -56.395] mm]
  movej(p[0.919303,-0.128848,-0.056068,0,3.141593,0], a=0.523599, v=0.349066, r=0.005)  # [Move to [919.303, -128.848, -56.068] mm]
  movej(p[0.919303,-0.128848,-0.086068,0,3.141593,0], a=0.523599, v=0.349066, r=0.005)  # [Move to [919.303, -128.848, -86.068] mm]
  movej(p[0.919303,-0.128848,-0.056068,0,3.141593,0], a=0.523599, v=0.349066, r=0.005)  # [Move to [919.303, -128.848, -56.068] mm]
  movej(p[0.923938,-0.128848,-0.055602,0,3.141593,0], a=0.523599, v=0.349066, r=0.005)  # [Move to [923.938, -128.848, -55.602] mm]
  movej(p[0.923938,-0.128848,-0.085602,0,3.141593,0], a=0.523599, v=0.349066, r=0.005)  # [Move to [923.938, -128.848, -85.602] mm]
  movej(p[0.923938,-0.128848,-0.055602,0,3.141593,0], a=0.523599, v=0.349066, r=0.005)  # [Move to [923.938, -128.848, -55.602] mm]
  movej(p[0.926996,-0.128848,-0.055201,0,3.141593,0], a=0.523599, v=0.349066, r=0.005)  # [Move to [926.996, -128.848, -55.201] mm]
  movej(p[0.926996,-0.128848,-0.085201,0,3.141593,0], a=0.523599, v=0.349066, r=0.005)  # [Move to [926.996, -128.848, -85.201] mm]
  movej(p[0.926996,-0.128848,-0.055201,0,3.141593,0], a=0.523599, v=0.349066, r=0.005)  # [Move to [926.996, -128.848, -55.201] mm]
  movej(p[0.92854,-0.128848,-0.054977,0,3.141593,0], a=0.523599, v=0.349066, r=0.005)  # [Move to [928.54, -128.848, -54.977] mm]
  movej(p[0.92854,-0.128848,-0.084977,0,3.141593,0], a=0.523599, v=0.349066, r=0.005)  # [Move to [928.54, -128.848, -84.977] mm]
  movej(p[0.92854,-0.128848,-0.054977,0,3.141593,0], a=0.523599, v=0.349066, r=0.005)  # [Move to [928.54, -128.848, -54.977] mm]
  movej(p[0.77146,-0.123493,-0.050131,0,3.141593,0], a=0.523599, v=0.349066, r=0.005)  # [Move to [771.46, -123.493, -50.131] mm]
  movej(p[0.77146,-0.123493,-0.080131,0,3.141593,0], a=0.523599, v=0.349066, r=0.005)  # [Move to [771.46, -123.493, -80.131] mm]
  movej(p[0.77146,-0.123493,-0.050131,0,3.141593,0], a=0.523599, v=0.349066, r=0.005)  # [Move to [771.46, -123.493, -50.131] mm]
  movej(p[0.773021,-0.123493,-0.04989,0,3.141593,0], a=0.523599, v=0.349066, r=0.005)  # [Move to [773.021, -123.493, -49.89] mm]
  movej(p[0.773021,-0.123493,-0.07989,0,3.141593,0], a=0.523599, v=0.349066, r=0.005)  # [Move to [773.021, -123.493, -79.89] mm]
  movej(p[0.773021,-0.123493,-0.04989,0,3.141593,0], a=0.523599, v=0.349066, r=0.005)  # [Move to [773.021, -123.493, -49.89] mm]
  movej(p[0.775986,-0.123493,-0.04945,0,3.141593,0], a=0.523599, v=0.349066, r=0.005)  # [Move to [775.986, -123.493, -49.45] mm]
  movej(p[0.775986,-0.123493,-0.07945,0,3.141593,0], a=0.523599, v=0.349066, r=0.005)  # [Move to [775.986, -123.493, -79.45] mm]
  movej(p[0.775986,-0.123493,-0.04945,0,3.141593,0], a=0.523599, v=0.349066, r=0.005)  # [Move to [775.986, -123.493, -49.45] mm]
  movej(p[0.78028,-0.123493,-0.048839,0,3.141593,0], a=0.523599, v=0.349066, r=0.005)  # [Move to [780.28, -123.493, -48.839] mm]
  movej(p[0.78028,-0.123493,-0.078839,0,3.141593,0], a=0.523599, v=0.349066, r=0.005)  # [Move to [780.28, -123.493, -78.839] mm]
  movej(p[0.78028,-0.123493,-0.048839,0,3.141593,0], a=0.523599, v=0.349066, r=0.005)  # [Move to [780.28, -123.493, -48.839] mm]
  movej(p[0.784632,-0.123493,-0.048228,0,3.141593,0], a=0.523599, v=0.349066, r=0.005)  # [Move to [784.632, -123.493, -48.228] mm]
  movej(p[0.784632,-0.123493,-0.078228,0,3.141593,0], a=0.523599, v=0.349066, r=0.005)  # [Move to [784.632, -123.493, -78.228] mm]
  movej(p[0.784632,-0.123493,-0.048228,0,3.141593,0], a=0.523599, v=0.349066, r=0.005)  # [Move to [784.632, -123.493, -48.228] mm]
  movej(p[0.789211,-0.123493,-0.047578,0,3.141593,0], a=0.523599, v=0.349066, r=0.005)  # [Move to [789.211, -123.493, -47.578] mm]
  movej(p[0.789211,-0.123493,-0.077578,0,3.141593,0], a=0.523599, v=0.349066, r=0.005)  # [Move to [789.211, -123.493, -77.578] mm]
  movej(p[0.789211,-0.123493,-0.047578,0,3.141593,0], a=0.523599, v=0.349066, r=0.005)  # [Move to [789.211, -123.493, -47.578] mm]
  movej(p[0.794171,-0.123493,-0.046839,0,3.141593,0], a=0.523599, v=0.349066, r=0.005)  # [Move to [794.171, -123.493, -46.839] mm]
  movej(p[0.794171,-0.123493,-0.076839,0,3.141593,0], a=0.523599, v=0.349066, r=0.005)  # [Move to [794.171, -123.493, -76.839] mm]
  movej(p[0.794171,-0.123493,-0.046839,0,3.141593,0], a=0.523599, v=0.349066, r=0.005)  # [Move to [794.171, -123.493, -46.839] mm]
  movej(p[0.799067,-0.123493,-0.046052,0,3.141593,0], a=0.523599, v=0.349066, r=0.005)  # [Move to [799.067, -123.493, -46.052] mm]
  movej(p[0.799067,-0.123493,-0.076052,0,3.141593,0], a=0.523599, v=0.349066, r=0.005)  # [Move to [799.067, -123.493, -76.052] mm]
  movej(p[0.799067,-0.123493,-0.046052,0,3.141593,0], a=0.523599, v=0.349066, r=0.005)  # [Move to [799.067, -123.493, -46.052] mm]
  movej(p[0.803595,-0.123493,-0.045316,0,3.141593,0], a=0.523599, v=0.349066, r=0.005)  # [Move to [803.595, -123.493, -45.316] mm]
  movej(p[0.803595,-0.123493,-0.075316,0,3.141593,0], a=0.523599, v=0.349066, r=0.005)  # [Move to [803.595, -123.493, -75.316] mm]
  movej(p[0.803595,-0.123493,-0.045316,0,3.141593,0], a=0.523599, v=0.349066, r=0.005)  # [Move to [803.595, -123.493, -45.316] mm]
  movej(p[0.807929,-0.123493,-0.044637,0,3.141593,0], a=0.523599, v=0.349066, r=0.005)  # [Move to [807.929, -123.493, -44.637] mm]
  movej(p[0.807929,-0.123493,-0.074637,0,3.141593,0], a=0.523599, v=0.349066, r=0.005)  # [Move to [807.929, -123.493, -74.637] mm]
  movej(p[0.807929,-0.123493,-0.044637,0,3.141593,0], a=0.523599, v=0.349066, r=0.005)  # [Move to [807.929, -123.493, -44.637] mm]
  movej(p[0.812223,-0.123493,-0.04402,0,3.141593,0], a=0.523599, v=0.349066, r=0.005)  # [Move to [812.223, -123.493, -44.02] mm]
  movej(p[0.812223,-0.123493,-0.07402,0,3.141593,0], a=0.523599, v=0.349066, r=0.005)  # [Move to [812.223, -123.493, -74.02] mm]
  movej(p[0.812223,-0.123493,-0.04402,0,3.141593,0], a=0.523599, v=0.349066, r=0.005)  # [Move to [812.223, -123.493, -44.02] mm]
  movej(p[0.816716,-0.123493,-0.043455,0,3.141593,0], a=0.523599, v=0.349066, r=0.005)  # [Move to [816.716, -123.493, -43.455] mm]
  movej(p[0.816716,-0.123493,-0.073455,0,3.141593,0], a=0.523599, v=0.349066, r=0.005)  # [Move to [816.716, -123.493, -73.455] mm]
  movej(p[0.816716,-0.123493,-0.043455,0,3.141593,0], a=0.523599, v=0.349066, r=0.005)  # [Move to [816.716, -123.493, -43.455] mm]
  movej(p[0.821884,-0.123493,-0.042928,0,3.141593,0], a=0.523599, v=0.349066, r=0.005)  # [Move to [821.884, -123.493, -42.928] mm]
  movej(p[0.821884,-0.123493,-0.072928,0,3.141593,0], a=0.523599, v=0.349066, r=0.005)  # [Move to [821.884, -123.493, -72.928] mm]
  movej(p[0.821884,-0.123493,-0.042928,0,3.141593,0], a=0.523599, v=0.349066, r=0.005)  # [Move to [821.884, -123.493, -42.928] mm]
  movej(p[0.827553,-0.123493,-0.042547,0,3.141593,0], a=0.523599, v=0.349066, r=0.005)  # [Move to [827.553, -123.493, -42.547] mm]
  movej(p[0.827553,-0.123493,-0.072547,0,3.141593,0], a=0.523599, v=0.349066, r=0.005)  # [Move to [827.553, -123.493, -72.547] mm]
  movej(p[0.827553,-0.123493,-0.042547,0,3.141593,0], a=0.523599, v=0.349066, r=0.005)  # [Move to [827.553, -123.493, -42.547] mm]
  movej(p[0.83298,-0.123493,-0.042431,0,3.141593,0], a=0.523599, v=0.349066, r=0.005)  # [Move to [832.98, -123.493, -42.431] mm]
  movej(p[0.83298,-0.123493,-0.072431,0,3.141593,0], a=0.523599, v=0.349066, r=0.005)  # [Move to [832.98, -123.493, -72.431] mm]
  movej(p[0.83298,-0.123493,-0.042431,0,3.141593,0], a=0.523599, v=0.349066, r=0.005)  # [Move to [832.98, -123.493, -42.431] mm]
  movej(p[0.837788,-0.123493,-0.042575,0,3.141593,0], a=0.523599, v=0.349066, r=0.005)  # [Move to [837.788, -123.493, -42.575] mm]
  movej(p[0.837788,-0.123493,-0.072575,0,3.141593,0], a=0.523599, v=0.349066, r=0.005)  # [Move to [837.788, -123.493, -72.575] mm]
  movej(p[0.837788,-0.123493,-0.042575,0,3.141593,0], a=0.523599, v=0.349066, r=0.005)  # [Move to [837.788, -123.493, -42.575] mm]
  movej(p[0.842115,-0.123493,-0.042956,0,3.141593,0], a=0.523599, v=0.349066, r=0.005)  # [Move to [842.115, -123.493, -42.956] mm]
  movej(p[0.842115,-0.123493,-0.072956,0,3.141593,0], a=0.523599, v=0.349066, r=0.005)  # [Move to [842.115, -123.493, -72.956] mm]
  movej(p[0.842115,-0.123493,-0.042956,0,3.141593,0], a=0.523599, v=0.349066, r=0.005)  # [Move to [842.115, -123.493, -42.956] mm]
  movej(p[0.846217,-0.123493,-0.043546,0,3.141593,0], a=0.523599, v=0.349066, r=0.005)  # [Move to [846.217, -123.493, -43.546] mm]
  movej(p[0.846217,-0.123493,-0.073546,0,3.141593,0], a=0.523599, v=0.349066, r=0.005)  # [Move to [846.217, -123.493, -73.546] mm]
  movej(p[0.846217,-0.123493,-0.043546,0,3.141593,0], a=0.523599, v=0.349066, r=0.005)  # [Move to [846.217, -123.493, -43.546] mm]
  movej(p[0.850318,-0.123493,-0.044342,0,3.141593,0], a=0.523599, v=0.349066, r=0.005)  # [Move to [850.318, -123.493, -44.342] mm]
  movej(p[0.850318,-0.123493,-0.074342,0,3.141593,0], a=0.523599, v=0.349066, r=0.005)  # [Move to [850.318, -123.493, -74.342] mm]
  movej(p[0.850318,-0.123493,-0.044342,0,3.141593,0], a=0.523599, v=0.349066, r=0.005)  # [Move to [850.318, -123.493, -44.342] mm]
  movej(p[0.854617,-0.123493,-0.045383,0,3.141593,0], a=0.523599, v=0.349066, r=0.005)  # [Move to [854.617, -123.493, -45.383] mm]
  movej(p[0.854617,-0.123493,-0.075383,0,3.141593,0], a=0.523599, v=0.349066, r=0.005)  # [Move to [854.617, -123.493, -75.383] mm]
  movej(p[0.854617,-0.123493,-0.045383,0,3.141593,0], a=0.523599, v=0.349066, r=0.005)  # [Move to [854.617, -123.493, -45.383] mm]
  movej(p[0.859335,-0.123493,-0.046743,0,3.141593,0], a=0.523599, v=0.349066, r=0.005)  # [Move to [859.335, -123.493, -46.743] mm]
  movej(p[0.859335,-0.123493,-0.076743,0,3.141593,0], a=0.523599, v=0.349066, r=0.005)  # [Move to [859.335, -123.493, -76.743] mm]
  movej(p[0.859335,-0.123493,-0.046743,0,3.141593,0], a=0.523599, v=0.349066, r=0.005)  # [Move to [859.335, -123.493, -46.743] mm]
  movej(p[0.86459,-0.123493,-0.048477,0,3.141593,0], a=0.523599, v=0.349066, r=0.005)  # [Move to [864.59, -123.493, -48.477] mm]
  movej(p[0.86459,-0.123493,-0.078477,0,3.141593,0], a=0.523599, v=0.349066, r=0.005)  # [Move to [864.59, -123.493, -78.477] mm]
  movej(p[0.86459,-0.123493,-0.048477,0,3.141593,0], a=0.523599, v=0.349066, r=0.005)  # [Move to [864.59, -123.493, -48.477] mm]
  movej(p[0.870005,-0.123493,-0.05038,0,3.141593,0], a=0.523599, v=0.349066, r=0.005)  # [Move to [870.005, -123.493, -50.38] mm]
  movej(p[0.870005,-0.123493,-0.08038,0,3.141593,0], a=0.523599, v=0.349066, r=0.005)  # [Move to [870.005, -123.493, -80.38] mm]
  movej(p[0.870005,-0.123493,-0.05038,0,3.141593,0], a=0.523599, v=0.349066, r=0.005)  # [Move to [870.005, -123.493, -50.38] mm]
  movej(p[0.875543,-0.123493,-0.052307,0,3.141593,0], a=0.523599, v=0.349066, r=0.005)  # [Move to [875.543, -123.493, -52.307] mm]
  movej(p[0.875543,-0.123493,-0.082307,0,3.141593,0], a=0.523599, v=0.349066, r=0.005)  # [Move to [875.543, -123.493, -82.307] mm]
  movej(p[0.875543,-0.123493,-0.052307,0,3.141593,0], a=0.523599, v=0.349066, r=0.005)  # [Move to [875.543, -123.493, -52.307] mm]
  movej(p[0.881334,-0.123493,-0.054143,0,3.141593,0], a=0.523599, v=0.349066, r=0.005)  # [Move to [881.334, -123.493, -54.143] mm]
  movej(p[0.881334,-0.123493,-0.084143,0,3.141593,0], a=0.523599, v=0.349066, r=0.005)  # [Move to [881.334, -123.493, -84.143] mm]
  movej(p[0.881334,-0.123493,-0.054143,0,3.141593,0], a=0.523599, v=0.349066, r=0.005)  # [Move to [881.334, -123.493, -54.143] mm]
  movej(p[0.886722,-0.123493,-0.055525,0,3.141593,0], a=0.523599, v=0.349066, r=0.005)  # [Move to [886.722, -123.493, -55.525] mm]
  movej(p[0.886722,-0.123493,-0.085525,0,3.141593,0], a=0.523599, v=0.349066, r=0.005)  # [Move to [886.722, -123.493, -85.525] mm]
  movej(p[0.886722,-0.123493,-0.055525,0,3.141593,0], a=0.523599, v=0.349066, r=0.005)  # [Move to [886.722, -123.493, -55.525] mm]
  movej(p[0.891344,-0.123493,-0.056421,0,3.141593,0], a=0.523599, v=0.349066, r=0.005)  # [Move to [891.344, -123.493, -56.421] mm]
  movej(p[0.891344,-0.123493,-0.086421,0,3.141593,0], a=0.523599, v=0.349066, r=0.005)  # [Move to [891.344, -123.493, -86.421] mm]
  movej(p[0.891344,-0.123493,-0.056421,0,3.141593,0], a=0.523599, v=0.349066, r=0.005)  # [Move to [891.344, -123.493, -56.421] mm]
  movej(p[0.895675,-0.123493,-0.057046,0,3.141593,0], a=0.523599, v=0.349066, r=0.005)  # [Move to [895.675, -123.493, -57.046] mm]
  movej(p[0.895675,-0.123493,-0.087046,0,3.141593,0], a=0.523599, v=0.349066, r=0.005)  # [Move to [895.675, -123.493, -87.046] mm]
  movej(p[0.895675,-0.123493,-0.057046,0,3.141593,0], a=0.523599, v=0.349066, r=0.005)  # [Move to [895.675, -123.493, -57.046] mm]
  movej(p[0.899976,-0.123493,-0.057463,0,3.141593,0], a=0.523599, v=0.349066, r=0.005)  # [Move to [899.976, -123.493, -57.463] mm]
  movej(p[0.899976,-0.123493,-0.087463,0,3.141593,0], a=0.523599, v=0.349066, r=0.005)  # [Move to [899.976, -123.493, -87.463] mm]
  movej(p[0.899976,-0.123493,-0.057463,0,3.141593,0], a=0.523599, v=0.349066, r=0.005)  # [Move to [899.976, -123.493, -57.463] mm]
  movej(p[0.904505,-0.123493,-0.057703,0,3.141593,0], a=0.523599, v=0.349066, r=0.005)  # [Move to [904.505, -123.493, -57.703] mm]
  movej(p[0.904505,-0.123493,-0.087703,0,3.141593,0], a=0.523599, v=0.349066, r=0.005)  # [Move to [904.505, -123.493, -87.703] mm]
  movej(p[0.904505,-0.123493,-0.057703,0,3.141593,0], a=0.523599, v=0.349066, r=0.005)  # [Move to [904.505, -123.493, -57.703] mm]
