## ###\   ###\ #####\  ######\##\  ##\##\###\   ##\ #####\ 
## ####\ ####\##\\\##\##\\\\\\##\  ##\##\####\  ##\##\\\##\
## ##\####\##\#######\##\     #######\##\##\##\ ##\#######\
## ##\\##\\##\##\\\##\##\     ##\\\##\##\##\\##\##\##\\\##\
## ##\ \\\ ##\##\  ##\\######\##\  ##\##\##\ \####\##\  ##\
## \\\     \\\\\\  \\\ \\\\\\\\\\  \\\\\\\\\  \\\\\\\\  \\\
## 
## Program name: slime_mold
## Created: 01/03/2021 19:28:15
## 
## DISCLAIMER: WORKING WITH ROBOTS CAN BE DANGEROUS!
## When using robots in a real-time interactive environment, please make sure:
##     - You have been adequately trained to use that particular machine,
##     - you are in good physical and mental condition,
##     - you are operating the robot under the utmost security measures,
##     - you are following the facility's and facility staff's security protocols,
##     - and the robot has the appropriate guarding in place, including, but not reduced to:
##         e -stops, physical barriers, light curtains, etc.
## The Machina software framework and its generated code is provided as is;
## use at your own risk. This product is not intended for any use that may
## involve potential risks of death (including lifesaving equipment),
## personal injury, or severe property or environmental damage.
## Machina is in a very early stage of development. You are using this software
## at your own risk, no warranties are provided herewith, and unexpected
## results / bugs may arise during its use. Always test and simulate your
## applications thoroughly before running them on a real device.
## The author/s shall not be liable for any injuries, damages or losses
## consequence of using this software in any way whatsoever.
## 
## 
## Copyright(c) 2021 Jose Luis Garcia del Castillo y Lopez
## https://github.com/RobotExMachina
## 
## MIT License
## 
## Permission is hereby granted, free of charge, to any person obtaining a copy
## of this software and associated documentation files(the "Software"), to deal
## in the Software without restriction, including without limitation the rights
## to use, copy, modify, merge, publish, distribute, sublicense, and / or sell
## copies of the Software, and to permit persons to whom the Software is
## furnished to do so, subject to the following conditions:
## 
## The above copyright notice and this permission notice shall be included in all
## copies or substantial portions of the Software.
## 
## THE SOFTWARE IS PROVIDED "AS IS", WITHOUT WARRANTY OF ANY KIND, EXPRESS OR
## IMPLIED, INCLUDING BUT NOT LIMITED TO THE WARRANTIES OF MERCHANTABILITY,
## FITNESS FOR A PARTICULAR PURPOSE AND NONINFRINGEMENT. IN NO EVENT SHALL THE
## AUTHORS OR COPYRIGHT HOLDERS BE LIABLE FOR ANY CLAIM, DAMAGES OR OTHER
## LIABILITY, WHETHER IN AN ACTION OF CONTRACT, TORT OR OTHERWISE, ARISING FROM,
## OUT OF OR IN CONNECTION WITH THE SOFTWARE OR THE USE OR OTHER DEALINGS IN THE
## SOFTWARE.


def slime_mold():

  movej([0,-1.570796,-1.570796,-1.570796,1.570796,0], a=0.523599, v=0.349066, r=0.005)  # [Set joint rotations to [0, -90, -90, -90, 90, 0] deg]
  # [Set motion type to 'Joint']
  # [Set motion speed to 25 mm/s or deg/s]
  movej(p[0.724828,-0.136807,-0.044687,0,3.141593,0], a=0.523599, v=0.436332, r=0.005)  # [Transform: move to [724.828, -136.807, -44.687] mm and rotate to [[-1, 0, 0], [0, 1, 0], [0, 0, -1]]]
  movej(p[0.724828,-0.136807,-0.059687,0,3.141593,0], a=0.523599, v=0.436332, r=0.005)  # [Transform: move to [724.828, -136.807, -59.687] mm and rotate to [[-1, 0, 0], [0, 1, 0], [0, 0, -1]]]
  movej(p[0.722178,-0.13754,-0.045788,0,3.141593,0], a=0.523599, v=0.436332, r=0.005)  # [Transform: move to [722.178, -137.54, -45.788] mm and rotate to [[-1, 0, 0], [0, 1, 0], [0, 0, -1]]]
  movej(p[0.722178,-0.13754,-0.060788,0,3.141593,0], a=0.523599, v=0.436332, r=0.005)  # [Transform: move to [722.178, -137.54, -60.788] mm and rotate to [[-1, 0, 0], [0, 1, 0], [0, 0, -1]]]
  movej(p[0.719281,-0.139312,-0.046502,0,3.141593,0], a=0.523599, v=0.436332, r=0.005)  # [Transform: move to [719.281, -139.312, -46.502] mm and rotate to [[-1, 0, 0], [0, 1, 0], [0, 0, -1]]]
  movej(p[0.719281,-0.139312,-0.061502,0,3.141593,0], a=0.523599, v=0.436332, r=0.005)  # [Transform: move to [719.281, -139.312, -61.502] mm and rotate to [[-1, 0, 0], [0, 1, 0], [0, 0, -1]]]
  movej(p[0.716068,-0.138687,-0.044045,0,3.141593,0], a=0.523599, v=0.436332, r=0.005)  # [Transform: move to [716.068, -138.687, -44.045] mm and rotate to [[-1, 0, 0], [0, 1, 0], [0, 0, -1]]]
  movej(p[0.716068,-0.138687,-0.059045,0,3.141593,0], a=0.523599, v=0.436332, r=0.005)  # [Transform: move to [716.068, -138.687, -59.045] mm and rotate to [[-1, 0, 0], [0, 1, 0], [0, 0, -1]]]
  movej(p[0.716955,-0.13613,-0.046673,0,3.141593,0], a=0.523599, v=0.436332, r=0.005)  # [Transform: move to [716.955, -136.13, -46.673] mm and rotate to [[-1, 0, 0], [0, 1, 0], [0, 0, -1]]]
  movej(p[0.716955,-0.13613,-0.061673,0,3.141593,0], a=0.523599, v=0.436332, r=0.005)  # [Transform: move to [716.955, -136.13, -61.673] mm and rotate to [[-1, 0, 0], [0, 1, 0], [0, 0, -1]]]
  movej(p[0.711042,-0.13796,-0.04608,0,3.141593,0], a=0.523599, v=0.436332, r=0.005)  # [Transform: move to [711.042, -137.96, -46.08] mm and rotate to [[-1, 0, 0], [0, 1, 0], [0, 0, -1]]]
  movej(p[0.711042,-0.13796,-0.06108,0,3.141593,0], a=0.523599, v=0.436332, r=0.005)  # [Transform: move to [711.042, -137.96, -61.08] mm and rotate to [[-1, 0, 0], [0, 1, 0], [0, 0, -1]]]
  movej(p[0.710338,-0.134376,-0.044594,0,3.141593,0], a=0.523599, v=0.436332, r=0.005)  # [Transform: move to [710.338, -134.376, -44.594] mm and rotate to [[-1, 0, 0], [0, 1, 0], [0, 0, -1]]]
  movej(p[0.710338,-0.134376,-0.059594,0,3.141593,0], a=0.523599, v=0.436332, r=0.005)  # [Transform: move to [710.338, -134.376, -59.594] mm and rotate to [[-1, 0, 0], [0, 1, 0], [0, 0, -1]]]
  movej(p[0.708328,-0.135179,-0.045663,0,3.141593,0], a=0.523599, v=0.436332, r=0.005)  # [Transform: move to [708.328, -135.179, -45.663] mm and rotate to [[-1, 0, 0], [0, 1, 0], [0, 0, -1]]]
  movej(p[0.708328,-0.135179,-0.060663,0,3.141593,0], a=0.523599, v=0.436332, r=0.005)  # [Transform: move to [708.328, -135.179, -60.663] mm and rotate to [[-1, 0, 0], [0, 1, 0], [0, 0, -1]]]
  movej(p[0.707589,-0.128801,-0.046325,0,3.141593,0], a=0.523599, v=0.436332, r=0.005)  # [Transform: move to [707.589, -128.801, -46.325] mm and rotate to [[-1, 0, 0], [0, 1, 0], [0, 0, -1]]]
  movej(p[0.707589,-0.128801,-0.061325,0,3.141593,0], a=0.523599, v=0.436332, r=0.005)  # [Transform: move to [707.589, -128.801, -61.325] mm and rotate to [[-1, 0, 0], [0, 1, 0], [0, 0, -1]]]
  movej(p[0.704072,-0.126089,-0.046966,0,3.141593,0], a=0.523599, v=0.436332, r=0.005)  # [Transform: move to [704.072, -126.089, -46.966] mm and rotate to [[-1, 0, 0], [0, 1, 0], [0, 0, -1]]]
  movej(p[0.704072,-0.126089,-0.061966,0,3.141593,0], a=0.523599, v=0.436332, r=0.005)  # [Transform: move to [704.072, -126.089, -61.966] mm and rotate to [[-1, 0, 0], [0, 1, 0], [0, 0, -1]]]
  movej(p[0.702194,-0.125932,-0.044704,0,3.141593,0], a=0.523599, v=0.436332, r=0.005)  # [Transform: move to [702.194, -125.932, -44.704] mm and rotate to [[-1, 0, 0], [0, 1, 0], [0, 0, -1]]]
  movej(p[0.702194,-0.125932,-0.059704,0,3.141593,0], a=0.523599, v=0.436332, r=0.005)  # [Transform: move to [702.194, -125.932, -59.704] mm and rotate to [[-1, 0, 0], [0, 1, 0], [0, 0, -1]]]
  movej(p[0.696217,-0.121588,-0.046914,0,3.141593,0], a=0.523599, v=0.436332, r=0.005)  # [Transform: move to [696.217, -121.588, -46.914] mm and rotate to [[-1, 0, 0], [0, 1, 0], [0, 0, -1]]]
  movej(p[0.696217,-0.121588,-0.061914,0,3.141593,0], a=0.523599, v=0.436332, r=0.005)  # [Transform: move to [696.217, -121.588, -61.914] mm and rotate to [[-1, 0, 0], [0, 1, 0], [0, 0, -1]]]
  movej(p[0.690267,-0.116263,-0.046977,0,3.141593,0], a=0.523599, v=0.436332, r=0.005)  # [Transform: move to [690.267, -116.263, -46.977] mm and rotate to [[-1, 0, 0], [0, 1, 0], [0, 0, -1]]]
  movej(p[0.690267,-0.116263,-0.061977,0,3.141593,0], a=0.523599, v=0.436332, r=0.005)  # [Transform: move to [690.267, -116.263, -61.977] mm and rotate to [[-1, 0, 0], [0, 1, 0], [0, 0, -1]]]
  movej(p[0.689185,-0.117702,-0.04547,0,3.141593,0], a=0.523599, v=0.436332, r=0.005)  # [Transform: move to [689.185, -117.702, -45.47] mm and rotate to [[-1, 0, 0], [0, 1, 0], [0, 0, -1]]]
  movej(p[0.689185,-0.117702,-0.06047,0,3.141593,0], a=0.523599, v=0.436332, r=0.005)  # [Transform: move to [689.185, -117.702, -60.47] mm and rotate to [[-1, 0, 0], [0, 1, 0], [0, 0, -1]]]
  movej(p[0.68642,-0.117327,-0.045854,0,3.141593,0], a=0.523599, v=0.436332, r=0.005)  # [Transform: move to [686.42, -117.327, -45.854] mm and rotate to [[-1, 0, 0], [0, 1, 0], [0, 0, -1]]]
  movej(p[0.68642,-0.117327,-0.060854,0,3.141593,0], a=0.523599, v=0.436332, r=0.005)  # [Transform: move to [686.42, -117.327, -60.854] mm and rotate to [[-1, 0, 0], [0, 1, 0], [0, 0, -1]]]
  movej(p[0.684553,-0.116441,-0.046162,0,3.141593,0], a=0.523599, v=0.436332, r=0.005)  # [Transform: move to [684.553, -116.441, -46.162] mm and rotate to [[-1, 0, 0], [0, 1, 0], [0, 0, -1]]]
  movej(p[0.684553,-0.116441,-0.061162,0,3.141593,0], a=0.523599, v=0.436332, r=0.005)  # [Transform: move to [684.553, -116.441, -61.162] mm and rotate to [[-1, 0, 0], [0, 1, 0], [0, 0, -1]]]
  movej(p[0.682797,-0.115714,-0.044891,0,3.141593,0], a=0.523599, v=0.436332, r=0.005)  # [Transform: move to [682.797, -115.714, -44.891] mm and rotate to [[-1, 0, 0], [0, 1, 0], [0, 0, -1]]]
  movej(p[0.682797,-0.115714,-0.059891,0,3.141593,0], a=0.523599, v=0.436332, r=0.005)  # [Transform: move to [682.797, -115.714, -59.891] mm and rotate to [[-1, 0, 0], [0, 1, 0], [0, 0, -1]]]
  movej(p[0.686528,-0.115148,-0.046294,0,3.141593,0], a=0.523599, v=0.436332, r=0.005)  # [Transform: move to [686.528, -115.148, -46.294] mm and rotate to [[-1, 0, 0], [0, 1, 0], [0, 0, -1]]]
  movej(p[0.686528,-0.115148,-0.061294,0,3.141593,0], a=0.523599, v=0.436332, r=0.005)  # [Transform: move to [686.528, -115.148, -61.294] mm and rotate to [[-1, 0, 0], [0, 1, 0], [0, 0, -1]]]
  movej(p[0.677595,-0.116507,-0.044806,0,3.141593,0], a=0.523599, v=0.436332, r=0.005)  # [Transform: move to [677.595, -116.507, -44.806] mm and rotate to [[-1, 0, 0], [0, 1, 0], [0, 0, -1]]]
  movej(p[0.677595,-0.116507,-0.059806,0,3.141593,0], a=0.523599, v=0.436332, r=0.005)  # [Transform: move to [677.595, -116.507, -59.806] mm and rotate to [[-1, 0, 0], [0, 1, 0], [0, 0, -1]]]
  movej(p[0.677932,-0.120175,-0.046733,0,3.141593,0], a=0.523599, v=0.436332, r=0.005)  # [Transform: move to [677.932, -120.175, -46.733] mm and rotate to [[-1, 0, 0], [0, 1, 0], [0, 0, -1]]]
  movej(p[0.677932,-0.120175,-0.061733,0,3.141593,0], a=0.523599, v=0.436332, r=0.005)  # [Transform: move to [677.932, -120.175, -61.733] mm and rotate to [[-1, 0, 0], [0, 1, 0], [0, 0, -1]]]
  movej(p[0.675689,-0.123713,-0.046752,0,3.141593,0], a=0.523599, v=0.436332, r=0.005)  # [Transform: move to [675.689, -123.713, -46.752] mm and rotate to [[-1, 0, 0], [0, 1, 0], [0, 0, -1]]]
  movej(p[0.675689,-0.123713,-0.061752,0,3.141593,0], a=0.523599, v=0.436332, r=0.005)  # [Transform: move to [675.689, -123.713, -61.752] mm and rotate to [[-1, 0, 0], [0, 1, 0], [0, 0, -1]]]
  movej(p[0.672999,-0.123496,-0.045984,0,3.141593,0], a=0.523599, v=0.436332, r=0.005)  # [Transform: move to [672.999, -123.496, -45.984] mm and rotate to [[-1, 0, 0], [0, 1, 0], [0, 0, -1]]]
  movej(p[0.672999,-0.123496,-0.060984,0,3.141593,0], a=0.523599, v=0.436332, r=0.005)  # [Transform: move to [672.999, -123.496, -60.984] mm and rotate to [[-1, 0, 0], [0, 1, 0], [0, 0, -1]]]
  movej(p[0.673535,-0.121416,-0.04601,0,3.141593,0], a=0.523599, v=0.436332, r=0.005)  # [Transform: move to [673.535, -121.416, -46.01] mm and rotate to [[-1, 0, 0], [0, 1, 0], [0, 0, -1]]]
  movej(p[0.673535,-0.121416,-0.06101,0,3.141593,0], a=0.523599, v=0.436332, r=0.005)  # [Transform: move to [673.535, -121.416, -61.01] mm and rotate to [[-1, 0, 0], [0, 1, 0], [0, 0, -1]]]
  movej(p[0.669436,-0.129659,-0.044806,0,3.141593,0], a=0.523599, v=0.436332, r=0.005)  # [Transform: move to [669.436, -129.659, -44.806] mm and rotate to [[-1, 0, 0], [0, 1, 0], [0, 0, -1]]]
  movej(p[0.669436,-0.129659,-0.059806,0,3.141593,0], a=0.523599, v=0.436332, r=0.005)  # [Transform: move to [669.436, -129.659, -59.806] mm and rotate to [[-1, 0, 0], [0, 1, 0], [0, 0, -1]]]
  movej(p[0.664793,-0.133722,-0.044312,0,3.141593,0], a=0.523599, v=0.436332, r=0.005)  # [Transform: move to [664.793, -133.722, -44.312] mm and rotate to [[-1, 0, 0], [0, 1, 0], [0, 0, -1]]]
  movej(p[0.664793,-0.133722,-0.059312,0,3.141593,0], a=0.523599, v=0.436332, r=0.005)  # [Transform: move to [664.793, -133.722, -59.312] mm and rotate to [[-1, 0, 0], [0, 1, 0], [0, 0, -1]]]
  movej(p[0.665186,-0.138577,-0.044562,0,3.141593,0], a=0.523599, v=0.436332, r=0.005)  # [Transform: move to [665.186, -138.577, -44.562] mm and rotate to [[-1, 0, 0], [0, 1, 0], [0, 0, -1]]]
  movej(p[0.665186,-0.138577,-0.059562,0,3.141593,0], a=0.523599, v=0.436332, r=0.005)  # [Transform: move to [665.186, -138.577, -59.562] mm and rotate to [[-1, 0, 0], [0, 1, 0], [0, 0, -1]]]
  movej(p[0.661089,-0.1419,-0.045039,0,3.141593,0], a=0.523599, v=0.436332, r=0.005)  # [Transform: move to [661.089, -141.9, -45.039] mm and rotate to [[-1, 0, 0], [0, 1, 0], [0, 0, -1]]]
  movej(p[0.661089,-0.1419,-0.060039,0,3.141593,0], a=0.523599, v=0.436332, r=0.005)  # [Transform: move to [661.089, -141.9, -60.039] mm and rotate to [[-1, 0, 0], [0, 1, 0], [0, 0, -1]]]
  movej(p[0.659521,-0.1433,-0.044219,0,3.141593,0], a=0.523599, v=0.436332, r=0.005)  # [Transform: move to [659.521, -143.3, -44.219] mm and rotate to [[-1, 0, 0], [0, 1, 0], [0, 0, -1]]]
  movej(p[0.659521,-0.1433,-0.059219,0,3.141593,0], a=0.523599, v=0.436332, r=0.005)  # [Transform: move to [659.521, -143.3, -59.219] mm and rotate to [[-1, 0, 0], [0, 1, 0], [0, 0, -1]]]
  movej(p[0.660234,-0.147208,-0.046702,0,3.141593,0], a=0.523599, v=0.436332, r=0.005)  # [Transform: move to [660.234, -147.208, -46.702] mm and rotate to [[-1, 0, 0], [0, 1, 0], [0, 0, -1]]]
  movej(p[0.660234,-0.147208,-0.061702,0,3.141593,0], a=0.523599, v=0.436332, r=0.005)  # [Transform: move to [660.234, -147.208, -61.702] mm and rotate to [[-1, 0, 0], [0, 1, 0], [0, 0, -1]]]
  movej(p[0.663757,-0.145836,-0.044925,0,3.141593,0], a=0.523599, v=0.436332, r=0.005)  # [Transform: move to [663.757, -145.836, -44.925] mm and rotate to [[-1, 0, 0], [0, 1, 0], [0, 0, -1]]]
  movej(p[0.663757,-0.145836,-0.059925,0,3.141593,0], a=0.523599, v=0.436332, r=0.005)  # [Transform: move to [663.757, -145.836, -59.925] mm and rotate to [[-1, 0, 0], [0, 1, 0], [0, 0, -1]]]
  movej(p[0.669821,-0.146917,-0.044224,0,3.141593,0], a=0.523599, v=0.436332, r=0.005)  # [Transform: move to [669.821, -146.917, -44.224] mm and rotate to [[-1, 0, 0], [0, 1, 0], [0, 0, -1]]]
  movej(p[0.669821,-0.146917,-0.059224,0,3.141593,0], a=0.523599, v=0.436332, r=0.005)  # [Transform: move to [669.821, -146.917, -59.224] mm and rotate to [[-1, 0, 0], [0, 1, 0], [0, 0, -1]]]
  movej(p[0.676799,-0.151604,-0.04406,0,3.141593,0], a=0.523599, v=0.436332, r=0.005)  # [Transform: move to [676.799, -151.604, -44.06] mm and rotate to [[-1, 0, 0], [0, 1, 0], [0, 0, -1]]]
  movej(p[0.676799,-0.151604,-0.05906,0,3.141593,0], a=0.523599, v=0.436332, r=0.005)  # [Transform: move to [676.799, -151.604, -59.06] mm and rotate to [[-1, 0, 0], [0, 1, 0], [0, 0, -1]]]
  movej(p[0.680952,-0.155132,-0.046696,0,3.141593,0], a=0.523599, v=0.436332, r=0.005)  # [Transform: move to [680.952, -155.132, -46.696] mm and rotate to [[-1, 0, 0], [0, 1, 0], [0, 0, -1]]]
  movej(p[0.680952,-0.155132,-0.061696,0,3.141593,0], a=0.523599, v=0.436332, r=0.005)  # [Transform: move to [680.952, -155.132, -61.696] mm and rotate to [[-1, 0, 0], [0, 1, 0], [0, 0, -1]]]
  movej(p[0.68595,-0.160798,-0.046884,0,3.141593,0], a=0.523599, v=0.436332, r=0.005)  # [Transform: move to [685.95, -160.798, -46.884] mm and rotate to [[-1, 0, 0], [0, 1, 0], [0, 0, -1]]]
  movej(p[0.68595,-0.160798,-0.061884,0,3.141593,0], a=0.523599, v=0.436332, r=0.005)  # [Transform: move to [685.95, -160.798, -61.884] mm and rotate to [[-1, 0, 0], [0, 1, 0], [0, 0, -1]]]
  movej(p[0.68941,-0.16127,-0.045977,0,3.141593,0], a=0.523599, v=0.436332, r=0.005)  # [Transform: move to [689.41, -161.27, -45.977] mm and rotate to [[-1, 0, 0], [0, 1, 0], [0, 0, -1]]]
  movej(p[0.68941,-0.16127,-0.060977,0,3.141593,0], a=0.523599, v=0.436332, r=0.005)  # [Transform: move to [689.41, -161.27, -60.977] mm and rotate to [[-1, 0, 0], [0, 1, 0], [0, 0, -1]]]
  movej(p[0.691509,-0.166834,-0.044451,0,3.141593,0], a=0.523599, v=0.436332, r=0.005)  # [Transform: move to [691.509, -166.834, -44.451] mm and rotate to [[-1, 0, 0], [0, 1, 0], [0, 0, -1]]]
  movej(p[0.691509,-0.166834,-0.059451,0,3.141593,0], a=0.523599, v=0.436332, r=0.005)  # [Transform: move to [691.509, -166.834, -59.451] mm and rotate to [[-1, 0, 0], [0, 1, 0], [0, 0, -1]]]
  movej(p[0.690352,-0.169265,-0.044939,0,3.141593,0], a=0.523599, v=0.436332, r=0.005)  # [Transform: move to [690.352, -169.265, -44.939] mm and rotate to [[-1, 0, 0], [0, 1, 0], [0, 0, -1]]]
  movej(p[0.690352,-0.169265,-0.059939,0,3.141593,0], a=0.523599, v=0.436332, r=0.005)  # [Transform: move to [690.352, -169.265, -59.939] mm and rotate to [[-1, 0, 0], [0, 1, 0], [0, 0, -1]]]
  movej(p[0.692265,-0.171047,-0.044768,0,3.141593,0], a=0.523599, v=0.436332, r=0.005)  # [Transform: move to [692.265, -171.047, -44.768] mm and rotate to [[-1, 0, 0], [0, 1, 0], [0, 0, -1]]]
  movej(p[0.692265,-0.171047,-0.059768,0,3.141593,0], a=0.523599, v=0.436332, r=0.005)  # [Transform: move to [692.265, -171.047, -59.768] mm and rotate to [[-1, 0, 0], [0, 1, 0], [0, 0, -1]]]
  movej(p[0.690016,-0.173683,-0.044943,0,3.141593,0], a=0.523599, v=0.436332, r=0.005)  # [Transform: move to [690.016, -173.683, -44.943] mm and rotate to [[-1, 0, 0], [0, 1, 0], [0, 0, -1]]]
  movej(p[0.690016,-0.173683,-0.059943,0,3.141593,0], a=0.523599, v=0.436332, r=0.005)  # [Transform: move to [690.016, -173.683, -59.943] mm and rotate to [[-1, 0, 0], [0, 1, 0], [0, 0, -1]]]
  movej(p[0.691229,-0.175612,-0.046721,0,3.141593,0], a=0.523599, v=0.436332, r=0.005)  # [Transform: move to [691.229, -175.612, -46.721] mm and rotate to [[-1, 0, 0], [0, 1, 0], [0, 0, -1]]]
  movej(p[0.691229,-0.175612,-0.061721,0,3.141593,0], a=0.523599, v=0.436332, r=0.005)  # [Transform: move to [691.229, -175.612, -61.721] mm and rotate to [[-1, 0, 0], [0, 1, 0], [0, 0, -1]]]
  movej(p[0.695406,-0.172596,-0.046878,0,3.141593,0], a=0.523599, v=0.436332, r=0.005)  # [Transform: move to [695.406, -172.596, -46.878] mm and rotate to [[-1, 0, 0], [0, 1, 0], [0, 0, -1]]]
  movej(p[0.695406,-0.172596,-0.061878,0,3.141593,0], a=0.523599, v=0.436332, r=0.005)  # [Transform: move to [695.406, -172.596, -61.878] mm and rotate to [[-1, 0, 0], [0, 1, 0], [0, 0, -1]]]
  movej(p[0.698507,-0.173719,-0.046185,0,3.141593,0], a=0.523599, v=0.436332, r=0.005)  # [Transform: move to [698.507, -173.719, -46.185] mm and rotate to [[-1, 0, 0], [0, 1, 0], [0, 0, -1]]]
  movej(p[0.698507,-0.173719,-0.061185,0,3.141593,0], a=0.523599, v=0.436332, r=0.005)  # [Transform: move to [698.507, -173.719, -61.185] mm and rotate to [[-1, 0, 0], [0, 1, 0], [0, 0, -1]]]
  movej(p[0.69968,-0.175532,-0.04621,0,3.141593,0], a=0.523599, v=0.436332, r=0.005)  # [Transform: move to [699.68, -175.532, -46.21] mm and rotate to [[-1, 0, 0], [0, 1, 0], [0, 0, -1]]]
  movej(p[0.69968,-0.175532,-0.06121,0,3.141593,0], a=0.523599, v=0.436332, r=0.005)  # [Transform: move to [699.68, -175.532, -61.21] mm and rotate to [[-1, 0, 0], [0, 1, 0], [0, 0, -1]]]
  movej(p[0.697743,-0.176257,-0.045501,0,3.141593,0], a=0.523599, v=0.436332, r=0.005)  # [Transform: move to [697.743, -176.257, -45.501] mm and rotate to [[-1, 0, 0], [0, 1, 0], [0, 0, -1]]]
  movej(p[0.697743,-0.176257,-0.060501,0,3.141593,0], a=0.523599, v=0.436332, r=0.005)  # [Transform: move to [697.743, -176.257, -60.501] mm and rotate to [[-1, 0, 0], [0, 1, 0], [0, 0, -1]]]
  movej(p[0.698591,-0.178937,-0.044115,0,3.141593,0], a=0.523599, v=0.436332, r=0.005)  # [Transform: move to [698.591, -178.937, -44.115] mm and rotate to [[-1, 0, 0], [0, 1, 0], [0, 0, -1]]]
  movej(p[0.698591,-0.178937,-0.059115,0,3.141593,0], a=0.523599, v=0.436332, r=0.005)  # [Transform: move to [698.591, -178.937, -59.115] mm and rotate to [[-1, 0, 0], [0, 1, 0], [0, 0, -1]]]
  movej(p[0.700752,-0.18033,-0.045332,0,3.141593,0], a=0.523599, v=0.436332, r=0.005)  # [Transform: move to [700.752, -180.33, -45.332] mm and rotate to [[-1, 0, 0], [0, 1, 0], [0, 0, -1]]]
  movej(p[0.700752,-0.18033,-0.060332,0,3.141593,0], a=0.523599, v=0.436332, r=0.005)  # [Transform: move to [700.752, -180.33, -60.332] mm and rotate to [[-1, 0, 0], [0, 1, 0], [0, 0, -1]]]
  movej(p[0.698031,-0.181589,-0.046947,0,3.141593,0], a=0.523599, v=0.436332, r=0.005)  # [Transform: move to [698.031, -181.589, -46.947] mm and rotate to [[-1, 0, 0], [0, 1, 0], [0, 0, -1]]]
  movej(p[0.698031,-0.181589,-0.061947,0,3.141593,0], a=0.523599, v=0.436332, r=0.005)  # [Transform: move to [698.031, -181.589, -61.947] mm and rotate to [[-1, 0, 0], [0, 1, 0], [0, 0, -1]]]
  movej(p[0.70369,-0.177279,-0.045534,0,3.141593,0], a=0.523599, v=0.436332, r=0.005)  # [Transform: move to [703.69, -177.279, -45.534] mm and rotate to [[-1, 0, 0], [0, 1, 0], [0, 0, -1]]]
  movej(p[0.70369,-0.177279,-0.060534,0,3.141593,0], a=0.523599, v=0.436332, r=0.005)  # [Transform: move to [703.69, -177.279, -60.534] mm and rotate to [[-1, 0, 0], [0, 1, 0], [0, 0, -1]]]
  movej(p[0.707394,-0.178641,-0.045973,0,3.141593,0], a=0.523599, v=0.436332, r=0.005)  # [Transform: move to [707.394, -178.641, -45.973] mm and rotate to [[-1, 0, 0], [0, 1, 0], [0, 0, -1]]]
  movej(p[0.707394,-0.178641,-0.060973,0,3.141593,0], a=0.523599, v=0.436332, r=0.005)  # [Transform: move to [707.394, -178.641, -60.973] mm and rotate to [[-1, 0, 0], [0, 1, 0], [0, 0, -1]]]
  movej(p[0.708266,-0.176507,-0.045543,0,3.141593,0], a=0.523599, v=0.436332, r=0.005)  # [Transform: move to [708.266, -176.507, -45.543] mm and rotate to [[-1, 0, 0], [0, 1, 0], [0, 0, -1]]]
  movej(p[0.708266,-0.176507,-0.060543,0,3.141593,0], a=0.523599, v=0.436332, r=0.005)  # [Transform: move to [708.266, -176.507, -60.543] mm and rotate to [[-1, 0, 0], [0, 1, 0], [0, 0, -1]]]
  movej(p[0.710676,-0.179003,-0.045073,0,3.141593,0], a=0.523599, v=0.436332, r=0.005)  # [Transform: move to [710.676, -179.003, -45.073] mm and rotate to [[-1, 0, 0], [0, 1, 0], [0, 0, -1]]]
  movej(p[0.710676,-0.179003,-0.060073,0,3.141593,0], a=0.523599, v=0.436332, r=0.005)  # [Transform: move to [710.676, -179.003, -60.073] mm and rotate to [[-1, 0, 0], [0, 1, 0], [0, 0, -1]]]
  movej(p[0.712883,-0.179814,-0.04514,0,3.141593,0], a=0.523599, v=0.436332, r=0.005)  # [Transform: move to [712.883, -179.814, -45.14] mm and rotate to [[-1, 0, 0], [0, 1, 0], [0, 0, -1]]]
  movej(p[0.712883,-0.179814,-0.06014,0,3.141593,0], a=0.523599, v=0.436332, r=0.005)  # [Transform: move to [712.883, -179.814, -60.14] mm and rotate to [[-1, 0, 0], [0, 1, 0], [0, 0, -1]]]
  movej(p[0.716077,-0.179627,-0.04678,0,3.141593,0], a=0.523599, v=0.436332, r=0.005)  # [Transform: move to [716.077, -179.627, -46.78] mm and rotate to [[-1, 0, 0], [0, 1, 0], [0, 0, -1]]]
  movej(p[0.716077,-0.179627,-0.06178,0,3.141593,0], a=0.523599, v=0.436332, r=0.005)  # [Transform: move to [716.077, -179.627, -61.78] mm and rotate to [[-1, 0, 0], [0, 1, 0], [0, 0, -1]]]
  movej(p[0.716038,-0.181447,-0.044314,0,3.141593,0], a=0.523599, v=0.436332, r=0.005)  # [Transform: move to [716.038, -181.447, -44.314] mm and rotate to [[-1, 0, 0], [0, 1, 0], [0, 0, -1]]]
  movej(p[0.716038,-0.181447,-0.059314,0,3.141593,0], a=0.523599, v=0.436332, r=0.005)  # [Transform: move to [716.038, -181.447, -59.314] mm and rotate to [[-1, 0, 0], [0, 1, 0], [0, 0, -1]]]
  movej(p[0.716222,-0.177678,-0.045214,0,3.141593,0], a=0.523599, v=0.436332, r=0.005)  # [Transform: move to [716.222, -177.678, -45.214] mm and rotate to [[-1, 0, 0], [0, 1, 0], [0, 0, -1]]]
  movej(p[0.716222,-0.177678,-0.060214,0,3.141593,0], a=0.523599, v=0.436332, r=0.005)  # [Transform: move to [716.222, -177.678, -60.214] mm and rotate to [[-1, 0, 0], [0, 1, 0], [0, 0, -1]]]
  movej(p[0.716558,-0.175418,-0.045703,0,3.141593,0], a=0.523599, v=0.436332, r=0.005)  # [Transform: move to [716.558, -175.418, -45.703] mm and rotate to [[-1, 0, 0], [0, 1, 0], [0, 0, -1]]]
  movej(p[0.716558,-0.175418,-0.060703,0,3.141593,0], a=0.523599, v=0.436332, r=0.005)  # [Transform: move to [716.558, -175.418, -60.703] mm and rotate to [[-1, 0, 0], [0, 1, 0], [0, 0, -1]]]
  movej(p[0.726498,-0.174076,-0.046777,0,3.141593,0], a=0.523599, v=0.436332, r=0.005)  # [Transform: move to [726.498, -174.076, -46.777] mm and rotate to [[-1, 0, 0], [0, 1, 0], [0, 0, -1]]]
  movej(p[0.726498,-0.174076,-0.061777,0,3.141593,0], a=0.523599, v=0.436332, r=0.005)  # [Transform: move to [726.498, -174.076, -61.777] mm and rotate to [[-1, 0, 0], [0, 1, 0], [0, 0, -1]]]
  movej(p[0.727176,-0.176209,-0.045696,0,3.141593,0], a=0.523599, v=0.436332, r=0.005)  # [Transform: move to [727.176, -176.209, -45.696] mm and rotate to [[-1, 0, 0], [0, 1, 0], [0, 0, -1]]]
  movej(p[0.727176,-0.176209,-0.060696,0,3.141593,0], a=0.523599, v=0.436332, r=0.005)  # [Transform: move to [727.176, -176.209, -60.696] mm and rotate to [[-1, 0, 0], [0, 1, 0], [0, 0, -1]]]
  movej(p[0.727133,-0.178986,-0.046733,0,3.141593,0], a=0.523599, v=0.436332, r=0.005)  # [Transform: move to [727.133, -178.986, -46.733] mm and rotate to [[-1, 0, 0], [0, 1, 0], [0, 0, -1]]]
  movej(p[0.727133,-0.178986,-0.061733,0,3.141593,0], a=0.523599, v=0.436332, r=0.005)  # [Transform: move to [727.133, -178.986, -61.733] mm and rotate to [[-1, 0, 0], [0, 1, 0], [0, 0, -1]]]
  movej(p[0.727368,-0.181509,-0.046111,0,3.141593,0], a=0.523599, v=0.436332, r=0.005)  # [Transform: move to [727.368, -181.509, -46.111] mm and rotate to [[-1, 0, 0], [0, 1, 0], [0, 0, -1]]]
  movej(p[0.727368,-0.181509,-0.061111,0,3.141593,0], a=0.523599, v=0.436332, r=0.005)  # [Transform: move to [727.368, -181.509, -61.111] mm and rotate to [[-1, 0, 0], [0, 1, 0], [0, 0, -1]]]
  movej(p[0.731705,-0.18072,-0.045041,0,3.141593,0], a=0.523599, v=0.436332, r=0.005)  # [Transform: move to [731.705, -180.72, -45.041] mm and rotate to [[-1, 0, 0], [0, 1, 0], [0, 0, -1]]]
  movej(p[0.731705,-0.18072,-0.060041,0,3.141593,0], a=0.523599, v=0.436332, r=0.005)  # [Transform: move to [731.705, -180.72, -60.041] mm and rotate to [[-1, 0, 0], [0, 1, 0], [0, 0, -1]]]
  movej(p[0.733143,-0.17891,-0.044374,0,3.141593,0], a=0.523599, v=0.436332, r=0.005)  # [Transform: move to [733.143, -178.91, -44.374] mm and rotate to [[-1, 0, 0], [0, 1, 0], [0, 0, -1]]]
  movej(p[0.733143,-0.17891,-0.059374,0,3.141593,0], a=0.523599, v=0.436332, r=0.005)  # [Transform: move to [733.143, -178.91, -59.374] mm and rotate to [[-1, 0, 0], [0, 1, 0], [0, 0, -1]]]
  movej(p[0.730873,-0.175946,-0.045961,0,3.141593,0], a=0.523599, v=0.436332, r=0.005)  # [Transform: move to [730.873, -175.946, -45.961] mm and rotate to [[-1, 0, 0], [0, 1, 0], [0, 0, -1]]]
  movej(p[0.730873,-0.175946,-0.060961,0,3.141593,0], a=0.523599, v=0.436332, r=0.005)  # [Transform: move to [730.873, -175.946, -60.961] mm and rotate to [[-1, 0, 0], [0, 1, 0], [0, 0, -1]]]
  movej(p[0.739045,-0.182648,-0.045401,0,3.141593,0], a=0.523599, v=0.436332, r=0.005)  # [Transform: move to [739.045, -182.648, -45.401] mm and rotate to [[-1, 0, 0], [0, 1, 0], [0, 0, -1]]]
  movej(p[0.739045,-0.182648,-0.060401,0,3.141593,0], a=0.523599, v=0.436332, r=0.005)  # [Transform: move to [739.045, -182.648, -60.401] mm and rotate to [[-1, 0, 0], [0, 1, 0], [0, 0, -1]]]
  movej(p[0.739893,-0.186651,-0.046743,0,3.141593,0], a=0.523599, v=0.436332, r=0.005)  # [Transform: move to [739.893, -186.651, -46.743] mm and rotate to [[-1, 0, 0], [0, 1, 0], [0, 0, -1]]]
  movej(p[0.739893,-0.186651,-0.061743,0,3.141593,0], a=0.523599, v=0.436332, r=0.005)  # [Transform: move to [739.893, -186.651, -61.743] mm and rotate to [[-1, 0, 0], [0, 1, 0], [0, 0, -1]]]
  movej(p[0.742309,-0.190969,-0.044644,0,3.141593,0], a=0.523599, v=0.436332, r=0.005)  # [Transform: move to [742.309, -190.969, -44.644] mm and rotate to [[-1, 0, 0], [0, 1, 0], [0, 0, -1]]]
  movej(p[0.742309,-0.190969,-0.059644,0,3.141593,0], a=0.523599, v=0.436332, r=0.005)  # [Transform: move to [742.309, -190.969, -59.644] mm and rotate to [[-1, 0, 0], [0, 1, 0], [0, 0, -1]]]
  movej(p[0.744188,-0.189159,-0.044218,0,3.141593,0], a=0.523599, v=0.436332, r=0.005)  # [Transform: move to [744.188, -189.159, -44.218] mm and rotate to [[-1, 0, 0], [0, 1, 0], [0, 0, -1]]]
  movej(p[0.744188,-0.189159,-0.059218,0,3.141593,0], a=0.523599, v=0.436332, r=0.005)  # [Transform: move to [744.188, -189.159, -59.218] mm and rotate to [[-1, 0, 0], [0, 1, 0], [0, 0, -1]]]
  movej(p[0.747349,-0.189349,-0.044093,0,3.141593,0], a=0.523599, v=0.436332, r=0.005)  # [Transform: move to [747.349, -189.349, -44.093] mm and rotate to [[-1, 0, 0], [0, 1, 0], [0, 0, -1]]]
  movej(p[0.747349,-0.189349,-0.059093,0,3.141593,0], a=0.523599, v=0.436332, r=0.005)  # [Transform: move to [747.349, -189.349, -59.093] mm and rotate to [[-1, 0, 0], [0, 1, 0], [0, 0, -1]]]
  movej(p[0.746238,-0.193791,-0.046493,0,3.141593,0], a=0.523599, v=0.436332, r=0.005)  # [Transform: move to [746.238, -193.791, -46.493] mm and rotate to [[-1, 0, 0], [0, 1, 0], [0, 0, -1]]]
  movej(p[0.746238,-0.193791,-0.061493,0,3.141593,0], a=0.523599, v=0.436332, r=0.005)  # [Transform: move to [746.238, -193.791, -61.493] mm and rotate to [[-1, 0, 0], [0, 1, 0], [0, 0, -1]]]
  movej(p[0.749256,-0.194854,-0.045403,0,3.141593,0], a=0.523599, v=0.436332, r=0.005)  # [Transform: move to [749.256, -194.854, -45.403] mm and rotate to [[-1, 0, 0], [0, 1, 0], [0, 0, -1]]]
  movej(p[0.749256,-0.194854,-0.060403,0,3.141593,0], a=0.523599, v=0.436332, r=0.005)  # [Transform: move to [749.256, -194.854, -60.403] mm and rotate to [[-1, 0, 0], [0, 1, 0], [0, 0, -1]]]
  movej(p[0.748788,-0.197307,-0.045223,0,3.141593,0], a=0.523599, v=0.436332, r=0.005)  # [Transform: move to [748.788, -197.307, -45.223] mm and rotate to [[-1, 0, 0], [0, 1, 0], [0, 0, -1]]]
  movej(p[0.748788,-0.197307,-0.060223,0,3.141593,0], a=0.523599, v=0.436332, r=0.005)  # [Transform: move to [748.788, -197.307, -60.223] mm and rotate to [[-1, 0, 0], [0, 1, 0], [0, 0, -1]]]
  movej(p[0.753736,-0.203137,-0.044123,0,3.141593,0], a=0.523599, v=0.436332, r=0.005)  # [Transform: move to [753.736, -203.137, -44.123] mm and rotate to [[-1, 0, 0], [0, 1, 0], [0, 0, -1]]]
  movej(p[0.753736,-0.203137,-0.059123,0,3.141593,0], a=0.523599, v=0.436332, r=0.005)  # [Transform: move to [753.736, -203.137, -59.123] mm and rotate to [[-1, 0, 0], [0, 1, 0], [0, 0, -1]]]
  movej(p[0.756587,-0.206012,-0.045351,0,3.141593,0], a=0.523599, v=0.436332, r=0.005)  # [Transform: move to [756.587, -206.012, -45.351] mm and rotate to [[-1, 0, 0], [0, 1, 0], [0, 0, -1]]]
  movej(p[0.756587,-0.206012,-0.060351,0,3.141593,0], a=0.523599, v=0.436332, r=0.005)  # [Transform: move to [756.587, -206.012, -60.351] mm and rotate to [[-1, 0, 0], [0, 1, 0], [0, 0, -1]]]
  movej(p[0.759878,-0.201289,-0.045085,0,3.141593,0], a=0.523599, v=0.436332, r=0.005)  # [Transform: move to [759.878, -201.289, -45.085] mm and rotate to [[-1, 0, 0], [0, 1, 0], [0, 0, -1]]]
  movej(p[0.759878,-0.201289,-0.060085,0,3.141593,0], a=0.523599, v=0.436332, r=0.005)  # [Transform: move to [759.878, -201.289, -60.085] mm and rotate to [[-1, 0, 0], [0, 1, 0], [0, 0, -1]]]
  movej(p[0.758839,-0.199326,-0.046855,0,3.141593,0], a=0.523599, v=0.436332, r=0.005)  # [Transform: move to [758.839, -199.326, -46.855] mm and rotate to [[-1, 0, 0], [0, 1, 0], [0, 0, -1]]]
  movej(p[0.758839,-0.199326,-0.061855,0,3.141593,0], a=0.523599, v=0.436332, r=0.005)  # [Transform: move to [758.839, -199.326, -61.855] mm and rotate to [[-1, 0, 0], [0, 1, 0], [0, 0, -1]]]
  movej(p[0.762402,-0.204173,-0.044567,0,3.141593,0], a=0.523599, v=0.436332, r=0.005)  # [Transform: move to [762.402, -204.173, -44.567] mm and rotate to [[-1, 0, 0], [0, 1, 0], [0, 0, -1]]]
  movej(p[0.762402,-0.204173,-0.059567,0,3.141593,0], a=0.523599, v=0.436332, r=0.005)  # [Transform: move to [762.402, -204.173, -59.567] mm and rotate to [[-1, 0, 0], [0, 1, 0], [0, 0, -1]]]
  movej(p[0.765155,-0.200666,-0.046774,0,3.141593,0], a=0.523599, v=0.436332, r=0.005)  # [Transform: move to [765.155, -200.666, -46.774] mm and rotate to [[-1, 0, 0], [0, 1, 0], [0, 0, -1]]]
  movej(p[0.765155,-0.200666,-0.061774,0,3.141593,0], a=0.523599, v=0.436332, r=0.005)  # [Transform: move to [765.155, -200.666, -61.774] mm and rotate to [[-1, 0, 0], [0, 1, 0], [0, 0, -1]]]
  movej(p[0.768169,-0.205966,-0.04451,0,3.141593,0], a=0.523599, v=0.436332, r=0.005)  # [Transform: move to [768.169, -205.966, -44.51] mm and rotate to [[-1, 0, 0], [0, 1, 0], [0, 0, -1]]]
  movej(p[0.768169,-0.205966,-0.05951,0,3.141593,0], a=0.523599, v=0.436332, r=0.005)  # [Transform: move to [768.169, -205.966, -59.51] mm and rotate to [[-1, 0, 0], [0, 1, 0], [0, 0, -1]]]
  movej(p[0.769561,-0.208923,-0.044691,0,3.141593,0], a=0.523599, v=0.436332, r=0.005)  # [Transform: move to [769.561, -208.923, -44.691] mm and rotate to [[-1, 0, 0], [0, 1, 0], [0, 0, -1]]]
  movej(p[0.769561,-0.208923,-0.059691,0,3.141593,0], a=0.523599, v=0.436332, r=0.005)  # [Transform: move to [769.561, -208.923, -59.691] mm and rotate to [[-1, 0, 0], [0, 1, 0], [0, 0, -1]]]
  movej(p[0.765968,-0.209997,-0.04598,0,3.141593,0], a=0.523599, v=0.436332, r=0.005)  # [Transform: move to [765.968, -209.997, -45.98] mm and rotate to [[-1, 0, 0], [0, 1, 0], [0, 0, -1]]]
  movej(p[0.765968,-0.209997,-0.06098,0,3.141593,0], a=0.523599, v=0.436332, r=0.005)  # [Transform: move to [765.968, -209.997, -60.98] mm and rotate to [[-1, 0, 0], [0, 1, 0], [0, 0, -1]]]
  movej(p[0.76362,-0.209499,-0.044615,0,3.141593,0], a=0.523599, v=0.436332, r=0.005)  # [Transform: move to [763.62, -209.499, -44.615] mm and rotate to [[-1, 0, 0], [0, 1, 0], [0, 0, -1]]]
  movej(p[0.76362,-0.209499,-0.059615,0,3.141593,0], a=0.523599, v=0.436332, r=0.005)  # [Transform: move to [763.62, -209.499, -59.615] mm and rotate to [[-1, 0, 0], [0, 1, 0], [0, 0, -1]]]
  movej(p[0.77545,-0.209856,-0.046505,0,3.141593,0], a=0.523599, v=0.436332, r=0.005)  # [Transform: move to [775.45, -209.856, -46.505] mm and rotate to [[-1, 0, 0], [0, 1, 0], [0, 0, -1]]]
  movej(p[0.77545,-0.209856,-0.061505,0,3.141593,0], a=0.523599, v=0.436332, r=0.005)  # [Transform: move to [775.45, -209.856, -61.505] mm and rotate to [[-1, 0, 0], [0, 1, 0], [0, 0, -1]]]
  movej(p[0.778785,-0.213506,-0.045246,0,3.141593,0], a=0.523599, v=0.436332, r=0.005)  # [Transform: move to [778.785, -213.506, -45.246] mm and rotate to [[-1, 0, 0], [0, 1, 0], [0, 0, -1]]]
  movej(p[0.778785,-0.213506,-0.060246,0,3.141593,0], a=0.523599, v=0.436332, r=0.005)  # [Transform: move to [778.785, -213.506, -60.246] mm and rotate to [[-1, 0, 0], [0, 1, 0], [0, 0, -1]]]
  movej(p[0.784015,-0.214743,-0.045159,0,3.141593,0], a=0.523599, v=0.436332, r=0.005)  # [Transform: move to [784.015, -214.743, -45.159] mm and rotate to [[-1, 0, 0], [0, 1, 0], [0, 0, -1]]]
  movej(p[0.784015,-0.214743,-0.060159,0,3.141593,0], a=0.523599, v=0.436332, r=0.005)  # [Transform: move to [784.015, -214.743, -60.159] mm and rotate to [[-1, 0, 0], [0, 1, 0], [0, 0, -1]]]
  movej(p[0.781117,-0.219905,-0.046852,0,3.141593,0], a=0.523599, v=0.436332, r=0.005)  # [Transform: move to [781.117, -219.905, -46.852] mm and rotate to [[-1, 0, 0], [0, 1, 0], [0, 0, -1]]]
  movej(p[0.781117,-0.219905,-0.061852,0,3.141593,0], a=0.523599, v=0.436332, r=0.005)  # [Transform: move to [781.117, -219.905, -61.852] mm and rotate to [[-1, 0, 0], [0, 1, 0], [0, 0, -1]]]
  movej(p[0.78216,-0.223994,-0.046084,0,3.141593,0], a=0.523599, v=0.436332, r=0.005)  # [Transform: move to [782.16, -223.994, -46.084] mm and rotate to [[-1, 0, 0], [0, 1, 0], [0, 0, -1]]]
  movej(p[0.78216,-0.223994,-0.061084,0,3.141593,0], a=0.523599, v=0.436332, r=0.005)  # [Transform: move to [782.16, -223.994, -61.084] mm and rotate to [[-1, 0, 0], [0, 1, 0], [0, 0, -1]]]
  movej(p[0.78612,-0.229216,-0.04428,0,3.141593,0], a=0.523599, v=0.436332, r=0.005)  # [Transform: move to [786.12, -229.216, -44.28] mm and rotate to [[-1, 0, 0], [0, 1, 0], [0, 0, -1]]]
  movej(p[0.78612,-0.229216,-0.05928,0,3.141593,0], a=0.523599, v=0.436332, r=0.005)  # [Transform: move to [786.12, -229.216, -59.28] mm and rotate to [[-1, 0, 0], [0, 1, 0], [0, 0, -1]]]
  movej(p[0.789926,-0.231014,-0.046382,0,3.141593,0], a=0.523599, v=0.436332, r=0.005)  # [Transform: move to [789.926, -231.014, -46.382] mm and rotate to [[-1, 0, 0], [0, 1, 0], [0, 0, -1]]]
  movej(p[0.789926,-0.231014,-0.061382,0,3.141593,0], a=0.523599, v=0.436332, r=0.005)  # [Transform: move to [789.926, -231.014, -61.382] mm and rotate to [[-1, 0, 0], [0, 1, 0], [0, 0, -1]]]
  movej(p[0.794495,-0.229561,-0.04567,0,3.141593,0], a=0.523599, v=0.436332, r=0.005)  # [Transform: move to [794.495, -229.561, -45.67] mm and rotate to [[-1, 0, 0], [0, 1, 0], [0, 0, -1]]]
  movej(p[0.794495,-0.229561,-0.06067,0,3.141593,0], a=0.523599, v=0.436332, r=0.005)  # [Transform: move to [794.495, -229.561, -60.67] mm and rotate to [[-1, 0, 0], [0, 1, 0], [0, 0, -1]]]
  movej(p[0.798012,-0.225579,-0.044274,0,3.141593,0], a=0.523599, v=0.436332, r=0.005)  # [Transform: move to [798.012, -225.579, -44.274] mm and rotate to [[-1, 0, 0], [0, 1, 0], [0, 0, -1]]]
  movej(p[0.798012,-0.225579,-0.059274,0,3.141593,0], a=0.523599, v=0.436332, r=0.005)  # [Transform: move to [798.012, -225.579, -59.274] mm and rotate to [[-1, 0, 0], [0, 1, 0], [0, 0, -1]]]
  movej(p[0.800465,-0.225392,-0.044674,0,3.141593,0], a=0.523599, v=0.436332, r=0.005)  # [Transform: move to [800.465, -225.392, -44.674] mm and rotate to [[-1, 0, 0], [0, 1, 0], [0, 0, -1]]]
  movej(p[0.800465,-0.225392,-0.059674,0,3.141593,0], a=0.523599, v=0.436332, r=0.005)  # [Transform: move to [800.465, -225.392, -59.674] mm and rotate to [[-1, 0, 0], [0, 1, 0], [0, 0, -1]]]
  movej(p[0.800367,-0.230977,-0.046243,0,3.141593,0], a=0.523599, v=0.436332, r=0.005)  # [Transform: move to [800.367, -230.977, -46.243] mm and rotate to [[-1, 0, 0], [0, 1, 0], [0, 0, -1]]]
  movej(p[0.800367,-0.230977,-0.061243,0,3.141593,0], a=0.523599, v=0.436332, r=0.005)  # [Transform: move to [800.367, -230.977, -61.243] mm and rotate to [[-1, 0, 0], [0, 1, 0], [0, 0, -1]]]
  movej(p[0.80589,-0.231029,-0.045035,0,3.141593,0], a=0.523599, v=0.436332, r=0.005)  # [Transform: move to [805.89, -231.029, -45.035] mm and rotate to [[-1, 0, 0], [0, 1, 0], [0, 0, -1]]]
  movej(p[0.80589,-0.231029,-0.060035,0,3.141593,0], a=0.523599, v=0.436332, r=0.005)  # [Transform: move to [805.89, -231.029, -60.035] mm and rotate to [[-1, 0, 0], [0, 1, 0], [0, 0, -1]]]
  movej(p[0.803768,-0.220538,-0.045832,0,3.141593,0], a=0.523599, v=0.436332, r=0.005)  # [Transform: move to [803.768, -220.538, -45.832] mm and rotate to [[-1, 0, 0], [0, 1, 0], [0, 0, -1]]]
  movej(p[0.803768,-0.220538,-0.060832,0,3.141593,0], a=0.523599, v=0.436332, r=0.005)  # [Transform: move to [803.768, -220.538, -60.832] mm and rotate to [[-1, 0, 0], [0, 1, 0], [0, 0, -1]]]
  movej(p[0.802799,-0.216215,-0.04568,0,3.141593,0], a=0.523599, v=0.436332, r=0.005)  # [Transform: move to [802.799, -216.215, -45.68] mm and rotate to [[-1, 0, 0], [0, 1, 0], [0, 0, -1]]]
  movej(p[0.802799,-0.216215,-0.06068,0,3.141593,0], a=0.523599, v=0.436332, r=0.005)  # [Transform: move to [802.799, -216.215, -60.68] mm and rotate to [[-1, 0, 0], [0, 1, 0], [0, 0, -1]]]
  movej(p[0.804234,-0.213863,-0.046504,0,3.141593,0], a=0.523599, v=0.436332, r=0.005)  # [Transform: move to [804.234, -213.863, -46.504] mm and rotate to [[-1, 0, 0], [0, 1, 0], [0, 0, -1]]]
  movej(p[0.804234,-0.213863,-0.061504,0,3.141593,0], a=0.523599, v=0.436332, r=0.005)  # [Transform: move to [804.234, -213.863, -61.504] mm and rotate to [[-1, 0, 0], [0, 1, 0], [0, 0, -1]]]
  movej(p[0.80663,-0.211235,-0.044224,0,3.141593,0], a=0.523599, v=0.436332, r=0.005)  # [Transform: move to [806.63, -211.235, -44.224] mm and rotate to [[-1, 0, 0], [0, 1, 0], [0, 0, -1]]]
  movej(p[0.80663,-0.211235,-0.059224,0,3.141593,0], a=0.523599, v=0.436332, r=0.005)  # [Transform: move to [806.63, -211.235, -59.224] mm and rotate to [[-1, 0, 0], [0, 1, 0], [0, 0, -1]]]
  movej(p[0.802249,-0.209517,-0.04481,0,3.141593,0], a=0.523599, v=0.436332, r=0.005)  # [Transform: move to [802.249, -209.517, -44.81] mm and rotate to [[-1, 0, 0], [0, 1, 0], [0, 0, -1]]]
  movej(p[0.802249,-0.209517,-0.05981,0,3.141593,0], a=0.523599, v=0.436332, r=0.005)  # [Transform: move to [802.249, -209.517, -59.81] mm and rotate to [[-1, 0, 0], [0, 1, 0], [0, 0, -1]]]
  movej(p[0.803757,-0.205691,-0.045758,0,3.141593,0], a=0.523599, v=0.436332, r=0.005)  # [Transform: move to [803.757, -205.691, -45.758] mm and rotate to [[-1, 0, 0], [0, 1, 0], [0, 0, -1]]]
  movej(p[0.803757,-0.205691,-0.060758,0,3.141593,0], a=0.523599, v=0.436332, r=0.005)  # [Transform: move to [803.757, -205.691, -60.758] mm and rotate to [[-1, 0, 0], [0, 1, 0], [0, 0, -1]]]
  movej(p[0.806844,-0.205988,-0.046471,0,3.141593,0], a=0.523599, v=0.436332, r=0.005)  # [Transform: move to [806.844, -205.988, -46.471] mm and rotate to [[-1, 0, 0], [0, 1, 0], [0, 0, -1]]]
  movej(p[0.806844,-0.205988,-0.061471,0,3.141593,0], a=0.523599, v=0.436332, r=0.005)  # [Transform: move to [806.844, -205.988, -61.471] mm and rotate to [[-1, 0, 0], [0, 1, 0], [0, 0, -1]]]
  movej(p[0.813215,-0.207466,-0.045114,0,3.141593,0], a=0.523599, v=0.436332, r=0.005)  # [Transform: move to [813.215, -207.466, -45.114] mm and rotate to [[-1, 0, 0], [0, 1, 0], [0, 0, -1]]]
  movej(p[0.813215,-0.207466,-0.060114,0,3.141593,0], a=0.523599, v=0.436332, r=0.005)  # [Transform: move to [813.215, -207.466, -60.114] mm and rotate to [[-1, 0, 0], [0, 1, 0], [0, 0, -1]]]
  movej(p[0.817344,-0.20483,-0.046854,0,3.141593,0], a=0.523599, v=0.436332, r=0.005)  # [Transform: move to [817.344, -204.83, -46.854] mm and rotate to [[-1, 0, 0], [0, 1, 0], [0, 0, -1]]]
  movej(p[0.817344,-0.20483,-0.061854,0,3.141593,0], a=0.523599, v=0.436332, r=0.005)  # [Transform: move to [817.344, -204.83, -61.854] mm and rotate to [[-1, 0, 0], [0, 1, 0], [0, 0, -1]]]
  movej(p[0.823551,-0.201351,-0.046041,0,3.141593,0], a=0.523599, v=0.436332, r=0.005)  # [Transform: move to [823.551, -201.351, -46.041] mm and rotate to [[-1, 0, 0], [0, 1, 0], [0, 0, -1]]]
  movej(p[0.823551,-0.201351,-0.061041,0,3.141593,0], a=0.523599, v=0.436332, r=0.005)  # [Transform: move to [823.551, -201.351, -61.041] mm and rotate to [[-1, 0, 0], [0, 1, 0], [0, 0, -1]]]
  movej(p[0.826123,-0.201054,-0.044571,0,3.141593,0], a=0.523599, v=0.436332, r=0.005)  # [Transform: move to [826.123, -201.054, -44.571] mm and rotate to [[-1, 0, 0], [0, 1, 0], [0, 0, -1]]]
  movej(p[0.826123,-0.201054,-0.059571,0,3.141593,0], a=0.523599, v=0.436332, r=0.005)  # [Transform: move to [826.123, -201.054, -59.571] mm and rotate to [[-1, 0, 0], [0, 1, 0], [0, 0, -1]]]
  movej(p[0.825244,-0.198582,-0.04432,0,3.141593,0], a=0.523599, v=0.436332, r=0.005)  # [Transform: move to [825.244, -198.582, -44.32] mm and rotate to [[-1, 0, 0], [0, 1, 0], [0, 0, -1]]]
  movej(p[0.825244,-0.198582,-0.05932,0,3.141593,0], a=0.523599, v=0.436332, r=0.005)  # [Transform: move to [825.244, -198.582, -59.32] mm and rotate to [[-1, 0, 0], [0, 1, 0], [0, 0, -1]]]
  movej(p[0.822822,-0.19877,-0.04495,0,3.141593,0], a=0.523599, v=0.436332, r=0.005)  # [Transform: move to [822.822, -198.77, -44.95] mm and rotate to [[-1, 0, 0], [0, 1, 0], [0, 0, -1]]]
  movej(p[0.822822,-0.19877,-0.05995,0,3.141593,0], a=0.523599, v=0.436332, r=0.005)  # [Transform: move to [822.822, -198.77, -59.95] mm and rotate to [[-1, 0, 0], [0, 1, 0], [0, 0, -1]]]
  movej(p[0.824757,-0.193555,-0.046789,0,3.141593,0], a=0.523599, v=0.436332, r=0.005)  # [Transform: move to [824.757, -193.555, -46.789] mm and rotate to [[-1, 0, 0], [0, 1, 0], [0, 0, -1]]]
  movej(p[0.824757,-0.193555,-0.061789,0,3.141593,0], a=0.523599, v=0.436332, r=0.005)  # [Transform: move to [824.757, -193.555, -61.789] mm and rotate to [[-1, 0, 0], [0, 1, 0], [0, 0, -1]]]
  movej(p[0.826528,-0.191999,-0.045695,0,3.141593,0], a=0.523599, v=0.436332, r=0.005)  # [Transform: move to [826.528, -191.999, -45.695] mm and rotate to [[-1, 0, 0], [0, 1, 0], [0, 0, -1]]]
  movej(p[0.826528,-0.191999,-0.060695,0,3.141593,0], a=0.523599, v=0.436332, r=0.005)  # [Transform: move to [826.528, -191.999, -60.695] mm and rotate to [[-1, 0, 0], [0, 1, 0], [0, 0, -1]]]
  movej(p[0.829034,-0.192044,-0.044459,0,3.141593,0], a=0.523599, v=0.436332, r=0.005)  # [Transform: move to [829.034, -192.044, -44.459] mm and rotate to [[-1, 0, 0], [0, 1, 0], [0, 0, -1]]]
  movej(p[0.829034,-0.192044,-0.059459,0,3.141593,0], a=0.523599, v=0.436332, r=0.005)  # [Transform: move to [829.034, -192.044, -59.459] mm and rotate to [[-1, 0, 0], [0, 1, 0], [0, 0, -1]]]
  movej(p[0.829191,-0.193924,-0.044647,0,3.141593,0], a=0.523599, v=0.436332, r=0.005)  # [Transform: move to [829.191, -193.924, -44.647] mm and rotate to [[-1, 0, 0], [0, 1, 0], [0, 0, -1]]]
  movej(p[0.829191,-0.193924,-0.059647,0,3.141593,0], a=0.523599, v=0.436332, r=0.005)  # [Transform: move to [829.191, -193.924, -59.647] mm and rotate to [[-1, 0, 0], [0, 1, 0], [0, 0, -1]]]
  movej(p[0.826228,-0.188257,-0.045929,0,3.141593,0], a=0.523599, v=0.436332, r=0.005)  # [Transform: move to [826.228, -188.257, -45.929] mm and rotate to [[-1, 0, 0], [0, 1, 0], [0, 0, -1]]]
  movej(p[0.826228,-0.188257,-0.060929,0,3.141593,0], a=0.523599, v=0.436332, r=0.005)  # [Transform: move to [826.228, -188.257, -60.929] mm and rotate to [[-1, 0, 0], [0, 1, 0], [0, 0, -1]]]
  movej(p[0.827582,-0.185801,-0.046268,0,3.141593,0], a=0.523599, v=0.436332, r=0.005)  # [Transform: move to [827.582, -185.801, -46.268] mm and rotate to [[-1, 0, 0], [0, 1, 0], [0, 0, -1]]]
  movej(p[0.827582,-0.185801,-0.061268,0,3.141593,0], a=0.523599, v=0.436332, r=0.005)  # [Transform: move to [827.582, -185.801, -61.268] mm and rotate to [[-1, 0, 0], [0, 1, 0], [0, 0, -1]]]
  movej(p[0.831233,-0.186636,-0.045005,0,3.141593,0], a=0.523599, v=0.436332, r=0.005)  # [Transform: move to [831.233, -186.636, -45.005] mm and rotate to [[-1, 0, 0], [0, 1, 0], [0, 0, -1]]]
  movej(p[0.831233,-0.186636,-0.060005,0,3.141593,0], a=0.523599, v=0.436332, r=0.005)  # [Transform: move to [831.233, -186.636, -60.005] mm and rotate to [[-1, 0, 0], [0, 1, 0], [0, 0, -1]]]
  movej(p[0.825998,-0.182187,-0.044752,0,3.141593,0], a=0.523599, v=0.436332, r=0.005)  # [Transform: move to [825.998, -182.187, -44.752] mm and rotate to [[-1, 0, 0], [0, 1, 0], [0, 0, -1]]]
  movej(p[0.825998,-0.182187,-0.059752,0,3.141593,0], a=0.523599, v=0.436332, r=0.005)  # [Transform: move to [825.998, -182.187, -59.752] mm and rotate to [[-1, 0, 0], [0, 1, 0], [0, 0, -1]]]
  movej(p[0.825002,-0.180324,-0.045496,0,3.141593,0], a=0.523599, v=0.436332, r=0.005)  # [Transform: move to [825.002, -180.324, -45.496] mm and rotate to [[-1, 0, 0], [0, 1, 0], [0, 0, -1]]]
  movej(p[0.825002,-0.180324,-0.060496,0,3.141593,0], a=0.523599, v=0.436332, r=0.005)  # [Transform: move to [825.002, -180.324, -60.496] mm and rotate to [[-1, 0, 0], [0, 1, 0], [0, 0, -1]]]
  movej(p[0.826571,-0.178562,-0.045536,0,3.141593,0], a=0.523599, v=0.436332, r=0.005)  # [Transform: move to [826.571, -178.562, -45.536] mm and rotate to [[-1, 0, 0], [0, 1, 0], [0, 0, -1]]]
  movej(p[0.826571,-0.178562,-0.060536,0,3.141593,0], a=0.523599, v=0.436332, r=0.005)  # [Transform: move to [826.571, -178.562, -60.536] mm and rotate to [[-1, 0, 0], [0, 1, 0], [0, 0, -1]]]
  movej(p[0.821877,-0.178141,-0.046128,0,3.141593,0], a=0.523599, v=0.436332, r=0.005)  # [Transform: move to [821.877, -178.141, -46.128] mm and rotate to [[-1, 0, 0], [0, 1, 0], [0, 0, -1]]]
  movej(p[0.821877,-0.178141,-0.061128,0,3.141593,0], a=0.523599, v=0.436332, r=0.005)  # [Transform: move to [821.877, -178.141, -61.128] mm and rotate to [[-1, 0, 0], [0, 1, 0], [0, 0, -1]]]
  movej(p[0.8174,-0.177025,-0.044802,0,3.141593,0], a=0.523599, v=0.436332, r=0.005)  # [Transform: move to [817.4, -177.025, -44.802] mm and rotate to [[-1, 0, 0], [0, 1, 0], [0, 0, -1]]]
  movej(p[0.8174,-0.177025,-0.059802,0,3.141593,0], a=0.523599, v=0.436332, r=0.005)  # [Transform: move to [817.4, -177.025, -59.802] mm and rotate to [[-1, 0, 0], [0, 1, 0], [0, 0, -1]]]
  movej(p[0.815627,-0.176555,-0.045549,0,3.141593,0], a=0.523599, v=0.436332, r=0.005)  # [Transform: move to [815.627, -176.555, -45.549] mm and rotate to [[-1, 0, 0], [0, 1, 0], [0, 0, -1]]]
  movej(p[0.815627,-0.176555,-0.060549,0,3.141593,0], a=0.523599, v=0.436332, r=0.005)  # [Transform: move to [815.627, -176.555, -60.549] mm and rotate to [[-1, 0, 0], [0, 1, 0], [0, 0, -1]]]
  movej(p[0.813846,-0.175857,-0.044659,0,3.141593,0], a=0.523599, v=0.436332, r=0.005)  # [Transform: move to [813.846, -175.857, -44.659] mm and rotate to [[-1, 0, 0], [0, 1, 0], [0, 0, -1]]]
  movej(p[0.813846,-0.175857,-0.059659,0,3.141593,0], a=0.523599, v=0.436332, r=0.005)  # [Transform: move to [813.846, -175.857, -59.659] mm and rotate to [[-1, 0, 0], [0, 1, 0], [0, 0, -1]]]
  movej(p[0.815465,-0.173265,-0.044365,0,3.141593,0], a=0.523599, v=0.436332, r=0.005)  # [Transform: move to [815.465, -173.265, -44.365] mm and rotate to [[-1, 0, 0], [0, 1, 0], [0, 0, -1]]]
  movej(p[0.815465,-0.173265,-0.059365,0,3.141593,0], a=0.523599, v=0.436332, r=0.005)  # [Transform: move to [815.465, -173.265, -59.365] mm and rotate to [[-1, 0, 0], [0, 1, 0], [0, 0, -1]]]
  movej(p[0.811226,-0.172507,-0.044836,0,3.141593,0], a=0.523599, v=0.436332, r=0.005)  # [Transform: move to [811.226, -172.507, -44.836] mm and rotate to [[-1, 0, 0], [0, 1, 0], [0, 0, -1]]]
  movej(p[0.811226,-0.172507,-0.059836,0,3.141593,0], a=0.523599, v=0.436332, r=0.005)  # [Transform: move to [811.226, -172.507, -59.836] mm and rotate to [[-1, 0, 0], [0, 1, 0], [0, 0, -1]]]
  movej(p[0.80911,-0.172748,-0.045423,0,3.141593,0], a=0.523599, v=0.436332, r=0.005)  # [Transform: move to [809.11, -172.748, -45.423] mm and rotate to [[-1, 0, 0], [0, 1, 0], [0, 0, -1]]]
  movej(p[0.80911,-0.172748,-0.060423,0,3.141593,0], a=0.523599, v=0.436332, r=0.005)  # [Transform: move to [809.11, -172.748, -60.423] mm and rotate to [[-1, 0, 0], [0, 1, 0], [0, 0, -1]]]
  movej(p[0.809198,-0.170157,-0.046219,0,3.141593,0], a=0.523599, v=0.436332, r=0.005)  # [Transform: move to [809.198, -170.157, -46.219] mm and rotate to [[-1, 0, 0], [0, 1, 0], [0, 0, -1]]]
  movej(p[0.809198,-0.170157,-0.061219,0,3.141593,0], a=0.523599, v=0.436332, r=0.005)  # [Transform: move to [809.198, -170.157, -61.219] mm and rotate to [[-1, 0, 0], [0, 1, 0], [0, 0, -1]]]
  movej(p[0.809885,-0.167502,-0.044729,0,3.141593,0], a=0.523599, v=0.436332, r=0.005)  # [Transform: move to [809.885, -167.502, -44.729] mm and rotate to [[-1, 0, 0], [0, 1, 0], [0, 0, -1]]]
  movej(p[0.809885,-0.167502,-0.059729,0,3.141593,0], a=0.523599, v=0.436332, r=0.005)  # [Transform: move to [809.885, -167.502, -59.729] mm and rotate to [[-1, 0, 0], [0, 1, 0], [0, 0, -1]]]
  movej(p[0.80533,-0.166857,-0.04598,0,3.141593,0], a=0.523599, v=0.436332, r=0.005)  # [Transform: move to [805.33, -166.857, -45.98] mm and rotate to [[-1, 0, 0], [0, 1, 0], [0, 0, -1]]]
  movej(p[0.80533,-0.166857,-0.06098,0,3.141593,0], a=0.523599, v=0.436332, r=0.005)  # [Transform: move to [805.33, -166.857, -60.98] mm and rotate to [[-1, 0, 0], [0, 1, 0], [0, 0, -1]]]
  movej(p[0.800235,-0.163914,-0.046087,0,3.141593,0], a=0.523599, v=0.436332, r=0.005)  # [Transform: move to [800.235, -163.914, -46.087] mm and rotate to [[-1, 0, 0], [0, 1, 0], [0, 0, -1]]]
  movej(p[0.800235,-0.163914,-0.061087,0,3.141593,0], a=0.523599, v=0.436332, r=0.005)  # [Transform: move to [800.235, -163.914, -61.087] mm and rotate to [[-1, 0, 0], [0, 1, 0], [0, 0, -1]]]
  movej(p[0.794927,-0.165874,-0.046519,0,3.141593,0], a=0.523599, v=0.436332, r=0.005)  # [Transform: move to [794.927, -165.874, -46.519] mm and rotate to [[-1, 0, 0], [0, 1, 0], [0, 0, -1]]]
  movej(p[0.794927,-0.165874,-0.061519,0,3.141593,0], a=0.523599, v=0.436332, r=0.005)  # [Transform: move to [794.927, -165.874, -61.519] mm and rotate to [[-1, 0, 0], [0, 1, 0], [0, 0, -1]]]
  movej(p[0.792036,-0.164376,-0.046405,0,3.141593,0], a=0.523599, v=0.436332, r=0.005)  # [Transform: move to [792.036, -164.376, -46.405] mm and rotate to [[-1, 0, 0], [0, 1, 0], [0, 0, -1]]]
  movej(p[0.792036,-0.164376,-0.061405,0,3.141593,0], a=0.523599, v=0.436332, r=0.005)  # [Transform: move to [792.036, -164.376, -61.405] mm and rotate to [[-1, 0, 0], [0, 1, 0], [0, 0, -1]]]
  movej(p[0.794935,-0.161597,-0.04435,0,3.141593,0], a=0.523599, v=0.436332, r=0.005)  # [Transform: move to [794.935, -161.597, -44.35] mm and rotate to [[-1, 0, 0], [0, 1, 0], [0, 0, -1]]]
  movej(p[0.794935,-0.161597,-0.05935,0,3.141593,0], a=0.523599, v=0.436332, r=0.005)  # [Transform: move to [794.935, -161.597, -59.35] mm and rotate to [[-1, 0, 0], [0, 1, 0], [0, 0, -1]]]
  movej(p[0.794418,-0.159237,-0.044343,0,3.141593,0], a=0.523599, v=0.436332, r=0.005)  # [Transform: move to [794.418, -159.237, -44.343] mm and rotate to [[-1, 0, 0], [0, 1, 0], [0, 0, -1]]]
  movej(p[0.794418,-0.159237,-0.059343,0,3.141593,0], a=0.523599, v=0.436332, r=0.005)  # [Transform: move to [794.418, -159.237, -59.343] mm and rotate to [[-1, 0, 0], [0, 1, 0], [0, 0, -1]]]
  movej(p[0.792371,-0.152324,-0.045964,0,3.141593,0], a=0.523599, v=0.436332, r=0.005)  # [Transform: move to [792.371, -152.324, -45.964] mm and rotate to [[-1, 0, 0], [0, 1, 0], [0, 0, -1]]]
  movej(p[0.792371,-0.152324,-0.060964,0,3.141593,0], a=0.523599, v=0.436332, r=0.005)  # [Transform: move to [792.371, -152.324, -60.964] mm and rotate to [[-1, 0, 0], [0, 1, 0], [0, 0, -1]]]
  movej(p[0.787687,-0.151056,-0.045752,0,3.141593,0], a=0.523599, v=0.436332, r=0.005)  # [Transform: move to [787.687, -151.056, -45.752] mm and rotate to [[-1, 0, 0], [0, 1, 0], [0, 0, -1]]]
  movej(p[0.787687,-0.151056,-0.060752,0,3.141593,0], a=0.523599, v=0.436332, r=0.005)  # [Transform: move to [787.687, -151.056, -60.752] mm and rotate to [[-1, 0, 0], [0, 1, 0], [0, 0, -1]]]
  movej(p[0.787837,-0.148652,-0.04522,0,3.141593,0], a=0.523599, v=0.436332, r=0.005)  # [Transform: move to [787.837, -148.652, -45.22] mm and rotate to [[-1, 0, 0], [0, 1, 0], [0, 0, -1]]]
  movej(p[0.787837,-0.148652,-0.06022,0,3.141593,0], a=0.523599, v=0.436332, r=0.005)  # [Transform: move to [787.837, -148.652, -60.22] mm and rotate to [[-1, 0, 0], [0, 1, 0], [0, 0, -1]]]
  movej(p[0.789005,-0.146458,-0.044866,0,3.141593,0], a=0.523599, v=0.436332, r=0.005)  # [Transform: move to [789.005, -146.458, -44.866] mm and rotate to [[-1, 0, 0], [0, 1, 0], [0, 0, -1]]]
  movej(p[0.789005,-0.146458,-0.059866,0,3.141593,0], a=0.523599, v=0.436332, r=0.005)  # [Transform: move to [789.005, -146.458, -59.866] mm and rotate to [[-1, 0, 0], [0, 1, 0], [0, 0, -1]]]
  movej(p[0.791054,-0.147562,-0.044761,0,3.141593,0], a=0.523599, v=0.436332, r=0.005)  # [Transform: move to [791.054, -147.562, -44.761] mm and rotate to [[-1, 0, 0], [0, 1, 0], [0, 0, -1]]]
  movej(p[0.791054,-0.147562,-0.059761,0,3.141593,0], a=0.523599, v=0.436332, r=0.005)  # [Transform: move to [791.054, -147.562, -59.761] mm and rotate to [[-1, 0, 0], [0, 1, 0], [0, 0, -1]]]
  movej(p[0.785284,-0.14818,-0.044464,0,3.141593,0], a=0.523599, v=0.436332, r=0.005)  # [Transform: move to [785.284, -148.18, -44.464] mm and rotate to [[-1, 0, 0], [0, 1, 0], [0, 0, -1]]]
  movej(p[0.785284,-0.14818,-0.059464,0,3.141593,0], a=0.523599, v=0.436332, r=0.005)  # [Transform: move to [785.284, -148.18, -59.464] mm and rotate to [[-1, 0, 0], [0, 1, 0], [0, 0, -1]]]
  movej(p[0.787239,-0.142379,-0.044675,0,3.141593,0], a=0.523599, v=0.436332, r=0.005)  # [Transform: move to [787.239, -142.379, -44.675] mm and rotate to [[-1, 0, 0], [0, 1, 0], [0, 0, -1]]]
  movej(p[0.787239,-0.142379,-0.059675,0,3.141593,0], a=0.523599, v=0.436332, r=0.005)  # [Transform: move to [787.239, -142.379, -59.675] mm and rotate to [[-1, 0, 0], [0, 1, 0], [0, 0, -1]]]
  movej(p[0.785363,-0.141675,-0.044839,0,3.141593,0], a=0.523599, v=0.436332, r=0.005)  # [Transform: move to [785.363, -141.675, -44.839] mm and rotate to [[-1, 0, 0], [0, 1, 0], [0, 0, -1]]]
  movej(p[0.785363,-0.141675,-0.059839,0,3.141593,0], a=0.523599, v=0.436332, r=0.005)  # [Transform: move to [785.363, -141.675, -59.839] mm and rotate to [[-1, 0, 0], [0, 1, 0], [0, 0, -1]]]
  movej(p[0.788048,-0.139202,-0.045902,0,3.141593,0], a=0.523599, v=0.436332, r=0.005)  # [Transform: move to [788.048, -139.202, -45.902] mm and rotate to [[-1, 0, 0], [0, 1, 0], [0, 0, -1]]]
  movej(p[0.788048,-0.139202,-0.060902,0,3.141593,0], a=0.523599, v=0.436332, r=0.005)  # [Transform: move to [788.048, -139.202, -60.902] mm and rotate to [[-1, 0, 0], [0, 1, 0], [0, 0, -1]]]
  movej(p[0.786413,-0.133991,-0.046295,0,3.141593,0], a=0.523599, v=0.436332, r=0.005)  # [Transform: move to [786.413, -133.991, -46.295] mm and rotate to [[-1, 0, 0], [0, 1, 0], [0, 0, -1]]]
  movej(p[0.786413,-0.133991,-0.061295,0,3.141593,0], a=0.523599, v=0.436332, r=0.005)  # [Transform: move to [786.413, -133.991, -61.295] mm and rotate to [[-1, 0, 0], [0, 1, 0], [0, 0, -1]]]
  movej(p[0.781813,-0.131037,-0.045585,0,3.141593,0], a=0.523599, v=0.436332, r=0.005)  # [Transform: move to [781.813, -131.037, -45.585] mm and rotate to [[-1, 0, 0], [0, 1, 0], [0, 0, -1]]]
  movej(p[0.781813,-0.131037,-0.060585,0,3.141593,0], a=0.523599, v=0.436332, r=0.005)  # [Transform: move to [781.813, -131.037, -60.585] mm and rotate to [[-1, 0, 0], [0, 1, 0], [0, 0, -1]]]
  movej(p[0.780261,-0.128889,-0.045923,0,3.141593,0], a=0.523599, v=0.436332, r=0.005)  # [Transform: move to [780.261, -128.889, -45.923] mm and rotate to [[-1, 0, 0], [0, 1, 0], [0, 0, -1]]]
  movej(p[0.780261,-0.128889,-0.060923,0,3.141593,0], a=0.523599, v=0.436332, r=0.005)  # [Transform: move to [780.261, -128.889, -60.923] mm and rotate to [[-1, 0, 0], [0, 1, 0], [0, 0, -1]]]
  movej(p[0.775144,-0.125206,-0.045023,0,3.141593,0], a=0.523599, v=0.436332, r=0.005)  # [Transform: move to [775.144, -125.206, -45.023] mm and rotate to [[-1, 0, 0], [0, 1, 0], [0, 0, -1]]]
  movej(p[0.775144,-0.125206,-0.060023,0,3.141593,0], a=0.523599, v=0.436332, r=0.005)  # [Transform: move to [775.144, -125.206, -60.023] mm and rotate to [[-1, 0, 0], [0, 1, 0], [0, 0, -1]]]
  movej(p[0.774412,-0.122091,-0.045345,0,3.141593,0], a=0.523599, v=0.436332, r=0.005)  # [Transform: move to [774.412, -122.091, -45.345] mm and rotate to [[-1, 0, 0], [0, 1, 0], [0, 0, -1]]]
  movej(p[0.774412,-0.122091,-0.060345,0,3.141593,0], a=0.523599, v=0.436332, r=0.005)  # [Transform: move to [774.412, -122.091, -60.345] mm and rotate to [[-1, 0, 0], [0, 1, 0], [0, 0, -1]]]
  movej(p[0.772591,-0.121896,-0.045406,0,3.141593,0], a=0.523599, v=0.436332, r=0.005)  # [Transform: move to [772.591, -121.896, -45.406] mm and rotate to [[-1, 0, 0], [0, 1, 0], [0, 0, -1]]]
  movej(p[0.772591,-0.121896,-0.060406,0,3.141593,0], a=0.523599, v=0.436332, r=0.005)  # [Transform: move to [772.591, -121.896, -60.406] mm and rotate to [[-1, 0, 0], [0, 1, 0], [0, 0, -1]]]
  movej(p[0.772955,-0.11806,-0.045238,0,3.141593,0], a=0.523599, v=0.436332, r=0.005)  # [Transform: move to [772.955, -118.06, -45.238] mm and rotate to [[-1, 0, 0], [0, 1, 0], [0, 0, -1]]]
  movej(p[0.772955,-0.11806,-0.060238,0,3.141593,0], a=0.523599, v=0.436332, r=0.005)  # [Transform: move to [772.955, -118.06, -60.238] mm and rotate to [[-1, 0, 0], [0, 1, 0], [0, 0, -1]]]
  movej(p[0.768664,-0.11762,-0.044283,0,3.141593,0], a=0.523599, v=0.436332, r=0.005)  # [Transform: move to [768.664, -117.62, -44.283] mm and rotate to [[-1, 0, 0], [0, 1, 0], [0, 0, -1]]]
  movej(p[0.768664,-0.11762,-0.059283,0,3.141593,0], a=0.523599, v=0.436332, r=0.005)  # [Transform: move to [768.664, -117.62, -59.283] mm and rotate to [[-1, 0, 0], [0, 1, 0], [0, 0, -1]]]
  movej(p[0.766227,-0.117966,-0.044336,0,3.141593,0], a=0.523599, v=0.436332, r=0.005)  # [Transform: move to [766.227, -117.966, -44.336] mm and rotate to [[-1, 0, 0], [0, 1, 0], [0, 0, -1]]]
  movej(p[0.766227,-0.117966,-0.059336,0,3.141593,0], a=0.523599, v=0.436332, r=0.005)  # [Transform: move to [766.227, -117.966, -59.336] mm and rotate to [[-1, 0, 0], [0, 1, 0], [0, 0, -1]]]
  movej(p[0.767384,-0.11083,-0.044145,0,3.141593,0], a=0.523599, v=0.436332, r=0.005)  # [Transform: move to [767.384, -110.83, -44.145] mm and rotate to [[-1, 0, 0], [0, 1, 0], [0, 0, -1]]]
  movej(p[0.767384,-0.11083,-0.059145,0,3.141593,0], a=0.523599, v=0.436332, r=0.005)  # [Transform: move to [767.384, -110.83, -59.145] mm and rotate to [[-1, 0, 0], [0, 1, 0], [0, 0, -1]]]
  movej(p[0.767081,-0.108781,-0.044376,0,3.141593,0], a=0.523599, v=0.436332, r=0.005)  # [Transform: move to [767.081, -108.781, -44.376] mm and rotate to [[-1, 0, 0], [0, 1, 0], [0, 0, -1]]]
  movej(p[0.767081,-0.108781,-0.059376,0,3.141593,0], a=0.523599, v=0.436332, r=0.005)  # [Transform: move to [767.081, -108.781, -59.376] mm and rotate to [[-1, 0, 0], [0, 1, 0], [0, 0, -1]]]
  movej(p[0.77124,-0.106856,-0.046422,0,3.141593,0], a=0.523599, v=0.436332, r=0.005)  # [Transform: move to [771.24, -106.856, -46.422] mm and rotate to [[-1, 0, 0], [0, 1, 0], [0, 0, -1]]]
  movej(p[0.77124,-0.106856,-0.061422,0,3.141593,0], a=0.523599, v=0.436332, r=0.005)  # [Transform: move to [771.24, -106.856, -61.422] mm and rotate to [[-1, 0, 0], [0, 1, 0], [0, 0, -1]]]
  movej(p[0.773853,-0.106424,-0.046261,0,3.141593,0], a=0.523599, v=0.436332, r=0.005)  # [Transform: move to [773.853, -106.424, -46.261] mm and rotate to [[-1, 0, 0], [0, 1, 0], [0, 0, -1]]]
  movej(p[0.773853,-0.106424,-0.061261,0,3.141593,0], a=0.523599, v=0.436332, r=0.005)  # [Transform: move to [773.853, -106.424, -61.261] mm and rotate to [[-1, 0, 0], [0, 1, 0], [0, 0, -1]]]
  movej(p[0.7758,-0.110463,-0.045099,0,3.141593,0], a=0.523599, v=0.436332, r=0.005)  # [Transform: move to [775.8, -110.463, -45.099] mm and rotate to [[-1, 0, 0], [0, 1, 0], [0, 0, -1]]]
  movej(p[0.7758,-0.110463,-0.060099,0,3.141593,0], a=0.523599, v=0.436332, r=0.005)  # [Transform: move to [775.8, -110.463, -60.099] mm and rotate to [[-1, 0, 0], [0, 1, 0], [0, 0, -1]]]
  movej(p[0.779165,-0.103703,-0.046106,0,3.141593,0], a=0.523599, v=0.436332, r=0.005)  # [Transform: move to [779.165, -103.703, -46.106] mm and rotate to [[-1, 0, 0], [0, 1, 0], [0, 0, -1]]]
  movej(p[0.779165,-0.103703,-0.061106,0,3.141593,0], a=0.523599, v=0.436332, r=0.005)  # [Transform: move to [779.165, -103.703, -61.106] mm and rotate to [[-1, 0, 0], [0, 1, 0], [0, 0, -1]]]
  movej(p[0.781848,-0.102236,-0.044278,0,3.141593,0], a=0.523599, v=0.436332, r=0.005)  # [Transform: move to [781.848, -102.236, -44.278] mm and rotate to [[-1, 0, 0], [0, 1, 0], [0, 0, -1]]]
  movej(p[0.781848,-0.102236,-0.059278,0,3.141593,0], a=0.523599, v=0.436332, r=0.005)  # [Transform: move to [781.848, -102.236, -59.278] mm and rotate to [[-1, 0, 0], [0, 1, 0], [0, 0, -1]]]
  movej(p[0.784218,-0.103441,-0.045431,0,3.141593,0], a=0.523599, v=0.436332, r=0.005)  # [Transform: move to [784.218, -103.441, -45.431] mm and rotate to [[-1, 0, 0], [0, 1, 0], [0, 0, -1]]]
  movej(p[0.784218,-0.103441,-0.060431,0,3.141593,0], a=0.523599, v=0.436332, r=0.005)  # [Transform: move to [784.218, -103.441, -60.431] mm and rotate to [[-1, 0, 0], [0, 1, 0], [0, 0, -1]]]
  movej(p[0.785861,-0.099654,-0.046822,0,3.141593,0], a=0.523599, v=0.436332, r=0.005)  # [Transform: move to [785.861, -99.654, -46.822] mm and rotate to [[-1, 0, 0], [0, 1, 0], [0, 0, -1]]]
  movej(p[0.785861,-0.099654,-0.061822,0,3.141593,0], a=0.523599, v=0.436332, r=0.005)  # [Transform: move to [785.861, -99.654, -61.822] mm and rotate to [[-1, 0, 0], [0, 1, 0], [0, 0, -1]]]
  movej(p[0.788537,-0.098996,-0.046842,0,3.141593,0], a=0.523599, v=0.436332, r=0.005)  # [Transform: move to [788.537, -98.996, -46.842] mm and rotate to [[-1, 0, 0], [0, 1, 0], [0, 0, -1]]]
  movej(p[0.788537,-0.098996,-0.061842,0,3.141593,0], a=0.523599, v=0.436332, r=0.005)  # [Transform: move to [788.537, -98.996, -61.842] mm and rotate to [[-1, 0, 0], [0, 1, 0], [0, 0, -1]]]
  movej(p[0.787225,-0.095989,-0.04534,0,3.141593,0], a=0.523599, v=0.436332, r=0.005)  # [Transform: move to [787.225, -95.989, -45.34] mm and rotate to [[-1, 0, 0], [0, 1, 0], [0, 0, -1]]]
  movej(p[0.787225,-0.095989,-0.06034,0,3.141593,0], a=0.523599, v=0.436332, r=0.005)  # [Transform: move to [787.225, -95.989, -60.34] mm and rotate to [[-1, 0, 0], [0, 1, 0], [0, 0, -1]]]
  movej(p[0.790463,-0.095737,-0.045862,0,3.141593,0], a=0.523599, v=0.436332, r=0.005)  # [Transform: move to [790.463, -95.737, -45.862] mm and rotate to [[-1, 0, 0], [0, 1, 0], [0, 0, -1]]]
  movej(p[0.790463,-0.095737,-0.060862,0,3.141593,0], a=0.523599, v=0.436332, r=0.005)  # [Transform: move to [790.463, -95.737, -60.862] mm and rotate to [[-1, 0, 0], [0, 1, 0], [0, 0, -1]]]
  movej(p[0.785091,-0.091425,-0.04427,0,3.141593,0], a=0.523599, v=0.436332, r=0.005)  # [Transform: move to [785.091, -91.425, -44.27] mm and rotate to [[-1, 0, 0], [0, 1, 0], [0, 0, -1]]]
  movej(p[0.785091,-0.091425,-0.05927,0,3.141593,0], a=0.523599, v=0.436332, r=0.005)  # [Transform: move to [785.091, -91.425, -59.27] mm and rotate to [[-1, 0, 0], [0, 1, 0], [0, 0, -1]]]
  movej(p[0.782936,-0.087826,-0.04629,0,3.141593,0], a=0.523599, v=0.436332, r=0.005)  # [Transform: move to [782.936, -87.826, -46.29] mm and rotate to [[-1, 0, 0], [0, 1, 0], [0, 0, -1]]]
  movej(p[0.782936,-0.087826,-0.06129,0,3.141593,0], a=0.523599, v=0.436332, r=0.005)  # [Transform: move to [782.936, -87.826, -61.29] mm and rotate to [[-1, 0, 0], [0, 1, 0], [0, 0, -1]]]
  movej(p[0.782597,-0.084748,-0.044109,0,3.141593,0], a=0.523599, v=0.436332, r=0.005)  # [Transform: move to [782.597, -84.748, -44.109] mm and rotate to [[-1, 0, 0], [0, 1, 0], [0, 0, -1]]]
  movej(p[0.782597,-0.084748,-0.059109,0,3.141593,0], a=0.523599, v=0.436332, r=0.005)  # [Transform: move to [782.597, -84.748, -59.109] mm and rotate to [[-1, 0, 0], [0, 1, 0], [0, 0, -1]]]
  movej(p[0.780507,-0.084155,-0.044304,0,3.141593,0], a=0.523599, v=0.436332, r=0.005)  # [Transform: move to [780.507, -84.155, -44.304] mm and rotate to [[-1, 0, 0], [0, 1, 0], [0, 0, -1]]]
  movej(p[0.780507,-0.084155,-0.059304,0,3.141593,0], a=0.523599, v=0.436332, r=0.005)  # [Transform: move to [780.507, -84.155, -59.304] mm and rotate to [[-1, 0, 0], [0, 1, 0], [0, 0, -1]]]
  movej(p[0.786812,-0.086167,-0.046965,0,3.141593,0], a=0.523599, v=0.436332, r=0.005)  # [Transform: move to [786.812, -86.167, -46.965] mm and rotate to [[-1, 0, 0], [0, 1, 0], [0, 0, -1]]]
  movej(p[0.786812,-0.086167,-0.061965,0,3.141593,0], a=0.523599, v=0.436332, r=0.005)  # [Transform: move to [786.812, -86.167, -61.965] mm and rotate to [[-1, 0, 0], [0, 1, 0], [0, 0, -1]]]
  movej(p[0.792967,-0.087479,-0.044516,0,3.141593,0], a=0.523599, v=0.436332, r=0.005)  # [Transform: move to [792.967, -87.479, -44.516] mm and rotate to [[-1, 0, 0], [0, 1, 0], [0, 0, -1]]]
  movej(p[0.792967,-0.087479,-0.059516,0,3.141593,0], a=0.523599, v=0.436332, r=0.005)  # [Transform: move to [792.967, -87.479, -59.516] mm and rotate to [[-1, 0, 0], [0, 1, 0], [0, 0, -1]]]
  movej(p[0.797832,-0.094029,-0.046785,0,3.141593,0], a=0.523599, v=0.436332, r=0.005)  # [Transform: move to [797.832, -94.029, -46.785] mm and rotate to [[-1, 0, 0], [0, 1, 0], [0, 0, -1]]]
  movej(p[0.797832,-0.094029,-0.061785,0,3.141593,0], a=0.523599, v=0.436332, r=0.005)  # [Transform: move to [797.832, -94.029, -61.785] mm and rotate to [[-1, 0, 0], [0, 1, 0], [0, 0, -1]]]
  movej(p[0.801666,-0.091977,-0.046886,0,3.141593,0], a=0.523599, v=0.436332, r=0.005)  # [Transform: move to [801.666, -91.977, -46.886] mm and rotate to [[-1, 0, 0], [0, 1, 0], [0, 0, -1]]]
  movej(p[0.801666,-0.091977,-0.061886,0,3.141593,0], a=0.523599, v=0.436332, r=0.005)  # [Transform: move to [801.666, -91.977, -61.886] mm and rotate to [[-1, 0, 0], [0, 1, 0], [0, 0, -1]]]
  movej(p[0.803617,-0.090964,-0.044735,0,3.141593,0], a=0.523599, v=0.436332, r=0.005)  # [Transform: move to [803.617, -90.964, -44.735] mm and rotate to [[-1, 0, 0], [0, 1, 0], [0, 0, -1]]]
  movej(p[0.803617,-0.090964,-0.059735,0,3.141593,0], a=0.523599, v=0.436332, r=0.005)  # [Transform: move to [803.617, -90.964, -59.735] mm and rotate to [[-1, 0, 0], [0, 1, 0], [0, 0, -1]]]
  movej(p[0.805029,-0.095069,-0.045072,0,3.141593,0], a=0.523599, v=0.436332, r=0.005)  # [Transform: move to [805.029, -95.069, -45.072] mm and rotate to [[-1, 0, 0], [0, 1, 0], [0, 0, -1]]]
  movej(p[0.805029,-0.095069,-0.060072,0,3.141593,0], a=0.523599, v=0.436332, r=0.005)  # [Transform: move to [805.029, -95.069, -60.072] mm and rotate to [[-1, 0, 0], [0, 1, 0], [0, 0, -1]]]
  movej(p[0.807742,-0.092792,-0.045453,0,3.141593,0], a=0.523599, v=0.436332, r=0.005)  # [Transform: move to [807.742, -92.792, -45.453] mm and rotate to [[-1, 0, 0], [0, 1, 0], [0, 0, -1]]]
  movej(p[0.807742,-0.092792,-0.060453,0,3.141593,0], a=0.523599, v=0.436332, r=0.005)  # [Transform: move to [807.742, -92.792, -60.453] mm and rotate to [[-1, 0, 0], [0, 1, 0], [0, 0, -1]]]
  movej(p[0.811021,-0.090121,-0.046963,0,3.141593,0], a=0.523599, v=0.436332, r=0.005)  # [Transform: move to [811.021, -90.121, -46.963] mm and rotate to [[-1, 0, 0], [0, 1, 0], [0, 0, -1]]]
  movej(p[0.811021,-0.090121,-0.061963,0,3.141593,0], a=0.523599, v=0.436332, r=0.005)  # [Transform: move to [811.021, -90.121, -61.963] mm and rotate to [[-1, 0, 0], [0, 1, 0], [0, 0, -1]]]
  movej(p[0.814055,-0.095043,-0.046647,0,3.141593,0], a=0.523599, v=0.436332, r=0.005)  # [Transform: move to [814.055, -95.043, -46.647] mm and rotate to [[-1, 0, 0], [0, 1, 0], [0, 0, -1]]]
  movej(p[0.814055,-0.095043,-0.061647,0,3.141593,0], a=0.523599, v=0.436332, r=0.005)  # [Transform: move to [814.055, -95.043, -61.647] mm and rotate to [[-1, 0, 0], [0, 1, 0], [0, 0, -1]]]
  movej(p[0.8144,-0.097061,-0.045364,0,3.141593,0], a=0.523599, v=0.436332, r=0.005)  # [Transform: move to [814.4, -97.061, -45.364] mm and rotate to [[-1, 0, 0], [0, 1, 0], [0, 0, -1]]]
  movej(p[0.8144,-0.097061,-0.060364,0,3.141593,0], a=0.523599, v=0.436332, r=0.005)  # [Transform: move to [814.4, -97.061, -60.364] mm and rotate to [[-1, 0, 0], [0, 1, 0], [0, 0, -1]]]
  movej(p[0.81937,-0.093907,-0.04578,0,3.141593,0], a=0.523599, v=0.436332, r=0.005)  # [Transform: move to [819.37, -93.907, -45.78] mm and rotate to [[-1, 0, 0], [0, 1, 0], [0, 0, -1]]]
  movej(p[0.81937,-0.093907,-0.06078,0,3.141593,0], a=0.523599, v=0.436332, r=0.005)  # [Transform: move to [819.37, -93.907, -60.78] mm and rotate to [[-1, 0, 0], [0, 1, 0], [0, 0, -1]]]
  movej(p[0.823927,-0.091357,-0.045913,0,3.141593,0], a=0.523599, v=0.436332, r=0.005)  # [Transform: move to [823.927, -91.357, -45.913] mm and rotate to [[-1, 0, 0], [0, 1, 0], [0, 0, -1]]]
  movej(p[0.823927,-0.091357,-0.060913,0,3.141593,0], a=0.523599, v=0.436332, r=0.005)  # [Transform: move to [823.927, -91.357, -60.913] mm and rotate to [[-1, 0, 0], [0, 1, 0], [0, 0, -1]]]
  movej(p[0.826002,-0.093325,-0.0444,0,3.141593,0], a=0.523599, v=0.436332, r=0.005)  # [Transform: move to [826.002, -93.325, -44.4] mm and rotate to [[-1, 0, 0], [0, 1, 0], [0, 0, -1]]]
  movej(p[0.826002,-0.093325,-0.0594,0,3.141593,0], a=0.523599, v=0.436332, r=0.005)  # [Transform: move to [826.002, -93.325, -59.4] mm and rotate to [[-1, 0, 0], [0, 1, 0], [0, 0, -1]]]
  movej(p[0.830257,-0.089471,-0.044875,0,3.141593,0], a=0.523599, v=0.436332, r=0.005)  # [Transform: move to [830.257, -89.471, -44.875] mm and rotate to [[-1, 0, 0], [0, 1, 0], [0, 0, -1]]]
  movej(p[0.830257,-0.089471,-0.059875,0,3.141593,0], a=0.523599, v=0.436332, r=0.005)  # [Transform: move to [830.257, -89.471, -59.875] mm and rotate to [[-1, 0, 0], [0, 1, 0], [0, 0, -1]]]
  movej(p[0.837527,-0.081029,-0.046323,0,3.141593,0], a=0.523599, v=0.436332, r=0.005)  # [Transform: move to [837.527, -81.029, -46.323] mm and rotate to [[-1, 0, 0], [0, 1, 0], [0, 0, -1]]]
  movej(p[0.837527,-0.081029,-0.061323,0,3.141593,0], a=0.523599, v=0.436332, r=0.005)  # [Transform: move to [837.527, -81.029, -61.323] mm and rotate to [[-1, 0, 0], [0, 1, 0], [0, 0, -1]]]
  movej(p[0.838913,-0.078604,-0.044743,0,3.141593,0], a=0.523599, v=0.436332, r=0.005)  # [Transform: move to [838.913, -78.604, -44.743] mm and rotate to [[-1, 0, 0], [0, 1, 0], [0, 0, -1]]]
  movej(p[0.838913,-0.078604,-0.059743,0,3.141593,0], a=0.523599, v=0.436332, r=0.005)  # [Transform: move to [838.913, -78.604, -59.743] mm and rotate to [[-1, 0, 0], [0, 1, 0], [0, 0, -1]]]
  movej(p[0.838741,-0.073554,-0.045805,0,3.141593,0], a=0.523599, v=0.436332, r=0.005)  # [Transform: move to [838.741, -73.554, -45.805] mm and rotate to [[-1, 0, 0], [0, 1, 0], [0, 0, -1]]]
  movej(p[0.838741,-0.073554,-0.060805,0,3.141593,0], a=0.523599, v=0.436332, r=0.005)  # [Transform: move to [838.741, -73.554, -60.805] mm and rotate to [[-1, 0, 0], [0, 1, 0], [0, 0, -1]]]
  movej(p[0.840074,-0.072085,-0.046183,0,3.141593,0], a=0.523599, v=0.436332, r=0.005)  # [Transform: move to [840.074, -72.085, -46.183] mm and rotate to [[-1, 0, 0], [0, 1, 0], [0, 0, -1]]]
  movej(p[0.840074,-0.072085,-0.061183,0,3.141593,0], a=0.523599, v=0.436332, r=0.005)  # [Transform: move to [840.074, -72.085, -61.183] mm and rotate to [[-1, 0, 0], [0, 1, 0], [0, 0, -1]]]
  movej(p[0.840984,-0.063622,-0.04626,0,3.141593,0], a=0.523599, v=0.436332, r=0.005)  # [Transform: move to [840.984, -63.622, -46.26] mm and rotate to [[-1, 0, 0], [0, 1, 0], [0, 0, -1]]]
  movej(p[0.840984,-0.063622,-0.06126,0,3.141593,0], a=0.523599, v=0.436332, r=0.005)  # [Transform: move to [840.984, -63.622, -61.26] mm and rotate to [[-1, 0, 0], [0, 1, 0], [0, 0, -1]]]
  movej(p[0.837691,-0.062468,-0.046974,0,3.141593,0], a=0.523599, v=0.436332, r=0.005)  # [Transform: move to [837.691, -62.468, -46.974] mm and rotate to [[-1, 0, 0], [0, 1, 0], [0, 0, -1]]]
  movej(p[0.837691,-0.062468,-0.061974,0,3.141593,0], a=0.523599, v=0.436332, r=0.005)  # [Transform: move to [837.691, -62.468, -61.974] mm and rotate to [[-1, 0, 0], [0, 1, 0], [0, 0, -1]]]
  movej(p[0.84159,-0.058329,-0.044921,0,3.141593,0], a=0.523599, v=0.436332, r=0.005)  # [Transform: move to [841.59, -58.329, -44.921] mm and rotate to [[-1, 0, 0], [0, 1, 0], [0, 0, -1]]]
  movej(p[0.84159,-0.058329,-0.059921,0,3.141593,0], a=0.523599, v=0.436332, r=0.005)  # [Transform: move to [841.59, -58.329, -59.921] mm and rotate to [[-1, 0, 0], [0, 1, 0], [0, 0, -1]]]
  movej(p[0.843993,-0.055813,-0.046703,0,3.141593,0], a=0.523599, v=0.436332, r=0.005)  # [Transform: move to [843.993, -55.813, -46.703] mm and rotate to [[-1, 0, 0], [0, 1, 0], [0, 0, -1]]]
  movej(p[0.843993,-0.055813,-0.061703,0,3.141593,0], a=0.523599, v=0.436332, r=0.005)  # [Transform: move to [843.993, -55.813, -61.703] mm and rotate to [[-1, 0, 0], [0, 1, 0], [0, 0, -1]]]
  movej(p[0.84451,-0.05395,-0.044653,0,3.141593,0], a=0.523599, v=0.436332, r=0.005)  # [Transform: move to [844.51, -53.95, -44.653] mm and rotate to [[-1, 0, 0], [0, 1, 0], [0, 0, -1]]]
  movej(p[0.84451,-0.05395,-0.059653,0,3.141593,0], a=0.523599, v=0.436332, r=0.005)  # [Transform: move to [844.51, -53.95, -59.653] mm and rotate to [[-1, 0, 0], [0, 1, 0], [0, 0, -1]]]
  movej(p[0.848858,-0.054105,-0.046114,0,3.141593,0], a=0.523599, v=0.436332, r=0.005)  # [Transform: move to [848.858, -54.105, -46.114] mm and rotate to [[-1, 0, 0], [0, 1, 0], [0, 0, -1]]]
  movej(p[0.848858,-0.054105,-0.061114,0,3.141593,0], a=0.523599, v=0.436332, r=0.005)  # [Transform: move to [848.858, -54.105, -61.114] mm and rotate to [[-1, 0, 0], [0, 1, 0], [0, 0, -1]]]
  movej(p[0.848288,-0.050752,-0.044589,0,3.141593,0], a=0.523599, v=0.436332, r=0.005)  # [Transform: move to [848.288, -50.752, -44.589] mm and rotate to [[-1, 0, 0], [0, 1, 0], [0, 0, -1]]]
  movej(p[0.848288,-0.050752,-0.059589,0,3.141593,0], a=0.523599, v=0.436332, r=0.005)  # [Transform: move to [848.288, -50.752, -59.589] mm and rotate to [[-1, 0, 0], [0, 1, 0], [0, 0, -1]]]
  movej(p[0.849083,-0.047325,-0.046331,0,3.141593,0], a=0.523599, v=0.436332, r=0.005)  # [Transform: move to [849.083, -47.325, -46.331] mm and rotate to [[-1, 0, 0], [0, 1, 0], [0, 0, -1]]]
  movej(p[0.849083,-0.047325,-0.061331,0,3.141593,0], a=0.523599, v=0.436332, r=0.005)  # [Transform: move to [849.083, -47.325, -61.331] mm and rotate to [[-1, 0, 0], [0, 1, 0], [0, 0, -1]]]
  movej(p[0.851085,-0.046657,-0.044642,0,3.141593,0], a=0.523599, v=0.436332, r=0.005)  # [Transform: move to [851.085, -46.657, -44.642] mm and rotate to [[-1, 0, 0], [0, 1, 0], [0, 0, -1]]]
  movej(p[0.851085,-0.046657,-0.059642,0,3.141593,0], a=0.523599, v=0.436332, r=0.005)  # [Transform: move to [851.085, -46.657, -59.642] mm and rotate to [[-1, 0, 0], [0, 1, 0], [0, 0, -1]]]
  movej(p[0.851908,-0.044537,-0.044833,0,3.141593,0], a=0.523599, v=0.436332, r=0.005)  # [Transform: move to [851.908, -44.537, -44.833] mm and rotate to [[-1, 0, 0], [0, 1, 0], [0, 0, -1]]]
  movej(p[0.851908,-0.044537,-0.059833,0,3.141593,0], a=0.523599, v=0.436332, r=0.005)  # [Transform: move to [851.908, -44.537, -59.833] mm and rotate to [[-1, 0, 0], [0, 1, 0], [0, 0, -1]]]
  movej(p[0.854089,-0.046036,-0.0465,0,3.141593,0], a=0.523599, v=0.436332, r=0.005)  # [Transform: move to [854.089, -46.036, -46.5] mm and rotate to [[-1, 0, 0], [0, 1, 0], [0, 0, -1]]]
  movej(p[0.854089,-0.046036,-0.0615,0,3.141593,0], a=0.523599, v=0.436332, r=0.005)  # [Transform: move to [854.089, -46.036, -61.5] mm and rotate to [[-1, 0, 0], [0, 1, 0], [0, 0, -1]]]
  movej(p[0.856224,-0.049029,-0.044039,0,3.141593,0], a=0.523599, v=0.436332, r=0.005)  # [Transform: move to [856.224, -49.029, -44.039] mm and rotate to [[-1, 0, 0], [0, 1, 0], [0, 0, -1]]]
  movej(p[0.856224,-0.049029,-0.059039,0,3.141593,0], a=0.523599, v=0.436332, r=0.005)  # [Transform: move to [856.224, -49.029, -59.039] mm and rotate to [[-1, 0, 0], [0, 1, 0], [0, 0, -1]]]
  movej(p[0.858864,-0.048111,-0.046025,0,3.141593,0], a=0.523599, v=0.436332, r=0.005)  # [Transform: move to [858.864, -48.111, -46.025] mm and rotate to [[-1, 0, 0], [0, 1, 0], [0, 0, -1]]]
  movej(p[0.858864,-0.048111,-0.061025,0,3.141593,0], a=0.523599, v=0.436332, r=0.005)  # [Transform: move to [858.864, -48.111, -61.025] mm and rotate to [[-1, 0, 0], [0, 1, 0], [0, 0, -1]]]
  movej(p[0.857756,-0.044266,-0.046295,0,3.141593,0], a=0.523599, v=0.436332, r=0.005)  # [Transform: move to [857.756, -44.266, -46.295] mm and rotate to [[-1, 0, 0], [0, 1, 0], [0, 0, -1]]]
  movej(p[0.857756,-0.044266,-0.061295,0,3.141593,0], a=0.523599, v=0.436332, r=0.005)  # [Transform: move to [857.756, -44.266, -61.295] mm and rotate to [[-1, 0, 0], [0, 1, 0], [0, 0, -1]]]
  movej(p[0.857662,-0.052348,-0.045814,0,3.141593,0], a=0.523599, v=0.436332, r=0.005)  # [Transform: move to [857.662, -52.348, -45.814] mm and rotate to [[-1, 0, 0], [0, 1, 0], [0, 0, -1]]]
  movej(p[0.857662,-0.052348,-0.060814,0,3.141593,0], a=0.523599, v=0.436332, r=0.005)  # [Transform: move to [857.662, -52.348, -60.814] mm and rotate to [[-1, 0, 0], [0, 1, 0], [0, 0, -1]]]
  movej(p[0.855857,-0.05449,-0.044719,0,3.141593,0], a=0.523599, v=0.436332, r=0.005)  # [Transform: move to [855.857, -54.49, -44.719] mm and rotate to [[-1, 0, 0], [0, 1, 0], [0, 0, -1]]]
  movej(p[0.855857,-0.05449,-0.059719,0,3.141593,0], a=0.523599, v=0.436332, r=0.005)  # [Transform: move to [855.857, -54.49, -59.719] mm and rotate to [[-1, 0, 0], [0, 1, 0], [0, 0, -1]]]
  movej(p[0.857922,-0.055489,-0.045379,0,3.141593,0], a=0.523599, v=0.436332, r=0.005)  # [Transform: move to [857.922, -55.489, -45.379] mm and rotate to [[-1, 0, 0], [0, 1, 0], [0, 0, -1]]]
  movej(p[0.857922,-0.055489,-0.060379,0,3.141593,0], a=0.523599, v=0.436332, r=0.005)  # [Transform: move to [857.922, -55.489, -60.379] mm and rotate to [[-1, 0, 0], [0, 1, 0], [0, 0, -1]]]
  movej(p[0.858165,-0.058505,-0.04489,0,3.141593,0], a=0.523599, v=0.436332, r=0.005)  # [Transform: move to [858.165, -58.505, -44.89] mm and rotate to [[-1, 0, 0], [0, 1, 0], [0, 0, -1]]]
  movej(p[0.858165,-0.058505,-0.05989,0,3.141593,0], a=0.523599, v=0.436332, r=0.005)  # [Transform: move to [858.165, -58.505, -59.89] mm and rotate to [[-1, 0, 0], [0, 1, 0], [0, 0, -1]]]
  movej(p[0.853533,-0.056893,-0.045452,0,3.141593,0], a=0.523599, v=0.436332, r=0.005)  # [Transform: move to [853.533, -56.893, -45.452] mm and rotate to [[-1, 0, 0], [0, 1, 0], [0, 0, -1]]]
  movej(p[0.853533,-0.056893,-0.060452,0,3.141593,0], a=0.523599, v=0.436332, r=0.005)  # [Transform: move to [853.533, -56.893, -60.452] mm and rotate to [[-1, 0, 0], [0, 1, 0], [0, 0, -1]]]
  movej(p[0.851242,-0.057116,-0.044397,0,3.141593,0], a=0.523599, v=0.436332, r=0.005)  # [Transform: move to [851.242, -57.116, -44.397] mm and rotate to [[-1, 0, 0], [0, 1, 0], [0, 0, -1]]]
  movej(p[0.851242,-0.057116,-0.059397,0,3.141593,0], a=0.523599, v=0.436332, r=0.005)  # [Transform: move to [851.242, -57.116, -59.397] mm and rotate to [[-1, 0, 0], [0, 1, 0], [0, 0, -1]]]
  movej(p[0.852124,-0.058954,-0.046601,0,3.141593,0], a=0.523599, v=0.436332, r=0.005)  # [Transform: move to [852.124, -58.954, -46.601] mm and rotate to [[-1, 0, 0], [0, 1, 0], [0, 0, -1]]]
  movej(p[0.852124,-0.058954,-0.061601,0,3.141593,0], a=0.523599, v=0.436332, r=0.005)  # [Transform: move to [852.124, -58.954, -61.601] mm and rotate to [[-1, 0, 0], [0, 1, 0], [0, 0, -1]]]
  movej(p[0.846489,-0.060464,-0.046073,0,3.141593,0], a=0.523599, v=0.436332, r=0.005)  # [Transform: move to [846.489, -60.464, -46.073] mm and rotate to [[-1, 0, 0], [0, 1, 0], [0, 0, -1]]]
  movej(p[0.846489,-0.060464,-0.061073,0,3.141593,0], a=0.523599, v=0.436332, r=0.005)  # [Transform: move to [846.489, -60.464, -61.073] mm and rotate to [[-1, 0, 0], [0, 1, 0], [0, 0, -1]]]
  movej(p[0.838277,-0.054845,-0.045924,0,3.141593,0], a=0.523599, v=0.436332, r=0.005)  # [Transform: move to [838.277, -54.845, -45.924] mm and rotate to [[-1, 0, 0], [0, 1, 0], [0, 0, -1]]]
  movej(p[0.838277,-0.054845,-0.060924,0,3.141593,0], a=0.523599, v=0.436332, r=0.005)  # [Transform: move to [838.277, -54.845, -60.924] mm and rotate to [[-1, 0, 0], [0, 1, 0], [0, 0, -1]]]
  movej(p[0.837918,-0.052938,-0.04646,0,3.141593,0], a=0.523599, v=0.436332, r=0.005)  # [Transform: move to [837.918, -52.938, -46.46] mm and rotate to [[-1, 0, 0], [0, 1, 0], [0, 0, -1]]]
  movej(p[0.837918,-0.052938,-0.06146,0,3.141593,0], a=0.523599, v=0.436332, r=0.005)  # [Transform: move to [837.918, -52.938, -61.46] mm and rotate to [[-1, 0, 0], [0, 1, 0], [0, 0, -1]]]
  movej(p[0.839747,-0.045031,-0.046614,0,3.141593,0], a=0.523599, v=0.436332, r=0.005)  # [Transform: move to [839.747, -45.031, -46.614] mm and rotate to [[-1, 0, 0], [0, 1, 0], [0, 0, -1]]]
  movej(p[0.839747,-0.045031,-0.061614,0,3.141593,0], a=0.523599, v=0.436332, r=0.005)  # [Transform: move to [839.747, -45.031, -61.614] mm and rotate to [[-1, 0, 0], [0, 1, 0], [0, 0, -1]]]
  movej(p[0.836248,-0.04461,-0.046735,0,3.141593,0], a=0.523599, v=0.436332, r=0.005)  # [Transform: move to [836.248, -44.61, -46.735] mm and rotate to [[-1, 0, 0], [0, 1, 0], [0, 0, -1]]]
  movej(p[0.836248,-0.04461,-0.061735,0,3.141593,0], a=0.523599, v=0.436332, r=0.005)  # [Transform: move to [836.248, -44.61, -61.735] mm and rotate to [[-1, 0, 0], [0, 1, 0], [0, 0, -1]]]
  movej(p[0.835187,-0.036951,-0.044326,0,3.141593,0], a=0.523599, v=0.436332, r=0.005)  # [Transform: move to [835.187, -36.951, -44.326] mm and rotate to [[-1, 0, 0], [0, 1, 0], [0, 0, -1]]]
  movej(p[0.835187,-0.036951,-0.059326,0,3.141593,0], a=0.523599, v=0.436332, r=0.005)  # [Transform: move to [835.187, -36.951, -59.326] mm and rotate to [[-1, 0, 0], [0, 1, 0], [0, 0, -1]]]
  movej(p[0.843289,-0.036931,-0.045365,0,3.141593,0], a=0.523599, v=0.436332, r=0.005)  # [Transform: move to [843.289, -36.931, -45.365] mm and rotate to [[-1, 0, 0], [0, 1, 0], [0, 0, -1]]]
  movej(p[0.843289,-0.036931,-0.060365,0,3.141593,0], a=0.523599, v=0.436332, r=0.005)  # [Transform: move to [843.289, -36.931, -60.365] mm and rotate to [[-1, 0, 0], [0, 1, 0], [0, 0, -1]]]
  movej(p[0.841528,-0.029056,-0.04503,0,3.141593,0], a=0.523599, v=0.436332, r=0.005)  # [Transform: move to [841.528, -29.056, -45.03] mm and rotate to [[-1, 0, 0], [0, 1, 0], [0, 0, -1]]]
  movej(p[0.841528,-0.029056,-0.06003,0,3.141593,0], a=0.523599, v=0.436332, r=0.005)  # [Transform: move to [841.528, -29.056, -60.03] mm and rotate to [[-1, 0, 0], [0, 1, 0], [0, 0, -1]]]
  movej(p[0.841491,-0.02512,-0.045948,0,3.141593,0], a=0.523599, v=0.436332, r=0.005)  # [Transform: move to [841.491, -25.12, -45.948] mm and rotate to [[-1, 0, 0], [0, 1, 0], [0, 0, -1]]]
  movej(p[0.841491,-0.02512,-0.060948,0,3.141593,0], a=0.523599, v=0.436332, r=0.005)  # [Transform: move to [841.491, -25.12, -60.948] mm and rotate to [[-1, 0, 0], [0, 1, 0], [0, 0, -1]]]
  movej(p[0.843433,-0.018376,-0.044519,0,3.141593,0], a=0.523599, v=0.436332, r=0.005)  # [Transform: move to [843.433, -18.376, -44.519] mm and rotate to [[-1, 0, 0], [0, 1, 0], [0, 0, -1]]]
  movej(p[0.843433,-0.018376,-0.059519,0,3.141593,0], a=0.523599, v=0.436332, r=0.005)  # [Transform: move to [843.433, -18.376, -59.519] mm and rotate to [[-1, 0, 0], [0, 1, 0], [0, 0, -1]]]
  movej(p[0.848999,-0.012792,-0.044597,0,3.141593,0], a=0.523599, v=0.436332, r=0.005)  # [Transform: move to [848.999, -12.792, -44.597] mm and rotate to [[-1, 0, 0], [0, 1, 0], [0, 0, -1]]]
  movej(p[0.848999,-0.012792,-0.059597,0,3.141593,0], a=0.523599, v=0.436332, r=0.005)  # [Transform: move to [848.999, -12.792, -59.597] mm and rotate to [[-1, 0, 0], [0, 1, 0], [0, 0, -1]]]
  movej(p[0.852994,-0.010564,-0.044058,0,3.141593,0], a=0.523599, v=0.436332, r=0.005)  # [Transform: move to [852.994, -10.564, -44.058] mm and rotate to [[-1, 0, 0], [0, 1, 0], [0, 0, -1]]]
  movej(p[0.852994,-0.010564,-0.059058,0,3.141593,0], a=0.523599, v=0.436332, r=0.005)  # [Transform: move to [852.994, -10.564, -59.058] mm and rotate to [[-1, 0, 0], [0, 1, 0], [0, 0, -1]]]
  movej(p[0.854943,-0.010209,-0.045087,0,3.141593,0], a=0.523599, v=0.436332, r=0.005)  # [Transform: move to [854.943, -10.209, -45.087] mm and rotate to [[-1, 0, 0], [0, 1, 0], [0, 0, -1]]]
  movej(p[0.854943,-0.010209,-0.060087,0,3.141593,0], a=0.523599, v=0.436332, r=0.005)  # [Transform: move to [854.943, -10.209, -60.087] mm and rotate to [[-1, 0, 0], [0, 1, 0], [0, 0, -1]]]
  movej(p[0.853696,-0.00796,-0.044029,0,3.141593,0], a=0.523599, v=0.436332, r=0.005)  # [Transform: move to [853.696, -7.96, -44.029] mm and rotate to [[-1, 0, 0], [0, 1, 0], [0, 0, -1]]]
  movej(p[0.853696,-0.00796,-0.059029,0,3.141593,0], a=0.523599, v=0.436332, r=0.005)  # [Transform: move to [853.696, -7.96, -59.029] mm and rotate to [[-1, 0, 0], [0, 1, 0], [0, 0, -1]]]
  movej(p[0.857547,-0.008896,-0.044135,0,3.141593,0], a=0.523599, v=0.436332, r=0.005)  # [Transform: move to [857.547, -8.896, -44.135] mm and rotate to [[-1, 0, 0], [0, 1, 0], [0, 0, -1]]]
  movej(p[0.857547,-0.008896,-0.059135,0,3.141593,0], a=0.523599, v=0.436332, r=0.005)  # [Transform: move to [857.547, -8.896, -59.135] mm and rotate to [[-1, 0, 0], [0, 1, 0], [0, 0, -1]]]
  movej(p[0.856811,-0.004122,-0.046383,0,3.141593,0], a=0.523599, v=0.436332, r=0.005)  # [Transform: move to [856.811, -4.122, -46.383] mm and rotate to [[-1, 0, 0], [0, 1, 0], [0, 0, -1]]]
  movej(p[0.856811,-0.004122,-0.061383,0,3.141593,0], a=0.523599, v=0.436332, r=0.005)  # [Transform: move to [856.811, -4.122, -61.383] mm and rotate to [[-1, 0, 0], [0, 1, 0], [0, 0, -1]]]
  movej(p[0.854815,-0.001926,-0.044263,0,3.141593,0], a=0.523599, v=0.436332, r=0.005)  # [Transform: move to [854.815, -1.926, -44.263] mm and rotate to [[-1, 0, 0], [0, 1, 0], [0, 0, -1]]]
  movej(p[0.854815,-0.001926,-0.059263,0,3.141593,0], a=0.523599, v=0.436332, r=0.005)  # [Transform: move to [854.815, -1.926, -59.263] mm and rotate to [[-1, 0, 0], [0, 1, 0], [0, 0, -1]]]
  movej(p[0.853962,0.002155,-0.046863,0,3.141593,0], a=0.523599, v=0.436332, r=0.005)  # [Transform: move to [853.962, 2.155, -46.863] mm and rotate to [[-1, 0, 0], [0, 1, 0], [0, 0, -1]]]
  movej(p[0.853962,0.002155,-0.061863,0,3.141593,0], a=0.523599, v=0.436332, r=0.005)  # [Transform: move to [853.962, 2.155, -61.863] mm and rotate to [[-1, 0, 0], [0, 1, 0], [0, 0, -1]]]
  movej(p[0.850313,0.003724,-0.044672,0,3.141593,0], a=0.523599, v=0.436332, r=0.005)  # [Transform: move to [850.313, 3.724, -44.672] mm and rotate to [[-1, 0, 0], [0, 1, 0], [0, 0, -1]]]
  movej(p[0.850313,0.003724,-0.059672,0,3.141593,0], a=0.523599, v=0.436332, r=0.005)  # [Transform: move to [850.313, 3.724, -59.672] mm and rotate to [[-1, 0, 0], [0, 1, 0], [0, 0, -1]]]
  movej(p[0.846792,0.003251,-0.046297,0,3.141593,0], a=0.523599, v=0.436332, r=0.005)  # [Transform: move to [846.792, 3.251, -46.297] mm and rotate to [[-1, 0, 0], [0, 1, 0], [0, 0, -1]]]
  movej(p[0.846792,0.003251,-0.061297,0,3.141593,0], a=0.523599, v=0.436332, r=0.005)  # [Transform: move to [846.792, 3.251, -61.297] mm and rotate to [[-1, 0, 0], [0, 1, 0], [0, 0, -1]]]
  movej(p[0.844634,0.00352,-0.045405,0,3.141593,0], a=0.523599, v=0.436332, r=0.005)  # [Transform: move to [844.634, 3.52, -45.405] mm and rotate to [[-1, 0, 0], [0, 1, 0], [0, 0, -1]]]
  movej(p[0.844634,0.00352,-0.060405,0,3.141593,0], a=0.523599, v=0.436332, r=0.005)  # [Transform: move to [844.634, 3.52, -60.405] mm and rotate to [[-1, 0, 0], [0, 1, 0], [0, 0, -1]]]
  movej(p[0.844577,0.005637,-0.04443,0,3.141593,0], a=0.523599, v=0.436332, r=0.005)  # [Transform: move to [844.577, 5.637, -44.43] mm and rotate to [[-1, 0, 0], [0, 1, 0], [0, 0, -1]]]
  movej(p[0.844577,0.005637,-0.05943,0,3.141593,0], a=0.523599, v=0.436332, r=0.005)  # [Transform: move to [844.577, 5.637, -59.43] mm and rotate to [[-1, 0, 0], [0, 1, 0], [0, 0, -1]]]
  movej(p[0.842516,0.006904,-0.044619,0,3.141593,0], a=0.523599, v=0.436332, r=0.005)  # [Transform: move to [842.516, 6.904, -44.619] mm and rotate to [[-1, 0, 0], [0, 1, 0], [0, 0, -1]]]
  movej(p[0.842516,0.006904,-0.059619,0,3.141593,0], a=0.523599, v=0.436332, r=0.005)  # [Transform: move to [842.516, 6.904, -59.619] mm and rotate to [[-1, 0, 0], [0, 1, 0], [0, 0, -1]]]
  movej(p[0.840451,0.007357,-0.044463,0,3.141593,0], a=0.523599, v=0.436332, r=0.005)  # [Transform: move to [840.451, 7.357, -44.463] mm and rotate to [[-1, 0, 0], [0, 1, 0], [0, 0, -1]]]
  movej(p[0.840451,0.007357,-0.059463,0,3.141593,0], a=0.523599, v=0.436332, r=0.005)  # [Transform: move to [840.451, 7.357, -59.463] mm and rotate to [[-1, 0, 0], [0, 1, 0], [0, 0, -1]]]
  movej(p[0.841325,0.009874,-0.046608,0,3.141593,0], a=0.523599, v=0.436332, r=0.005)  # [Transform: move to [841.325, 9.874, -46.608] mm and rotate to [[-1, 0, 0], [0, 1, 0], [0, 0, -1]]]
  movej(p[0.841325,0.009874,-0.061608,0,3.141593,0], a=0.523599, v=0.436332, r=0.005)  # [Transform: move to [841.325, 9.874, -61.608] mm and rotate to [[-1, 0, 0], [0, 1, 0], [0, 0, -1]]]
  movej(p[0.838986,0.010906,-0.046338,0,3.141593,0], a=0.523599, v=0.436332, r=0.005)  # [Transform: move to [838.986, 10.906, -46.338] mm and rotate to [[-1, 0, 0], [0, 1, 0], [0, 0, -1]]]
  movej(p[0.838986,0.010906,-0.061338,0,3.141593,0], a=0.523599, v=0.436332, r=0.005)  # [Transform: move to [838.986, 10.906, -61.338] mm and rotate to [[-1, 0, 0], [0, 1, 0], [0, 0, -1]]]
  movej(p[0.845445,0.009467,-0.046485,0,3.141593,0], a=0.523599, v=0.436332, r=0.005)  # [Transform: move to [845.445, 9.467, -46.485] mm and rotate to [[-1, 0, 0], [0, 1, 0], [0, 0, -1]]]
  movej(p[0.845445,0.009467,-0.061485,0,3.141593,0], a=0.523599, v=0.436332, r=0.005)  # [Transform: move to [845.445, 9.467, -61.485] mm and rotate to [[-1, 0, 0], [0, 1, 0], [0, 0, -1]]]
  movej(p[0.84653,0.007869,-0.044099,0,3.141593,0], a=0.523599, v=0.436332, r=0.005)  # [Transform: move to [846.53, 7.869, -44.099] mm and rotate to [[-1, 0, 0], [0, 1, 0], [0, 0, -1]]]
  movej(p[0.84653,0.007869,-0.059099,0,3.141593,0], a=0.523599, v=0.436332, r=0.005)  # [Transform: move to [846.53, 7.869, -59.099] mm and rotate to [[-1, 0, 0], [0, 1, 0], [0, 0, -1]]]
  movej(p[0.840907,0.004199,-0.046681,0,3.141593,0], a=0.523599, v=0.436332, r=0.005)  # [Transform: move to [840.907, 4.199, -46.681] mm and rotate to [[-1, 0, 0], [0, 1, 0], [0, 0, -1]]]
  movej(p[0.840907,0.004199,-0.061681,0,3.141593,0], a=0.523599, v=0.436332, r=0.005)  # [Transform: move to [840.907, 4.199, -61.681] mm and rotate to [[-1, 0, 0], [0, 1, 0], [0, 0, -1]]]
  movej(p[0.840802,0.000965,-0.046495,0,3.141593,0], a=0.523599, v=0.436332, r=0.005)  # [Transform: move to [840.802, 0.965, -46.495] mm and rotate to [[-1, 0, 0], [0, 1, 0], [0, 0, -1]]]
  movej(p[0.840802,0.000965,-0.061495,0,3.141593,0], a=0.523599, v=0.436332, r=0.005)  # [Transform: move to [840.802, 0.965, -61.495] mm and rotate to [[-1, 0, 0], [0, 1, 0], [0, 0, -1]]]
  movej(p[0.843558,-0.003241,-0.045432,0,3.141593,0], a=0.523599, v=0.436332, r=0.005)  # [Transform: move to [843.558, -3.241, -45.432] mm and rotate to [[-1, 0, 0], [0, 1, 0], [0, 0, -1]]]
  movej(p[0.843558,-0.003241,-0.060432,0,3.141593,0], a=0.523599, v=0.436332, r=0.005)  # [Transform: move to [843.558, -3.241, -60.432] mm and rotate to [[-1, 0, 0], [0, 1, 0], [0, 0, -1]]]
  movej(p[0.845758,-0.000706,-0.046291,0,3.141593,0], a=0.523599, v=0.436332, r=0.005)  # [Transform: move to [845.758, -0.706, -46.291] mm and rotate to [[-1, 0, 0], [0, 1, 0], [0, 0, -1]]]
  movej(p[0.845758,-0.000706,-0.061291,0,3.141593,0], a=0.523599, v=0.436332, r=0.005)  # [Transform: move to [845.758, -0.706, -61.291] mm and rotate to [[-1, 0, 0], [0, 1, 0], [0, 0, -1]]]
  movej(p[0.846163,-0.007374,-0.045408,0,3.141593,0], a=0.523599, v=0.436332, r=0.005)  # [Transform: move to [846.163, -7.374, -45.408] mm and rotate to [[-1, 0, 0], [0, 1, 0], [0, 0, -1]]]
  movej(p[0.846163,-0.007374,-0.060408,0,3.141593,0], a=0.523599, v=0.436332, r=0.005)  # [Transform: move to [846.163, -7.374, -60.408] mm and rotate to [[-1, 0, 0], [0, 1, 0], [0, 0, -1]]]
  movej(p[0.84389,-0.00738,-0.046582,0,3.141593,0], a=0.523599, v=0.436332, r=0.005)  # [Transform: move to [843.89, -7.38, -46.582] mm and rotate to [[-1, 0, 0], [0, 1, 0], [0, 0, -1]]]
  movej(p[0.84389,-0.00738,-0.061582,0,3.141593,0], a=0.523599, v=0.436332, r=0.005)  # [Transform: move to [843.89, -7.38, -61.582] mm and rotate to [[-1, 0, 0], [0, 1, 0], [0, 0, -1]]]
  movej(p[0.841166,-0.008927,-0.044188,0,3.141593,0], a=0.523599, v=0.436332, r=0.005)  # [Transform: move to [841.166, -8.927, -44.188] mm and rotate to [[-1, 0, 0], [0, 1, 0], [0, 0, -1]]]
  movej(p[0.841166,-0.008927,-0.059188,0,3.141593,0], a=0.523599, v=0.436332, r=0.005)  # [Transform: move to [841.166, -8.927, -59.188] mm and rotate to [[-1, 0, 0], [0, 1, 0], [0, 0, -1]]]
  movej(p[0.85634,-0.018657,-0.04505,0,3.141593,0], a=0.523599, v=0.436332, r=0.005)  # [Transform: move to [856.34, -18.657, -45.05] mm and rotate to [[-1, 0, 0], [0, 1, 0], [0, 0, -1]]]
  movej(p[0.85634,-0.018657,-0.06005,0,3.141593,0], a=0.523599, v=0.436332, r=0.005)  # [Transform: move to [856.34, -18.657, -60.05] mm and rotate to [[-1, 0, 0], [0, 1, 0], [0, 0, -1]]]
  movej(p[0.847817,-0.044044,-0.045461,0,3.141593,0], a=0.523599, v=0.436332, r=0.005)  # [Transform: move to [847.817, -44.044, -45.461] mm and rotate to [[-1, 0, 0], [0, 1, 0], [0, 0, -1]]]
  movej(p[0.847817,-0.044044,-0.060461,0,3.141593,0], a=0.523599, v=0.436332, r=0.005)  # [Transform: move to [847.817, -44.044, -60.461] mm and rotate to [[-1, 0, 0], [0, 1, 0], [0, 0, -1]]]
  movej(p[0.858999,-0.064011,-0.044089,0,3.141593,0], a=0.523599, v=0.436332, r=0.005)  # [Transform: move to [858.999, -64.011, -44.089] mm and rotate to [[-1, 0, 0], [0, 1, 0], [0, 0, -1]]]
  movej(p[0.858999,-0.064011,-0.059089,0,3.141593,0], a=0.523599, v=0.436332, r=0.005)  # [Transform: move to [858.999, -64.011, -59.089] mm and rotate to [[-1, 0, 0], [0, 1, 0], [0, 0, -1]]]
  movej(p[0.860015,-0.06629,-0.044917,0,3.141593,0], a=0.523599, v=0.436332, r=0.005)  # [Transform: move to [860.015, -66.29, -44.917] mm and rotate to [[-1, 0, 0], [0, 1, 0], [0, 0, -1]]]
  movej(p[0.860015,-0.06629,-0.059917,0,3.141593,0], a=0.523599, v=0.436332, r=0.005)  # [Transform: move to [860.015, -66.29, -59.917] mm and rotate to [[-1, 0, 0], [0, 1, 0], [0, 0, -1]]]
  movej(p[0.863518,-0.074029,-0.045787,0,3.141593,0], a=0.523599, v=0.436332, r=0.005)  # [Transform: move to [863.518, -74.029, -45.787] mm and rotate to [[-1, 0, 0], [0, 1, 0], [0, 0, -1]]]
  movej(p[0.863518,-0.074029,-0.060787,0,3.141593,0], a=0.523599, v=0.436332, r=0.005)  # [Transform: move to [863.518, -74.029, -60.787] mm and rotate to [[-1, 0, 0], [0, 1, 0], [0, 0, -1]]]
  movej(p[0.865303,-0.074618,-0.046224,0,3.141593,0], a=0.523599, v=0.436332, r=0.005)  # [Transform: move to [865.303, -74.618, -46.224] mm and rotate to [[-1, 0, 0], [0, 1, 0], [0, 0, -1]]]
  movej(p[0.865303,-0.074618,-0.061224,0,3.141593,0], a=0.523599, v=0.436332, r=0.005)  # [Transform: move to [865.303, -74.618, -61.224] mm and rotate to [[-1, 0, 0], [0, 1, 0], [0, 0, -1]]]
  movej(p[0.862729,-0.078304,-0.0453,0,3.141593,0], a=0.523599, v=0.436332, r=0.005)  # [Transform: move to [862.729, -78.304, -45.3] mm and rotate to [[-1, 0, 0], [0, 1, 0], [0, 0, -1]]]
  movej(p[0.862729,-0.078304,-0.0603,0,3.141593,0], a=0.523599, v=0.436332, r=0.005)  # [Transform: move to [862.729, -78.304, -60.3] mm and rotate to [[-1, 0, 0], [0, 1, 0], [0, 0, -1]]]
  movej(p[0.863587,-0.080237,-0.045694,0,3.141593,0], a=0.523599, v=0.436332, r=0.005)  # [Transform: move to [863.587, -80.237, -45.694] mm and rotate to [[-1, 0, 0], [0, 1, 0], [0, 0, -1]]]
  movej(p[0.863587,-0.080237,-0.060694,0,3.141593,0], a=0.523599, v=0.436332, r=0.005)  # [Transform: move to [863.587, -80.237, -60.694] mm and rotate to [[-1, 0, 0], [0, 1, 0], [0, 0, -1]]]
  movej(p[0.862485,-0.084529,-0.044314,0,3.141593,0], a=0.523599, v=0.436332, r=0.005)  # [Transform: move to [862.485, -84.529, -44.314] mm and rotate to [[-1, 0, 0], [0, 1, 0], [0, 0, -1]]]
  movej(p[0.862485,-0.084529,-0.059314,0,3.141593,0], a=0.523599, v=0.436332, r=0.005)  # [Transform: move to [862.485, -84.529, -59.314] mm and rotate to [[-1, 0, 0], [0, 1, 0], [0, 0, -1]]]
  movej(p[0.864202,-0.090484,-0.045903,0,3.141593,0], a=0.523599, v=0.436332, r=0.005)  # [Transform: move to [864.202, -90.484, -45.903] mm and rotate to [[-1, 0, 0], [0, 1, 0], [0, 0, -1]]]
  movej(p[0.864202,-0.090484,-0.060903,0,3.141593,0], a=0.523599, v=0.436332, r=0.005)  # [Transform: move to [864.202, -90.484, -60.903] mm and rotate to [[-1, 0, 0], [0, 1, 0], [0, 0, -1]]]
  movej(p[0.861766,-0.094999,-0.046981,0,3.141593,0], a=0.523599, v=0.436332, r=0.005)  # [Transform: move to [861.766, -94.999, -46.981] mm and rotate to [[-1, 0, 0], [0, 1, 0], [0, 0, -1]]]
  movej(p[0.861766,-0.094999,-0.061981,0,3.141593,0], a=0.523599, v=0.436332, r=0.005)  # [Transform: move to [861.766, -94.999, -61.981] mm and rotate to [[-1, 0, 0], [0, 1, 0], [0, 0, -1]]]
  movej(p[0.859518,-0.095879,-0.044938,0,3.141593,0], a=0.523599, v=0.436332, r=0.005)  # [Transform: move to [859.518, -95.879, -44.938] mm and rotate to [[-1, 0, 0], [0, 1, 0], [0, 0, -1]]]
  movej(p[0.859518,-0.095879,-0.059938,0,3.141593,0], a=0.523599, v=0.436332, r=0.005)  # [Transform: move to [859.518, -95.879, -59.938] mm and rotate to [[-1, 0, 0], [0, 1, 0], [0, 0, -1]]]
