## ###\   ###\ #####\  ######\##\  ##\##\###\   ##\ #####\ 
## ####\ ####\##\\\##\##\\\\\\##\  ##\##\####\  ##\##\\\##\
## ##\####\##\#######\##\     #######\##\##\##\ ##\#######\
## ##\\##\\##\##\\\##\##\     ##\\\##\##\##\\##\##\##\\\##\
## ##\ \\\ ##\##\  ##\\######\##\  ##\##\##\ \####\##\  ##\
## \\\     \\\\\\  \\\ \\\\\\\\\\  \\\\\\\\\  \\\\\\\\  \\\
## 
## Program name: slime_mold
## Created: 01/03/2021 16:01:08
## 
## DISCLAIMER: WORKING WITH ROBOTS CAN BE DANGEROUS!
## When using robots in a real-time interactive environment, please make sure:
##     - You have been adequately trained to use that particular machine,
##     - you are in good physical and mental condition,
##     - you are operating the robot under the utmost security measures,
##     - you are following the facility's and facility staff's security protocols,
##     - and the robot has the appropriate guarding in place, including, but not reduced to:
##         e -stops, physical barriers, light curtains, etc.
## The Machina software framework and its generated code is provided as is;
## use at your own risk. This product is not intended for any use that may
## involve potential risks of death (including lifesaving equipment),
## personal injury, or severe property or environmental damage.
## Machina is in a very early stage of development. You are using this software
## at your own risk, no warranties are provided herewith, and unexpected
## results / bugs may arise during its use. Always test and simulate your
## applications thoroughly before running them on a real device.
## The author/s shall not be liable for any injuries, damages or losses
## consequence of using this software in any way whatsoever.
## 
## 
## Copyright(c) 2021 Jose Luis Garcia del Castillo y Lopez
## https://github.com/RobotExMachina
## 
## MIT License
## 
## Permission is hereby granted, free of charge, to any person obtaining a copy
## of this software and associated documentation files(the "Software"), to deal
## in the Software without restriction, including without limitation the rights
## to use, copy, modify, merge, publish, distribute, sublicense, and / or sell
## copies of the Software, and to permit persons to whom the Software is
## furnished to do so, subject to the following conditions:
## 
## The above copyright notice and this permission notice shall be included in all
## copies or substantial portions of the Software.
## 
## THE SOFTWARE IS PROVIDED "AS IS", WITHOUT WARRANTY OF ANY KIND, EXPRESS OR
## IMPLIED, INCLUDING BUT NOT LIMITED TO THE WARRANTIES OF MERCHANTABILITY,
## FITNESS FOR A PARTICULAR PURPOSE AND NONINFRINGEMENT. IN NO EVENT SHALL THE
## AUTHORS OR COPYRIGHT HOLDERS BE LIABLE FOR ANY CLAIM, DAMAGES OR OTHER
## LIABILITY, WHETHER IN AN ACTION OF CONTRACT, TORT OR OTHERWISE, ARISING FROM,
## OUT OF OR IN CONNECTION WITH THE SOFTWARE OR THE USE OR OTHER DEALINGS IN THE
## SOFTWARE.


def slime_mold():

  movej([0,-1.570796,-1.570796,-1.570796,1.570796,0], a=0.523599, v=0.349066, r=0.005)  # [Set joint rotations to [0, -90, -90, -90, 90, 0] deg]
  # [Set motion type to 'Joint']
  # [Set motion speed to 25 mm/s or deg/s]
  movej(p[0.717424,-0.131589,-0.037687,0,3.141593,0], a=0.523599, v=0.436332, r=0.005)  # [Transform: move to [717.424, -131.589, -37.687] mm and rotate to [[-1, 0, 0], [0, 1, 0], [0, 0, -1]]]
  movej(p[0.717424,-0.131589,-0.057687,0,3.141593,0], a=0.523599, v=0.436332, r=0.005)  # [Transform: move to [717.424, -131.589, -57.687] mm and rotate to [[-1, 0, 0], [0, 1, 0], [0, 0, -1]]]
  movej(p[0.707852,-0.126946,-0.038788,0,3.141593,0], a=0.523599, v=0.436332, r=0.005)  # [Transform: move to [707.852, -126.946, -38.788] mm and rotate to [[-1, 0, 0], [0, 1, 0], [0, 0, -1]]]
  movej(p[0.707852,-0.126946,-0.058788,0,3.141593,0], a=0.523599, v=0.436332, r=0.005)  # [Transform: move to [707.852, -126.946, -58.788] mm and rotate to [[-1, 0, 0], [0, 1, 0], [0, 0, -1]]]
  movej(p[0.701222,-0.128017,-0.039502,0,3.141593,0], a=0.523599, v=0.436332, r=0.005)  # [Transform: move to [701.222, -128.017, -39.502] mm and rotate to [[-1, 0, 0], [0, 1, 0], [0, 0, -1]]]
  movej(p[0.701222,-0.128017,-0.059502,0,3.141593,0], a=0.523599, v=0.436332, r=0.005)  # [Transform: move to [701.222, -128.017, -59.502] mm and rotate to [[-1, 0, 0], [0, 1, 0], [0, 0, -1]]]
  movej(p[0.694712,-0.124413,-0.037045,0,3.141593,0], a=0.523599, v=0.436332, r=0.005)  # [Transform: move to [694.712, -124.413, -37.045] mm and rotate to [[-1, 0, 0], [0, 1, 0], [0, 0, -1]]]
  movej(p[0.694712,-0.124413,-0.057045,0,3.141593,0], a=0.523599, v=0.436332, r=0.005)  # [Transform: move to [694.712, -124.413, -57.045] mm and rotate to [[-1, 0, 0], [0, 1, 0], [0, 0, -1]]]
  movej(p[0.686718,-0.122835,-0.039673,0,3.141593,0], a=0.523599, v=0.436332, r=0.005)  # [Transform: move to [686.718, -122.835, -39.673] mm and rotate to [[-1, 0, 0], [0, 1, 0], [0, 0, -1]]]
  movej(p[0.686718,-0.122835,-0.059673,0,3.141593,0], a=0.523599, v=0.436332, r=0.005)  # [Transform: move to [686.718, -122.835, -59.673] mm and rotate to [[-1, 0, 0], [0, 1, 0], [0, 0, -1]]]
  movej(p[0.674554,-0.12534,-0.03908,0,3.141593,0], a=0.523599, v=0.436332, r=0.005)  # [Transform: move to [674.554, -125.34, -39.08] mm and rotate to [[-1, 0, 0], [0, 1, 0], [0, 0, -1]]]
  movej(p[0.674554,-0.12534,-0.05908,0,3.141593,0], a=0.523599, v=0.436332, r=0.005)  # [Transform: move to [674.554, -125.34, -59.08] mm and rotate to [[-1, 0, 0], [0, 1, 0], [0, 0, -1]]]
  movej(p[0.666099,-0.131329,-0.037594,0,3.141593,0], a=0.523599, v=0.436332, r=0.005)  # [Transform: move to [666.099, -131.329, -37.594] mm and rotate to [[-1, 0, 0], [0, 1, 0], [0, 0, -1]]]
  movej(p[0.666099,-0.131329,-0.057594,0,3.141593,0], a=0.523599, v=0.436332, r=0.005)  # [Transform: move to [666.099, -131.329, -57.594] mm and rotate to [[-1, 0, 0], [0, 1, 0], [0, 0, -1]]]
  movej(p[0.657351,-0.135401,-0.038663,0,3.141593,0], a=0.523599, v=0.436332, r=0.005)  # [Transform: move to [657.351, -135.401, -38.663] mm and rotate to [[-1, 0, 0], [0, 1, 0], [0, 0, -1]]]
  movej(p[0.657351,-0.135401,-0.058663,0,3.141593,0], a=0.523599, v=0.436332, r=0.005)  # [Transform: move to [657.351, -135.401, -58.663] mm and rotate to [[-1, 0, 0], [0, 1, 0], [0, 0, -1]]]
  movej(p[0.649949,-0.135827,-0.039325,0,3.141593,0], a=0.523599, v=0.436332, r=0.005)  # [Transform: move to [649.949, -135.827, -39.325] mm and rotate to [[-1, 0, 0], [0, 1, 0], [0, 0, -1]]]
  movej(p[0.649949,-0.135827,-0.059325,0,3.141593,0], a=0.523599, v=0.436332, r=0.005)  # [Transform: move to [649.949, -135.827, -59.325] mm and rotate to [[-1, 0, 0], [0, 1, 0], [0, 0, -1]]]
  movej(p[0.642546,-0.131604,-0.039966,0,3.141593,0], a=0.523599, v=0.436332, r=0.005)  # [Transform: move to [642.546, -131.604, -39.966] mm and rotate to [[-1, 0, 0], [0, 1, 0], [0, 0, -1]]]
  movej(p[0.642546,-0.131604,-0.059966,0,3.141593,0], a=0.523599, v=0.436332, r=0.005)  # [Transform: move to [642.546, -131.604, -59.966] mm and rotate to [[-1, 0, 0], [0, 1, 0], [0, 0, -1]]]
  movej(p[0.635776,-0.123959,-0.037704,0,3.141593,0], a=0.523599, v=0.436332, r=0.005)  # [Transform: move to [635.776, -123.959, -37.704] mm and rotate to [[-1, 0, 0], [0, 1, 0], [0, 0, -1]]]
  movej(p[0.635776,-0.123959,-0.057704,0,3.141593,0], a=0.523599, v=0.436332, r=0.005)  # [Transform: move to [635.776, -123.959, -57.704] mm and rotate to [[-1, 0, 0], [0, 1, 0], [0, 0, -1]]]
  movej(p[0.632901,-0.114651,-0.039914,0,3.141593,0], a=0.523599, v=0.436332, r=0.005)  # [Transform: move to [632.901, -114.651, -39.914] mm and rotate to [[-1, 0, 0], [0, 1, 0], [0, 0, -1]]]
  movej(p[0.632901,-0.114651,-0.059914,0,3.141593,0], a=0.523599, v=0.436332, r=0.005)  # [Transform: move to [632.901, -114.651, -59.914] mm and rotate to [[-1, 0, 0], [0, 1, 0], [0, 0, -1]]]
  movej(p[0.629371,-0.10622,-0.039977,0,3.141593,0], a=0.523599, v=0.436332, r=0.005)  # [Transform: move to [629.371, -106.22, -39.977] mm and rotate to [[-1, 0, 0], [0, 1, 0], [0, 0, -1]]]
  movej(p[0.629371,-0.10622,-0.059977,0,3.141593,0], a=0.523599, v=0.436332, r=0.005)  # [Transform: move to [629.371, -106.22, -59.977] mm and rotate to [[-1, 0, 0], [0, 1, 0], [0, 0, -1]]]
  movej(p[0.624419,-0.099564,-0.03847,0,3.141593,0], a=0.523599, v=0.436332, r=0.005)  # [Transform: move to [624.419, -99.564, -38.47] mm and rotate to [[-1, 0, 0], [0, 1, 0], [0, 0, -1]]]
  movej(p[0.624419,-0.099564,-0.05847,0,3.141593,0], a=0.523599, v=0.436332, r=0.005)  # [Transform: move to [624.419, -99.564, -58.47] mm and rotate to [[-1, 0, 0], [0, 1, 0], [0, 0, -1]]]
  movej(p[0.619065,-0.094283,-0.038854,0,3.141593,0], a=0.523599, v=0.436332, r=0.005)  # [Transform: move to [619.065, -94.283, -38.854] mm and rotate to [[-1, 0, 0], [0, 1, 0], [0, 0, -1]]]
  movej(p[0.619065,-0.094283,-0.058854,0,3.141593,0], a=0.523599, v=0.436332, r=0.005)  # [Transform: move to [619.065, -94.283, -58.854] mm and rotate to [[-1, 0, 0], [0, 1, 0], [0, 0, -1]]]
  movej(p[0.615981,-0.085058,-0.039162,0,3.141593,0], a=0.523599, v=0.436332, r=0.005)  # [Transform: move to [615.981, -85.058, -39.162] mm and rotate to [[-1, 0, 0], [0, 1, 0], [0, 0, -1]]]
  movej(p[0.615981,-0.085058,-0.059162,0,3.141593,0], a=0.523599, v=0.436332, r=0.005)  # [Transform: move to [615.981, -85.058, -59.162] mm and rotate to [[-1, 0, 0], [0, 1, 0], [0, 0, -1]]]
  movej(p[0.613147,-0.079739,-0.037891,0,3.141593,0], a=0.523599, v=0.436332, r=0.005)  # [Transform: move to [613.147, -79.739, -37.891] mm and rotate to [[-1, 0, 0], [0, 1, 0], [0, 0, -1]]]
  movej(p[0.613147,-0.079739,-0.057891,0,3.141593,0], a=0.523599, v=0.436332, r=0.005)  # [Transform: move to [613.147, -79.739, -57.891] mm and rotate to [[-1, 0, 0], [0, 1, 0], [0, 0, -1]]]
  movej(p[0.601016,-0.082304,-0.039294,0,3.141593,0], a=0.523599, v=0.436332, r=0.005)  # [Transform: move to [601.016, -82.304, -39.294] mm and rotate to [[-1, 0, 0], [0, 1, 0], [0, 0, -1]]]
  movej(p[0.601016,-0.082304,-0.059294,0,3.141593,0], a=0.523599, v=0.436332, r=0.005)  # [Transform: move to [601.016, -82.304, -59.294] mm and rotate to [[-1, 0, 0], [0, 1, 0], [0, 0, -1]]]
  movej(p[0.600684,-0.075709,-0.037806,0,3.141593,0], a=0.523599, v=0.436332, r=0.005)  # [Transform: move to [600.684, -75.709, -37.806] mm and rotate to [[-1, 0, 0], [0, 1, 0], [0, 0, -1]]]
  movej(p[0.600684,-0.075709,-0.057806,0,3.141593,0], a=0.523599, v=0.436332, r=0.005)  # [Transform: move to [600.684, -75.709, -57.806] mm and rotate to [[-1, 0, 0], [0, 1, 0], [0, 0, -1]]]
  movej(p[0.604317,-0.069029,-0.039733,0,3.141593,0], a=0.523599, v=0.436332, r=0.005)  # [Transform: move to [604.317, -69.029, -39.733] mm and rotate to [[-1, 0, 0], [0, 1, 0], [0, 0, -1]]]
  movej(p[0.604317,-0.069029,-0.059733,0,3.141593,0], a=0.523599, v=0.436332, r=0.005)  # [Transform: move to [604.317, -69.029, -59.733] mm and rotate to [[-1, 0, 0], [0, 1, 0], [0, 0, -1]]]
  movej(p[0.610454,-0.059168,-0.039752,0,3.141593,0], a=0.523599, v=0.436332, r=0.005)  # [Transform: move to [610.454, -59.168, -39.752] mm and rotate to [[-1, 0, 0], [0, 1, 0], [0, 0, -1]]]
  movej(p[0.610454,-0.059168,-0.059752,0,3.141593,0], a=0.523599, v=0.436332, r=0.005)  # [Transform: move to [610.454, -59.168, -59.752] mm and rotate to [[-1, 0, 0], [0, 1, 0], [0, 0, -1]]]
  movej(p[0.614716,-0.050552,-0.038984,0,3.141593,0], a=0.523599, v=0.436332, r=0.005)  # [Transform: move to [614.716, -50.552, -38.984] mm and rotate to [[-1, 0, 0], [0, 1, 0], [0, 0, -1]]]
  movej(p[0.614716,-0.050552,-0.058984,0,3.141593,0], a=0.523599, v=0.436332, r=0.005)  # [Transform: move to [614.716, -50.552, -58.984] mm and rotate to [[-1, 0, 0], [0, 1, 0], [0, 0, -1]]]
  movej(p[0.607615,-0.04024,-0.03901,0,3.141593,0], a=0.523599, v=0.436332, r=0.005)  # [Transform: move to [607.615, -40.24, -39.01] mm and rotate to [[-1, 0, 0], [0, 1, 0], [0, 0, -1]]]
  movej(p[0.607615,-0.04024,-0.05901,0,3.141593,0], a=0.523599, v=0.436332, r=0.005)  # [Transform: move to [607.615, -40.24, -59.01] mm and rotate to [[-1, 0, 0], [0, 1, 0], [0, 0, -1]]]
  movej(p[0.602582,-0.02832,-0.037806,0,3.141593,0], a=0.523599, v=0.436332, r=0.005)  # [Transform: move to [602.582, -28.32, -37.806] mm and rotate to [[-1, 0, 0], [0, 1, 0], [0, 0, -1]]]
  movej(p[0.602582,-0.02832,-0.057806,0,3.141593,0], a=0.523599, v=0.436332, r=0.005)  # [Transform: move to [602.582, -28.32, -57.806] mm and rotate to [[-1, 0, 0], [0, 1, 0], [0, 0, -1]]]
  movej(p[0.599118,-0.018094,-0.037312,0,3.141593,0], a=0.523599, v=0.436332, r=0.005)  # [Transform: move to [599.118, -18.094, -37.312] mm and rotate to [[-1, 0, 0], [0, 1, 0], [0, 0, -1]]]
  movej(p[0.599118,-0.018094,-0.057312,0,3.141593,0], a=0.523599, v=0.436332, r=0.005)  # [Transform: move to [599.118, -18.094, -57.312] mm and rotate to [[-1, 0, 0], [0, 1, 0], [0, 0, -1]]]
  movej(p[0.590577,-0.012329,-0.037562,0,3.141593,0], a=0.523599, v=0.436332, r=0.005)  # [Transform: move to [590.577, -12.329, -37.562] mm and rotate to [[-1, 0, 0], [0, 1, 0], [0, 0, -1]]]
  movej(p[0.590577,-0.012329,-0.057562,0,3.141593,0], a=0.523599, v=0.436332, r=0.005)  # [Transform: move to [590.577, -12.329, -57.562] mm and rotate to [[-1, 0, 0], [0, 1, 0], [0, 0, -1]]]
  movej(p[0.596125,-0.006862,-0.038039,0,3.141593,0], a=0.523599, v=0.436332, r=0.005)  # [Transform: move to [596.125, -6.862, -38.039] mm and rotate to [[-1, 0, 0], [0, 1, 0], [0, 0, -1]]]
  movej(p[0.596125,-0.006862,-0.058039,0,3.141593,0], a=0.523599, v=0.436332, r=0.005)  # [Transform: move to [596.125, -6.862, -58.039] mm and rotate to [[-1, 0, 0], [0, 1, 0], [0, 0, -1]]]
  movej(p[0.620329,0.021089,-0.037219,0,3.141593,0], a=0.523599, v=0.436332, r=0.005)  # [Transform: move to [620.329, 21.089, -37.219] mm and rotate to [[-1, 0, 0], [0, 1, 0], [0, 0, -1]]]
  movej(p[0.620329,0.021089,-0.057219,0,3.141593,0], a=0.523599, v=0.436332, r=0.005)  # [Transform: move to [620.329, 21.089, -57.219] mm and rotate to [[-1, 0, 0], [0, 1, 0], [0, 0, -1]]]
  movej(p[0.626765,0.014926,-0.039702,0,3.141593,0], a=0.523599, v=0.436332, r=0.005)  # [Transform: move to [626.765, 14.926, -39.702] mm and rotate to [[-1, 0, 0], [0, 1, 0], [0, 0, -1]]]
  movej(p[0.626765,0.014926,-0.059702,0,3.141593,0], a=0.523599, v=0.436332, r=0.005)  # [Transform: move to [626.765, 14.926, -59.702] mm and rotate to [[-1, 0, 0], [0, 1, 0], [0, 0, -1]]]
  movej(p[0.631641,0.008793,-0.037925,0,3.141593,0], a=0.523599, v=0.436332, r=0.005)  # [Transform: move to [631.641, 8.793, -37.925] mm and rotate to [[-1, 0, 0], [0, 1, 0], [0, 0, -1]]]
  movej(p[0.631641,0.008793,-0.057925,0,3.141593,0], a=0.523599, v=0.436332, r=0.005)  # [Transform: move to [631.641, 8.793, -57.925] mm and rotate to [[-1, 0, 0], [0, 1, 0], [0, 0, -1]]]
  movej(p[0.643449,0.006179,-0.037224,0,3.141593,0], a=0.523599, v=0.436332, r=0.005)  # [Transform: move to [643.449, 6.179, -37.224] mm and rotate to [[-1, 0, 0], [0, 1, 0], [0, 0, -1]]]
  movej(p[0.643449,0.006179,-0.057224,0,3.141593,0], a=0.523599, v=0.436332, r=0.005)  # [Transform: move to [643.449, 6.179, -57.224] mm and rotate to [[-1, 0, 0], [0, 1, 0], [0, 0, -1]]]
  movej(p[0.64752,0.000968,-0.03706,0,3.141593,0], a=0.523599, v=0.436332, r=0.005)  # [Transform: move to [647.52, 0.968, -37.06] mm and rotate to [[-1, 0, 0], [0, 1, 0], [0, 0, -1]]]
  movej(p[0.64752,0.000968,-0.05706,0,3.141593,0], a=0.523599, v=0.436332, r=0.005)  # [Transform: move to [647.52, 0.968, -57.06] mm and rotate to [[-1, 0, 0], [0, 1, 0], [0, 0, -1]]]
  movej(p[0.640022,-0.001008,-0.039696,0,3.141593,0], a=0.523599, v=0.436332, r=0.005)  # [Transform: move to [640.022, -1.008, -39.696] mm and rotate to [[-1, 0, 0], [0, 1, 0], [0, 0, -1]]]
  movej(p[0.640022,-0.001008,-0.059696,0,3.141593,0], a=0.523599, v=0.436332, r=0.005)  # [Transform: move to [640.022, -1.008, -59.696] mm and rotate to [[-1, 0, 0], [0, 1, 0], [0, 0, -1]]]
  movej(p[0.646112,-0.01086,-0.039884,0,3.141593,0], a=0.523599, v=0.436332, r=0.005)  # [Transform: move to [646.112, -10.86, -39.884] mm and rotate to [[-1, 0, 0], [0, 1, 0], [0, 0, -1]]]
  movej(p[0.646112,-0.01086,-0.059884,0,3.141593,0], a=0.523599, v=0.436332, r=0.005)  # [Transform: move to [646.112, -10.86, -59.884] mm and rotate to [[-1, 0, 0], [0, 1, 0], [0, 0, -1]]]
  movej(p[0.649849,-0.020586,-0.038977,0,3.141593,0], a=0.523599, v=0.436332, r=0.005)  # [Transform: move to [649.849, -20.586, -38.977] mm and rotate to [[-1, 0, 0], [0, 1, 0], [0, 0, -1]]]
  movej(p[0.649849,-0.020586,-0.058977,0,3.141593,0], a=0.523599, v=0.436332, r=0.005)  # [Transform: move to [649.849, -20.586, -58.977] mm and rotate to [[-1, 0, 0], [0, 1, 0], [0, 0, -1]]]
  movej(p[0.653898,-0.02918,-0.037451,0,3.141593,0], a=0.523599, v=0.436332, r=0.005)  # [Transform: move to [653.898, -29.18, -37.451] mm and rotate to [[-1, 0, 0], [0, 1, 0], [0, 0, -1]]]
  movej(p[0.653898,-0.02918,-0.057451,0,3.141593,0], a=0.523599, v=0.436332, r=0.005)  # [Transform: move to [653.898, -29.18, -57.451] mm and rotate to [[-1, 0, 0], [0, 1, 0], [0, 0, -1]]]
  movej(p[0.653829,-0.035419,-0.037939,0,3.141593,0], a=0.523599, v=0.436332, r=0.005)  # [Transform: move to [653.829, -35.419, -37.939] mm and rotate to [[-1, 0, 0], [0, 1, 0], [0, 0, -1]]]
  movej(p[0.653829,-0.035419,-0.057939,0,3.141593,0], a=0.523599, v=0.436332, r=0.005)  # [Transform: move to [653.829, -35.419, -57.939] mm and rotate to [[-1, 0, 0], [0, 1, 0], [0, 0, -1]]]
  movej(p[0.661089,-0.042782,-0.037768,0,3.141593,0], a=0.523599, v=0.436332, r=0.005)  # [Transform: move to [661.089, -42.782, -37.768] mm and rotate to [[-1, 0, 0], [0, 1, 0], [0, 0, -1]]]
  movej(p[0.661089,-0.042782,-0.057768,0,3.141593,0], a=0.523599, v=0.436332, r=0.005)  # [Transform: move to [661.089, -42.782, -57.768] mm and rotate to [[-1, 0, 0], [0, 1, 0], [0, 0, -1]]]
  movej(p[0.667394,-0.044715,-0.037943,0,3.141593,0], a=0.523599, v=0.436332, r=0.005)  # [Transform: move to [667.394, -44.715, -37.943] mm and rotate to [[-1, 0, 0], [0, 1, 0], [0, 0, -1]]]
  movej(p[0.667394,-0.044715,-0.057943,0,3.141593,0], a=0.523599, v=0.436332, r=0.005)  # [Transform: move to [667.394, -44.715, -57.943] mm and rotate to [[-1, 0, 0], [0, 1, 0], [0, 0, -1]]]
  movej(p[0.672466,-0.040997,-0.039721,0,3.141593,0], a=0.523599, v=0.436332, r=0.005)  # [Transform: move to [672.466, -40.997, -39.721] mm and rotate to [[-1, 0, 0], [0, 1, 0], [0, 0, -1]]]
  movej(p[0.672466,-0.040997,-0.059721,0,3.141593,0], a=0.523599, v=0.436332, r=0.005)  # [Transform: move to [672.466, -40.997, -59.721] mm and rotate to [[-1, 0, 0], [0, 1, 0], [0, 0, -1]]]
  movej(p[0.681296,-0.039581,-0.039878,0,3.141593,0], a=0.523599, v=0.436332, r=0.005)  # [Transform: move to [681.296, -39.581, -39.878] mm and rotate to [[-1, 0, 0], [0, 1, 0], [0, 0, -1]]]
  movej(p[0.681296,-0.039581,-0.059878,0,3.141593,0], a=0.523599, v=0.436332, r=0.005)  # [Transform: move to [681.296, -39.581, -59.878] mm and rotate to [[-1, 0, 0], [0, 1, 0], [0, 0, -1]]]
  movej(p[0.690201,-0.030978,-0.039185,0,3.141593,0], a=0.523599, v=0.436332, r=0.005)  # [Transform: move to [690.201, -30.978, -39.185] mm and rotate to [[-1, 0, 0], [0, 1, 0], [0, 0, -1]]]
  movej(p[0.690201,-0.030978,-0.059185,0,3.141593,0], a=0.523599, v=0.436332, r=0.005)  # [Transform: move to [690.201, -30.978, -59.185] mm and rotate to [[-1, 0, 0], [0, 1, 0], [0, 0, -1]]]
  movej(p[0.694782,-0.022143,-0.03921,0,3.141593,0], a=0.523599, v=0.436332, r=0.005)  # [Transform: move to [694.782, -22.143, -39.21] mm and rotate to [[-1, 0, 0], [0, 1, 0], [0, 0, -1]]]
  movej(p[0.694782,-0.022143,-0.05921,0,3.141593,0], a=0.523599, v=0.436332, r=0.005)  # [Transform: move to [694.782, -22.143, -59.21] mm and rotate to [[-1, 0, 0], [0, 1, 0], [0, 0, -1]]]
  movej(p[0.69219,-0.012605,-0.038501,0,3.141593,0], a=0.523599, v=0.436332, r=0.005)  # [Transform: move to [692.19, -12.605, -38.501] mm and rotate to [[-1, 0, 0], [0, 1, 0], [0, 0, -1]]]
  movej(p[0.69219,-0.012605,-0.058501,0,3.141593,0], a=0.523599, v=0.436332, r=0.005)  # [Transform: move to [692.19, -12.605, -58.501] mm and rotate to [[-1, 0, 0], [0, 1, 0], [0, 0, -1]]]
  movej(p[0.688169,-0.003196,-0.037115,0,3.141593,0], a=0.523599, v=0.436332, r=0.005)  # [Transform: move to [688.169, -3.196, -37.115] mm and rotate to [[-1, 0, 0], [0, 1, 0], [0, 0, -1]]]
  movej(p[0.688169,-0.003196,-0.057115,0,3.141593,0], a=0.523599, v=0.436332, r=0.005)  # [Transform: move to [688.169, -3.196, -57.115] mm and rotate to [[-1, 0, 0], [0, 1, 0], [0, 0, -1]]]
  movej(p[0.679317,0.005359,-0.038332,0,3.141593,0], a=0.523599, v=0.436332, r=0.005)  # [Transform: move to [679.317, 5.359, -38.332] mm and rotate to [[-1, 0, 0], [0, 1, 0], [0, 0, -1]]]
  movej(p[0.679317,0.005359,-0.058332,0,3.141593,0], a=0.523599, v=0.436332, r=0.005)  # [Transform: move to [679.317, 5.359, -58.332] mm and rotate to [[-1, 0, 0], [0, 1, 0], [0, 0, -1]]]
  movej(p[0.673147,0.014931,-0.039947,0,3.141593,0], a=0.523599, v=0.436332, r=0.005)  # [Transform: move to [673.147, 14.931, -39.947] mm and rotate to [[-1, 0, 0], [0, 1, 0], [0, 0, -1]]]
  movej(p[0.673147,0.014931,-0.059947,0,3.141593,0], a=0.523599, v=0.436332, r=0.005)  # [Transform: move to [673.147, 14.931, -59.947] mm and rotate to [[-1, 0, 0], [0, 1, 0], [0, 0, -1]]]
  movej(p[0.671486,0.0218,-0.038534,0,3.141593,0], a=0.523599, v=0.436332, r=0.005)  # [Transform: move to [671.486, 21.8, -38.534] mm and rotate to [[-1, 0, 0], [0, 1, 0], [0, 0, -1]]]
  movej(p[0.671486,0.0218,-0.058534,0,3.141593,0], a=0.523599, v=0.436332, r=0.005)  # [Transform: move to [671.486, 21.8, -58.534] mm and rotate to [[-1, 0, 0], [0, 1, 0], [0, 0, -1]]]
  movej(p[0.669724,0.029198,-0.038973,0,3.141593,0], a=0.523599, v=0.436332, r=0.005)  # [Transform: move to [669.724, 29.198, -38.973] mm and rotate to [[-1, 0, 0], [0, 1, 0], [0, 0, -1]]]
  movej(p[0.669724,0.029198,-0.058973,0,3.141593,0], a=0.523599, v=0.436332, r=0.005)  # [Transform: move to [669.724, 29.198, -58.973] mm and rotate to [[-1, 0, 0], [0, 1, 0], [0, 0, -1]]]
  movej(p[0.663621,0.035051,-0.038543,0,3.141593,0], a=0.523599, v=0.436332, r=0.005)  # [Transform: move to [663.621, 35.051, -38.543] mm and rotate to [[-1, 0, 0], [0, 1, 0], [0, 0, -1]]]
  movej(p[0.663621,0.035051,-0.058543,0,3.141593,0], a=0.523599, v=0.436332, r=0.005)  # [Transform: move to [663.621, 35.051, -58.543] mm and rotate to [[-1, 0, 0], [0, 1, 0], [0, 0, -1]]]
  movej(p[0.669178,0.037921,-0.038073,0,3.141593,0], a=0.523599, v=0.436332, r=0.005)  # [Transform: move to [669.178, 37.921, -38.073] mm and rotate to [[-1, 0, 0], [0, 1, 0], [0, 0, -1]]]
  movej(p[0.669178,0.037921,-0.058073,0,3.141593,0], a=0.523599, v=0.436332, r=0.005)  # [Transform: move to [669.178, 37.921, -58.073] mm and rotate to [[-1, 0, 0], [0, 1, 0], [0, 0, -1]]]
  movej(p[0.666257,0.043745,-0.03814,0,3.141593,0], a=0.523599, v=0.436332, r=0.005)  # [Transform: move to [666.257, 43.745, -38.14] mm and rotate to [[-1, 0, 0], [0, 1, 0], [0, 0, -1]]]
  movej(p[0.666257,0.043745,-0.05814,0,3.141593,0], a=0.523599, v=0.436332, r=0.005)  # [Transform: move to [666.257, 43.745, -58.14] mm and rotate to [[-1, 0, 0], [0, 1, 0], [0, 0, -1]]]
  movej(p[0.664338,0.053856,-0.03978,0,3.141593,0], a=0.523599, v=0.436332, r=0.005)  # [Transform: move to [664.338, 53.856, -39.78] mm and rotate to [[-1, 0, 0], [0, 1, 0], [0, 0, -1]]]
  movej(p[0.664338,0.053856,-0.05978,0,3.141593,0], a=0.523599, v=0.436332, r=0.005)  # [Transform: move to [664.338, 53.856, -59.78] mm and rotate to [[-1, 0, 0], [0, 1, 0], [0, 0, -1]]]
  movej(p[0.659164,0.057717,-0.037314,0,3.141593,0], a=0.523599, v=0.436332, r=0.005)  # [Transform: move to [659.164, 57.717, -37.314] mm and rotate to [[-1, 0, 0], [0, 1, 0], [0, 0, -1]]]
  movej(p[0.659164,0.057717,-0.057314,0,3.141593,0], a=0.523599, v=0.436332, r=0.005)  # [Transform: move to [659.164, 57.717, -57.314] mm and rotate to [[-1, 0, 0], [0, 1, 0], [0, 0, -1]]]
  movej(p[0.659367,0.06468,-0.038214,0,3.141593,0], a=0.523599, v=0.436332, r=0.005)  # [Transform: move to [659.367, 64.68, -38.214] mm and rotate to [[-1, 0, 0], [0, 1, 0], [0, 0, -1]]]
  movej(p[0.659367,0.06468,-0.058214,0,3.141593,0], a=0.523599, v=0.436332, r=0.005)  # [Transform: move to [659.367, 64.68, -58.214] mm and rotate to [[-1, 0, 0], [0, 1, 0], [0, 0, -1]]]
  movej(p[0.667647,0.062934,-0.038703,0,3.141593,0], a=0.523599, v=0.436332, r=0.005)  # [Transform: move to [667.647, 62.934, -38.703] mm and rotate to [[-1, 0, 0], [0, 1, 0], [0, 0, -1]]]
  movej(p[0.667647,0.062934,-0.058703,0,3.141593,0], a=0.523599, v=0.436332, r=0.005)  # [Transform: move to [667.647, 62.934, -58.703] mm and rotate to [[-1, 0, 0], [0, 1, 0], [0, 0, -1]]]
  movej(p[0.668299,0.070838,-0.039777,0,3.141593,0], a=0.523599, v=0.436332, r=0.005)  # [Transform: move to [668.299, 70.838, -39.777] mm and rotate to [[-1, 0, 0], [0, 1, 0], [0, 0, -1]]]
  movej(p[0.668299,0.070838,-0.059777,0,3.141593,0], a=0.523599, v=0.436332, r=0.005)  # [Transform: move to [668.299, 70.838, -59.777] mm and rotate to [[-1, 0, 0], [0, 1, 0], [0, 0, -1]]]
  movej(p[0.675978,0.075016,-0.038696,0,3.141593,0], a=0.523599, v=0.436332, r=0.005)  # [Transform: move to [675.978, 75.016, -38.696] mm and rotate to [[-1, 0, 0], [0, 1, 0], [0, 0, -1]]]
  movej(p[0.675978,0.075016,-0.058696,0,3.141593,0], a=0.523599, v=0.436332, r=0.005)  # [Transform: move to [675.978, 75.016, -58.696] mm and rotate to [[-1, 0, 0], [0, 1, 0], [0, 0, -1]]]
  movej(p[0.682319,0.075427,-0.039733,0,3.141593,0], a=0.523599, v=0.436332, r=0.005)  # [Transform: move to [682.319, 75.427, -39.733] mm and rotate to [[-1, 0, 0], [0, 1, 0], [0, 0, -1]]]
  movej(p[0.682319,0.075427,-0.059733,0,3.141593,0], a=0.523599, v=0.436332, r=0.005)  # [Transform: move to [682.319, 75.427, -59.733] mm and rotate to [[-1, 0, 0], [0, 1, 0], [0, 0, -1]]]
  movej(p[0.69201,0.07554,-0.039111,0,3.141593,0], a=0.523599, v=0.436332, r=0.005)  # [Transform: move to [692.01, 75.54, -39.111] mm and rotate to [[-1, 0, 0], [0, 1, 0], [0, 0, -1]]]
  movej(p[0.69201,0.07554,-0.059111,0,3.141593,0], a=0.523599, v=0.436332, r=0.005)  # [Transform: move to [692.01, 75.54, -59.111] mm and rotate to [[-1, 0, 0], [0, 1, 0], [0, 0, -1]]]
  movej(p[0.701567,0.072243,-0.038041,0,3.141593,0], a=0.523599, v=0.436332, r=0.005)  # [Transform: move to [701.567, 72.243, -38.041] mm and rotate to [[-1, 0, 0], [0, 1, 0], [0, 0, -1]]]
  movej(p[0.701567,0.072243,-0.058041,0,3.141593,0], a=0.523599, v=0.436332, r=0.005)  # [Transform: move to [701.567, 72.243, -58.041] mm and rotate to [[-1, 0, 0], [0, 1, 0], [0, 0, -1]]]
  movej(p[0.710763,0.064533,-0.037374,0,3.141593,0], a=0.523599, v=0.436332, r=0.005)  # [Transform: move to [710.763, 64.533, -37.374] mm and rotate to [[-1, 0, 0], [0, 1, 0], [0, 0, -1]]]
  movej(p[0.710763,0.064533,-0.057374,0,3.141593,0], a=0.523599, v=0.436332, r=0.005)  # [Transform: move to [710.763, 64.533, -57.374] mm and rotate to [[-1, 0, 0], [0, 1, 0], [0, 0, -1]]]
  movej(p[0.720349,0.068403,-0.038961,0,3.141593,0], a=0.523599, v=0.436332, r=0.005)  # [Transform: move to [720.349, 68.403, -38.961] mm and rotate to [[-1, 0, 0], [0, 1, 0], [0, 0, -1]]]
  movej(p[0.720349,0.068403,-0.058961,0,3.141593,0], a=0.523599, v=0.436332, r=0.005)  # [Transform: move to [720.349, 68.403, -58.961] mm and rotate to [[-1, 0, 0], [0, 1, 0], [0, 0, -1]]]
  movej(p[0.729725,0.072922,-0.038401,0,3.141593,0], a=0.523599, v=0.436332, r=0.005)  # [Transform: move to [729.725, 72.922, -38.401] mm and rotate to [[-1, 0, 0], [0, 1, 0], [0, 0, -1]]]
  movej(p[0.729725,0.072922,-0.058401,0,3.141593,0], a=0.523599, v=0.436332, r=0.005)  # [Transform: move to [729.725, 72.922, -58.401] mm and rotate to [[-1, 0, 0], [0, 1, 0], [0, 0, -1]]]
  movej(p[0.738508,0.075229,-0.039743,0,3.141593,0], a=0.523599, v=0.436332, r=0.005)  # [Transform: move to [738.508, 75.229, -39.743] mm and rotate to [[-1, 0, 0], [0, 1, 0], [0, 0, -1]]]
  movej(p[0.738508,0.075229,-0.059743,0,3.141593,0], a=0.523599, v=0.436332, r=0.005)  # [Transform: move to [738.508, 75.229, -59.743] mm and rotate to [[-1, 0, 0], [0, 1, 0], [0, 0, -1]]]
  movej(p[0.749771,0.076579,-0.037644,0,3.141593,0], a=0.523599, v=0.436332, r=0.005)  # [Transform: move to [749.771, 76.579, -37.644] mm and rotate to [[-1, 0, 0], [0, 1, 0], [0, 0, -1]]]
  movej(p[0.749771,0.076579,-0.057644,0,3.141593,0], a=0.523599, v=0.436332, r=0.005)  # [Transform: move to [749.771, 76.579, -57.644] mm and rotate to [[-1, 0, 0], [0, 1, 0], [0, 0, -1]]]
  movej(p[0.760692,0.075508,-0.037218,0,3.141593,0], a=0.523599, v=0.436332, r=0.005)  # [Transform: move to [760.692, 75.508, -37.218] mm and rotate to [[-1, 0, 0], [0, 1, 0], [0, 0, -1]]]
  movej(p[0.760692,0.075508,-0.057218,0,3.141593,0], a=0.523599, v=0.436332, r=0.005)  # [Transform: move to [760.692, 75.508, -57.218] mm and rotate to [[-1, 0, 0], [0, 1, 0], [0, 0, -1]]]
  movej(p[0.769253,0.070953,-0.037093,0,3.141593,0], a=0.523599, v=0.436332, r=0.005)  # [Transform: move to [769.253, 70.953, -37.093] mm and rotate to [[-1, 0, 0], [0, 1, 0], [0, 0, -1]]]
  movej(p[0.769253,0.070953,-0.057093,0,3.141593,0], a=0.523599, v=0.436332, r=0.005)  # [Transform: move to [769.253, 70.953, -57.093] mm and rotate to [[-1, 0, 0], [0, 1, 0], [0, 0, -1]]]
  movej(p[0.785385,0.068766,-0.039493,0,3.141593,0], a=0.523599, v=0.436332, r=0.005)  # [Transform: move to [785.385, 68.766, -39.493] mm and rotate to [[-1, 0, 0], [0, 1, 0], [0, 0, -1]]]
  movej(p[0.785385,0.068766,-0.059493,0,3.141593,0], a=0.523599, v=0.436332, r=0.005)  # [Transform: move to [785.385, 68.766, -59.493] mm and rotate to [[-1, 0, 0], [0, 1, 0], [0, 0, -1]]]
  movej(p[0.793448,0.074343,-0.038403,0,3.141593,0], a=0.523599, v=0.436332, r=0.005)  # [Transform: move to [793.448, 74.343, -38.403] mm and rotate to [[-1, 0, 0], [0, 1, 0], [0, 0, -1]]]
  movej(p[0.793448,0.074343,-0.058403,0,3.141593,0], a=0.523599, v=0.436332, r=0.005)  # [Transform: move to [793.448, 74.343, -58.403] mm and rotate to [[-1, 0, 0], [0, 1, 0], [0, 0, -1]]]
  movej(p[0.802323,0.074362,-0.038223,0,3.141593,0], a=0.523599, v=0.436332, r=0.005)  # [Transform: move to [802.323, 74.362, -38.223] mm and rotate to [[-1, 0, 0], [0, 1, 0], [0, 0, -1]]]
  movej(p[0.802323,0.074362,-0.058223,0,3.141593,0], a=0.523599, v=0.436332, r=0.005)  # [Transform: move to [802.323, 74.362, -58.223] mm and rotate to [[-1, 0, 0], [0, 1, 0], [0, 0, -1]]]
  movej(p[0.812014,0.075427,-0.037123,0,3.141593,0], a=0.523599, v=0.436332, r=0.005)  # [Transform: move to [812.014, 75.427, -37.123] mm and rotate to [[-1, 0, 0], [0, 1, 0], [0, 0, -1]]]
  movej(p[0.812014,0.075427,-0.057123,0,3.141593,0], a=0.523599, v=0.436332, r=0.005)  # [Transform: move to [812.014, 75.427, -57.123] mm and rotate to [[-1, 0, 0], [0, 1, 0], [0, 0, -1]]]
  movej(p[0.818787,0.075501,-0.038351,0,3.141593,0], a=0.523599, v=0.436332, r=0.005)  # [Transform: move to [818.787, 75.501, -38.351] mm and rotate to [[-1, 0, 0], [0, 1, 0], [0, 0, -1]]]
  movej(p[0.818787,0.075501,-0.058351,0,3.141593,0], a=0.523599, v=0.436332, r=0.005)  # [Transform: move to [818.787, 75.501, -58.351] mm and rotate to [[-1, 0, 0], [0, 1, 0], [0, 0, -1]]]
  movej(p[0.828787,0.075738,-0.038085,0,3.141593,0], a=0.523599, v=0.436332, r=0.005)  # [Transform: move to [828.787, 75.738, -38.085] mm and rotate to [[-1, 0, 0], [0, 1, 0], [0, 0, -1]]]
  movej(p[0.828787,0.075738,-0.058085,0,3.141593,0], a=0.523599, v=0.436332, r=0.005)  # [Transform: move to [828.787, 75.738, -58.085] mm and rotate to [[-1, 0, 0], [0, 1, 0], [0, 0, -1]]]
  movej(p[0.838623,0.07479,-0.039855,0,3.141593,0], a=0.523599, v=0.436332, r=0.005)  # [Transform: move to [838.623, 74.79, -39.855] mm and rotate to [[-1, 0, 0], [0, 1, 0], [0, 0, -1]]]
  movej(p[0.838623,0.07479,-0.059855,0,3.141593,0], a=0.523599, v=0.436332, r=0.005)  # [Transform: move to [838.623, 74.79, -59.855] mm and rotate to [[-1, 0, 0], [0, 1, 0], [0, 0, -1]]]
  movej(p[0.846881,0.067629,-0.037567,0,3.141593,0], a=0.523599, v=0.436332, r=0.005)  # [Transform: move to [846.881, 67.629, -37.567] mm and rotate to [[-1, 0, 0], [0, 1, 0], [0, 0, -1]]]
  movej(p[0.846881,0.067629,-0.057567,0,3.141593,0], a=0.523599, v=0.436332, r=0.005)  # [Transform: move to [846.881, 67.629, -57.567] mm and rotate to [[-1, 0, 0], [0, 1, 0], [0, 0, -1]]]
  movej(p[0.851113,0.058958,-0.039774,0,3.141593,0], a=0.523599, v=0.436332, r=0.005)  # [Transform: move to [851.113, 58.958, -39.774] mm and rotate to [[-1, 0, 0], [0, 1, 0], [0, 0, -1]]]
  movej(p[0.851113,0.058958,-0.059774,0,3.141593,0], a=0.523599, v=0.436332, r=0.005)  # [Transform: move to [851.113, 58.958, -59.774] mm and rotate to [[-1, 0, 0], [0, 1, 0], [0, 0, -1]]]
  movej(p[0.849053,0.048536,-0.03751,0,3.141593,0], a=0.523599, v=0.436332, r=0.005)  # [Transform: move to [849.053, 48.536, -37.51] mm and rotate to [[-1, 0, 0], [0, 1, 0], [0, 0, -1]]]
  movej(p[0.849053,0.048536,-0.05751,0,3.141593,0], a=0.523599, v=0.436332, r=0.005)  # [Transform: move to [849.053, 48.536, -57.51] mm and rotate to [[-1, 0, 0], [0, 1, 0], [0, 0, -1]]]
  movej(p[0.84997,0.041849,-0.037691,0,3.141593,0], a=0.523599, v=0.436332, r=0.005)  # [Transform: move to [849.97, 41.849, -37.691] mm and rotate to [[-1, 0, 0], [0, 1, 0], [0, 0, -1]]]
  movej(p[0.84997,0.041849,-0.057691,0,3.141593,0], a=0.523599, v=0.436332, r=0.005)  # [Transform: move to [849.97, 41.849, -57.691] mm and rotate to [[-1, 0, 0], [0, 1, 0], [0, 0, -1]]]
  movej(p[0.845575,0.034319,-0.03898,0,3.141593,0], a=0.523599, v=0.436332, r=0.005)  # [Transform: move to [845.575, 34.319, -38.98] mm and rotate to [[-1, 0, 0], [0, 1, 0], [0, 0, -1]]]
  movej(p[0.845575,0.034319,-0.05898,0,3.141593,0], a=0.523599, v=0.436332, r=0.005)  # [Transform: move to [845.575, 34.319, -58.98] mm and rotate to [[-1, 0, 0], [0, 1, 0], [0, 0, -1]]]
  movej(p[0.838752,0.027335,-0.037615,0,3.141593,0], a=0.523599, v=0.436332, r=0.005)  # [Transform: move to [838.752, 27.335, -37.615] mm and rotate to [[-1, 0, 0], [0, 1, 0], [0, 0, -1]]]
  movej(p[0.838752,0.027335,-0.057615,0,3.141593,0], a=0.523599, v=0.436332, r=0.005)  # [Transform: move to [838.752, 27.335, -57.615] mm and rotate to [[-1, 0, 0], [0, 1, 0], [0, 0, -1]]]
  movej(p[0.844441,0.024379,-0.039505,0,3.141593,0], a=0.523599, v=0.436332, r=0.005)  # [Transform: move to [844.441, 24.379, -39.505] mm and rotate to [[-1, 0, 0], [0, 1, 0], [0, 0, -1]]]
  movej(p[0.844441,0.024379,-0.059505,0,3.141593,0], a=0.523599, v=0.436332, r=0.005)  # [Transform: move to [844.441, 24.379, -59.505] mm and rotate to [[-1, 0, 0], [0, 1, 0], [0, 0, -1]]]
  movej(p[0.842391,0.014486,-0.038246,0,3.141593,0], a=0.523599, v=0.436332, r=0.005)  # [Transform: move to [842.391, 14.486, -38.246] mm and rotate to [[-1, 0, 0], [0, 1, 0], [0, 0, -1]]]
  movej(p[0.842391,0.014486,-0.058246,0,3.141593,0], a=0.523599, v=0.436332, r=0.005)  # [Transform: move to [842.391, 14.486, -58.246] mm and rotate to [[-1, 0, 0], [0, 1, 0], [0, 0, -1]]]
  movej(p[0.842564,0.002736,-0.038159,0,3.141593,0], a=0.523599, v=0.436332, r=0.005)  # [Transform: move to [842.564, 2.736, -38.159] mm and rotate to [[-1, 0, 0], [0, 1, 0], [0, 0, -1]]]
  movej(p[0.842564,0.002736,-0.058159,0,3.141593,0], a=0.523599, v=0.436332, r=0.005)  # [Transform: move to [842.564, 2.736, -58.159] mm and rotate to [[-1, 0, 0], [0, 1, 0], [0, 0, -1]]]
  movej(p[0.842192,-0.004813,-0.039852,0,3.141593,0], a=0.523599, v=0.436332, r=0.005)  # [Transform: move to [842.192, -4.813, -39.852] mm and rotate to [[-1, 0, 0], [0, 1, 0], [0, 0, -1]]]
  movej(p[0.842192,-0.004813,-0.059852,0,3.141593,0], a=0.523599, v=0.436332, r=0.005)  # [Transform: move to [842.192, -4.813, -59.852] mm and rotate to [[-1, 0, 0], [0, 1, 0], [0, 0, -1]]]
  movej(p[0.843639,-0.015211,-0.039084,0,3.141593,0], a=0.523599, v=0.436332, r=0.005)  # [Transform: move to [843.639, -15.211, -39.084] mm and rotate to [[-1, 0, 0], [0, 1, 0], [0, 0, -1]]]
  movej(p[0.843639,-0.015211,-0.059084,0,3.141593,0], a=0.523599, v=0.436332, r=0.005)  # [Transform: move to [843.639, -15.211, -59.084] mm and rotate to [[-1, 0, 0], [0, 1, 0], [0, 0, -1]]]
  movej(p[0.844306,-0.026457,-0.03728,0,3.141593,0], a=0.523599, v=0.436332, r=0.005)  # [Transform: move to [844.306, -26.457, -37.28] mm and rotate to [[-1, 0, 0], [0, 1, 0], [0, 0, -1]]]
  movej(p[0.844306,-0.026457,-0.05728,0,3.141593,0], a=0.523599, v=0.436332, r=0.005)  # [Transform: move to [844.306, -26.457, -57.28] mm and rotate to [[-1, 0, 0], [0, 1, 0], [0, 0, -1]]]
  movej(p[0.846932,-0.039882,-0.039382,0,3.141593,0], a=0.523599, v=0.436332, r=0.005)  # [Transform: move to [846.932, -39.882, -39.382] mm and rotate to [[-1, 0, 0], [0, 1, 0], [0, 0, -1]]]
  movej(p[0.846932,-0.039882,-0.059382,0,3.141593,0], a=0.523599, v=0.436332, r=0.005)  # [Transform: move to [846.932, -39.882, -59.382] mm and rotate to [[-1, 0, 0], [0, 1, 0], [0, 0, -1]]]
  movej(p[0.848338,-0.052756,-0.03867,0,3.141593,0], a=0.523599, v=0.436332, r=0.005)  # [Transform: move to [848.338, -52.756, -38.67] mm and rotate to [[-1, 0, 0], [0, 1, 0], [0, 0, -1]]]
  movej(p[0.848338,-0.052756,-0.05867,0,3.141593,0], a=0.523599, v=0.436332, r=0.005)  # [Transform: move to [848.338, -52.756, -58.67] mm and rotate to [[-1, 0, 0], [0, 1, 0], [0, 0, -1]]]
  movej(p[0.850487,-0.058889,-0.037274,0,3.141593,0], a=0.523599, v=0.436332, r=0.005)  # [Transform: move to [850.487, -58.889, -37.274] mm and rotate to [[-1, 0, 0], [0, 1, 0], [0, 0, -1]]]
  movej(p[0.850487,-0.058889,-0.057274,0,3.141593,0], a=0.523599, v=0.436332, r=0.005)  # [Transform: move to [850.487, -58.889, -57.274] mm and rotate to [[-1, 0, 0], [0, 1, 0], [0, 0, -1]]]
  movej(p[0.84903,-0.06922,-0.037674,0,3.141593,0], a=0.523599, v=0.436332, r=0.005)  # [Transform: move to [849.03, -69.22, -37.674] mm and rotate to [[-1, 0, 0], [0, 1, 0], [0, 0, -1]]]
  movej(p[0.84903,-0.06922,-0.057674,0,3.141593,0], a=0.523599, v=0.436332, r=0.005)  # [Transform: move to [849.03, -69.22, -57.674] mm and rotate to [[-1, 0, 0], [0, 1, 0], [0, 0, -1]]]
  movej(p[0.853689,-0.075761,-0.039243,0,3.141593,0], a=0.523599, v=0.436332, r=0.005)  # [Transform: move to [853.689, -75.761, -39.243] mm and rotate to [[-1, 0, 0], [0, 1, 0], [0, 0, -1]]]
  movej(p[0.853689,-0.075761,-0.059243,0,3.141593,0], a=0.523599, v=0.436332, r=0.005)  # [Transform: move to [853.689, -75.761, -59.243] mm and rotate to [[-1, 0, 0], [0, 1, 0], [0, 0, -1]]]
  movej(p[0.856618,-0.082918,-0.038035,0,3.141593,0], a=0.523599, v=0.436332, r=0.005)  # [Transform: move to [856.618, -82.918, -38.035] mm and rotate to [[-1, 0, 0], [0, 1, 0], [0, 0, -1]]]
  movej(p[0.856618,-0.082918,-0.058035,0,3.141593,0], a=0.523599, v=0.436332, r=0.005)  # [Transform: move to [856.618, -82.918, -58.035] mm and rotate to [[-1, 0, 0], [0, 1, 0], [0, 0, -1]]]
  movej(p[0.856202,-0.094615,-0.038832,0,3.141593,0], a=0.523599, v=0.436332, r=0.005)  # [Transform: move to [856.202, -94.615, -38.832] mm and rotate to [[-1, 0, 0], [0, 1, 0], [0, 0, -1]]]
  movej(p[0.856202,-0.094615,-0.058832,0,3.141593,0], a=0.523599, v=0.436332, r=0.005)  # [Transform: move to [856.202, -94.615, -58.832] mm and rotate to [[-1, 0, 0], [0, 1, 0], [0, 0, -1]]]
  movej(p[0.855156,-0.101465,-0.03868,0,3.141593,0], a=0.523599, v=0.436332, r=0.005)  # [Transform: move to [855.156, -101.465, -38.68] mm and rotate to [[-1, 0, 0], [0, 1, 0], [0, 0, -1]]]
  movej(p[0.855156,-0.101465,-0.05868,0,3.141593,0], a=0.523599, v=0.436332, r=0.005)  # [Transform: move to [855.156, -101.465, -58.68] mm and rotate to [[-1, 0, 0], [0, 1, 0], [0, 0, -1]]]
  movej(p[0.850219,-0.108301,-0.039504,0,3.141593,0], a=0.523599, v=0.436332, r=0.005)  # [Transform: move to [850.219, -108.301, -39.504] mm and rotate to [[-1, 0, 0], [0, 1, 0], [0, 0, -1]]]
  movej(p[0.850219,-0.108301,-0.059504,0,3.141593,0], a=0.523599, v=0.436332, r=0.005)  # [Transform: move to [850.219, -108.301, -59.504] mm and rotate to [[-1, 0, 0], [0, 1, 0], [0, 0, -1]]]
  movej(p[0.845304,-0.116995,-0.037224,0,3.141593,0], a=0.523599, v=0.436332, r=0.005)  # [Transform: move to [845.304, -116.995, -37.224] mm and rotate to [[-1, 0, 0], [0, 1, 0], [0, 0, -1]]]
  movej(p[0.845304,-0.116995,-0.057224,0,3.141593,0], a=0.523599, v=0.436332, r=0.005)  # [Transform: move to [845.304, -116.995, -57.224] mm and rotate to [[-1, 0, 0], [0, 1, 0], [0, 0, -1]]]
  movej(p[0.837079,-0.124448,-0.03781,0,3.141593,0], a=0.523599, v=0.436332, r=0.005)  # [Transform: move to [837.079, -124.448, -37.81] mm and rotate to [[-1, 0, 0], [0, 1, 0], [0, 0, -1]]]
  movej(p[0.837079,-0.124448,-0.05781,0,3.141593,0], a=0.523599, v=0.436332, r=0.005)  # [Transform: move to [837.079, -124.448, -57.81] mm and rotate to [[-1, 0, 0], [0, 1, 0], [0, 0, -1]]]
  movej(p[0.830187,-0.122874,-0.038758,0,3.141593,0], a=0.523599, v=0.436332, r=0.005)  # [Transform: move to [830.187, -122.874, -38.758] mm and rotate to [[-1, 0, 0], [0, 1, 0], [0, 0, -1]]]
  movej(p[0.830187,-0.122874,-0.058758,0,3.141593,0], a=0.523599, v=0.436332, r=0.005)  # [Transform: move to [830.187, -122.874, -58.758] mm and rotate to [[-1, 0, 0], [0, 1, 0], [0, 0, -1]]]
  movej(p[0.833654,-0.131591,-0.039471,0,3.141593,0], a=0.523599, v=0.436332, r=0.005)  # [Transform: move to [833.654, -131.591, -39.471] mm and rotate to [[-1, 0, 0], [0, 1, 0], [0, 0, -1]]]
  movej(p[0.833654,-0.131591,-0.059471,0,3.141593,0], a=0.523599, v=0.436332, r=0.005)  # [Transform: move to [833.654, -131.591, -59.471] mm and rotate to [[-1, 0, 0], [0, 1, 0], [0, 0, -1]]]
  movej(p[0.838466,-0.141741,-0.038114,0,3.141593,0], a=0.523599, v=0.436332, r=0.005)  # [Transform: move to [838.466, -141.741, -38.114] mm and rotate to [[-1, 0, 0], [0, 1, 0], [0, 0, -1]]]
  movej(p[0.838466,-0.141741,-0.058114,0,3.141593,0], a=0.523599, v=0.436332, r=0.005)  # [Transform: move to [838.466, -141.741, -58.114] mm and rotate to [[-1, 0, 0], [0, 1, 0], [0, 0, -1]]]
  movej(p[0.840225,-0.148114,-0.039854,0,3.141593,0], a=0.523599, v=0.436332, r=0.005)  # [Transform: move to [840.225, -148.114, -39.854] mm and rotate to [[-1, 0, 0], [0, 1, 0], [0, 0, -1]]]
  movej(p[0.840225,-0.148114,-0.059854,0,3.141593,0], a=0.523599, v=0.436332, r=0.005)  # [Transform: move to [840.225, -148.114, -59.854] mm and rotate to [[-1, 0, 0], [0, 1, 0], [0, 0, -1]]]
  movej(p[0.842779,-0.155056,-0.039041,0,3.141593,0], a=0.523599, v=0.436332, r=0.005)  # [Transform: move to [842.779, -155.056, -39.041] mm and rotate to [[-1, 0, 0], [0, 1, 0], [0, 0, -1]]]
  movej(p[0.842779,-0.155056,-0.059041,0,3.141593,0], a=0.523599, v=0.436332, r=0.005)  # [Transform: move to [842.779, -155.056, -59.041] mm and rotate to [[-1, 0, 0], [0, 1, 0], [0, 0, -1]]]
  movej(p[0.846892,-0.16309,-0.037571,0,3.141593,0], a=0.523599, v=0.436332, r=0.005)  # [Transform: move to [846.892, -163.09, -37.571] mm and rotate to [[-1, 0, 0], [0, 1, 0], [0, 0, -1]]]
  movej(p[0.846892,-0.16309,-0.057571,0,3.141593,0], a=0.523599, v=0.436332, r=0.005)  # [Transform: move to [846.892, -163.09, -57.571] mm and rotate to [[-1, 0, 0], [0, 1, 0], [0, 0, -1]]]
  movej(p[0.850163,-0.171539,-0.03732,0,3.141593,0], a=0.523599, v=0.436332, r=0.005)  # [Transform: move to [850.163, -171.539, -37.32] mm and rotate to [[-1, 0, 0], [0, 1, 0], [0, 0, -1]]]
  movej(p[0.850163,-0.171539,-0.05732,0,3.141593,0], a=0.523599, v=0.436332, r=0.005)  # [Transform: move to [850.163, -171.539, -57.32] mm and rotate to [[-1, 0, 0], [0, 1, 0], [0, 0, -1]]]
  movej(p[0.854186,-0.178068,-0.03795,0,3.141593,0], a=0.523599, v=0.436332, r=0.005)  # [Transform: move to [854.186, -178.068, -37.95] mm and rotate to [[-1, 0, 0], [0, 1, 0], [0, 0, -1]]]
  movej(p[0.854186,-0.178068,-0.05795,0,3.141593,0], a=0.523599, v=0.436332, r=0.005)  # [Transform: move to [854.186, -178.068, -57.95] mm and rotate to [[-1, 0, 0], [0, 1, 0], [0, 0, -1]]]
  movej(p[0.855554,-0.186471,-0.039789,0,3.141593,0], a=0.523599, v=0.436332, r=0.005)  # [Transform: move to [855.554, -186.471, -39.789] mm and rotate to [[-1, 0, 0], [0, 1, 0], [0, 0, -1]]]
  movej(p[0.855554,-0.186471,-0.059789,0,3.141593,0], a=0.523599, v=0.436332, r=0.005)  # [Transform: move to [855.554, -186.471, -59.789] mm and rotate to [[-1, 0, 0], [0, 1, 0], [0, 0, -1]]]
  movej(p[0.853885,-0.197402,-0.038695,0,3.141593,0], a=0.523599, v=0.436332, r=0.005)  # [Transform: move to [853.885, -197.402, -38.695] mm and rotate to [[-1, 0, 0], [0, 1, 0], [0, 0, -1]]]
  movej(p[0.853885,-0.197402,-0.058695,0,3.141593,0], a=0.523599, v=0.436332, r=0.005)  # [Transform: move to [853.885, -197.402, -58.695] mm and rotate to [[-1, 0, 0], [0, 1, 0], [0, 0, -1]]]
  movej(p[0.850564,-0.209823,-0.037459,0,3.141593,0], a=0.523599, v=0.436332, r=0.005)  # [Transform: move to [850.564, -209.823, -37.459] mm and rotate to [[-1, 0, 0], [0, 1, 0], [0, 0, -1]]]
  movej(p[0.850564,-0.209823,-0.057459,0,3.141593,0], a=0.523599, v=0.436332, r=0.005)  # [Transform: move to [850.564, -209.823, -57.459] mm and rotate to [[-1, 0, 0], [0, 1, 0], [0, 0, -1]]]
  movej(p[0.849914,-0.221492,-0.037647,0,3.141593,0], a=0.523599, v=0.436332, r=0.005)  # [Transform: move to [849.914, -221.492, -37.647] mm and rotate to [[-1, 0, 0], [0, 1, 0], [0, 0, -1]]]
  movej(p[0.849914,-0.221492,-0.057647,0,3.141593,0], a=0.523599, v=0.436332, r=0.005)  # [Transform: move to [849.914, -221.492, -57.647] mm and rotate to [[-1, 0, 0], [0, 1, 0], [0, 0, -1]]]
  movej(p[0.848272,-0.228836,-0.038929,0,3.141593,0], a=0.523599, v=0.436332, r=0.005)  # [Transform: move to [848.272, -228.836, -38.929] mm and rotate to [[-1, 0, 0], [0, 1, 0], [0, 0, -1]]]
  movej(p[0.848272,-0.228836,-0.058929,0,3.141593,0], a=0.523599, v=0.436332, r=0.005)  # [Transform: move to [848.272, -228.836, -58.929] mm and rotate to [[-1, 0, 0], [0, 1, 0], [0, 0, -1]]]
  movej(p[0.847817,-0.235023,-0.039268,0,3.141593,0], a=0.523599, v=0.436332, r=0.005)  # [Transform: move to [847.817, -235.023, -39.268] mm and rotate to [[-1, 0, 0], [0, 1, 0], [0, 0, -1]]]
  movej(p[0.847817,-0.235023,-0.059268,0,3.141593,0], a=0.523599, v=0.436332, r=0.005)  # [Transform: move to [847.817, -235.023, -59.268] mm and rotate to [[-1, 0, 0], [0, 1, 0], [0, 0, -1]]]
  movej(p[0.849519,-0.246207,-0.038005,0,3.141593,0], a=0.523599, v=0.436332, r=0.005)  # [Transform: move to [849.519, -246.207, -38.005] mm and rotate to [[-1, 0, 0], [0, 1, 0], [0, 0, -1]]]
  movej(p[0.849519,-0.246207,-0.058005,0,3.141593,0], a=0.523599, v=0.436332, r=0.005)  # [Transform: move to [849.519, -246.207, -58.005] mm and rotate to [[-1, 0, 0], [0, 1, 0], [0, 0, -1]]]
  movej(p[0.851658,-0.255492,-0.037752,0,3.141593,0], a=0.523599, v=0.436332, r=0.005)  # [Transform: move to [851.658, -255.492, -37.752] mm and rotate to [[-1, 0, 0], [0, 1, 0], [0, 0, -1]]]
  movej(p[0.851658,-0.255492,-0.057752,0,3.141593,0], a=0.523599, v=0.436332, r=0.005)  # [Transform: move to [851.658, -255.492, -57.752] mm and rotate to [[-1, 0, 0], [0, 1, 0], [0, 0, -1]]]
  movej(p[0.850963,-0.264237,-0.038496,0,3.141593,0], a=0.523599, v=0.436332, r=0.005)  # [Transform: move to [850.963, -264.237, -38.496] mm and rotate to [[-1, 0, 0], [0, 1, 0], [0, 0, -1]]]
  movej(p[0.850963,-0.264237,-0.058496,0,3.141593,0], a=0.523599, v=0.436332, r=0.005)  # [Transform: move to [850.963, -264.237, -58.496] mm and rotate to [[-1, 0, 0], [0, 1, 0], [0, 0, -1]]]
  movej(p[0.849664,-0.278621,-0.038536,0,3.141593,0], a=0.523599, v=0.436332, r=0.005)  # [Transform: move to [849.664, -278.621, -38.536] mm and rotate to [[-1, 0, 0], [0, 1, 0], [0, 0, -1]]]
  movej(p[0.849664,-0.278621,-0.058536,0,3.141593,0], a=0.523599, v=0.436332, r=0.005)  # [Transform: move to [849.664, -278.621, -58.536] mm and rotate to [[-1, 0, 0], [0, 1, 0], [0, 0, -1]]]
  movej(p[0.84834,-0.29085,-0.039128,0,3.141593,0], a=0.523599, v=0.436332, r=0.005)  # [Transform: move to [848.34, -290.85, -39.128] mm and rotate to [[-1, 0, 0], [0, 1, 0], [0, 0, -1]]]
  movej(p[0.84834,-0.29085,-0.059128,0,3.141593,0], a=0.523599, v=0.436332, r=0.005)  # [Transform: move to [848.34, -290.85, -59.128] mm and rotate to [[-1, 0, 0], [0, 1, 0], [0, 0, -1]]]
  movej(p[0.845675,-0.299326,-0.037802,0,3.141593,0], a=0.523599, v=0.436332, r=0.005)  # [Transform: move to [845.675, -299.326, -37.802] mm and rotate to [[-1, 0, 0], [0, 1, 0], [0, 0, -1]]]
  movej(p[0.845675,-0.299326,-0.057802,0,3.141593,0], a=0.523599, v=0.436332, r=0.005)  # [Transform: move to [845.675, -299.326, -57.802] mm and rotate to [[-1, 0, 0], [0, 1, 0], [0, 0, -1]]]
  movej(p[0.846832,-0.308462,-0.038549,0,3.141593,0], a=0.523599, v=0.436332, r=0.005)  # [Transform: move to [846.832, -308.462, -38.549] mm and rotate to [[-1, 0, 0], [0, 1, 0], [0, 0, -1]]]
  movej(p[0.846832,-0.308462,-0.058549,0,3.141593,0], a=0.523599, v=0.436332, r=0.005)  # [Transform: move to [846.832, -308.462, -58.549] mm and rotate to [[-1, 0, 0], [0, 1, 0], [0, 0, -1]]]
  movej(p[0.843154,-0.318635,-0.037659,0,3.141593,0], a=0.523599, v=0.436332, r=0.005)  # [Transform: move to [843.154, -318.635, -37.659] mm and rotate to [[-1, 0, 0], [0, 1, 0], [0, 0, -1]]]
  movej(p[0.843154,-0.318635,-0.057659,0,3.141593,0], a=0.523599, v=0.436332, r=0.005)  # [Transform: move to [843.154, -318.635, -57.659] mm and rotate to [[-1, 0, 0], [0, 1, 0], [0, 0, -1]]]
  movej(p[0.834655,-0.329921,-0.037365,0,3.141593,0], a=0.523599, v=0.436332, r=0.005)  # [Transform: move to [834.655, -329.921, -37.365] mm and rotate to [[-1, 0, 0], [0, 1, 0], [0, 0, -1]]]
  movej(p[0.834655,-0.329921,-0.057365,0,3.141593,0], a=0.523599, v=0.436332, r=0.005)  # [Transform: move to [834.655, -329.921, -57.365] mm and rotate to [[-1, 0, 0], [0, 1, 0], [0, 0, -1]]]
  movej(p[0.828005,-0.329055,-0.037836,0,3.141593,0], a=0.523599, v=0.436332, r=0.005)  # [Transform: move to [828.005, -329.055, -37.836] mm and rotate to [[-1, 0, 0], [0, 1, 0], [0, 0, -1]]]
  movej(p[0.828005,-0.329055,-0.057836,0,3.141593,0], a=0.523599, v=0.436332, r=0.005)  # [Transform: move to [828.005, -329.055, -57.836] mm and rotate to [[-1, 0, 0], [0, 1, 0], [0, 0, -1]]]
  movej(p[0.820715,-0.328546,-0.038423,0,3.141593,0], a=0.523599, v=0.436332, r=0.005)  # [Transform: move to [820.715, -328.546, -38.423] mm and rotate to [[-1, 0, 0], [0, 1, 0], [0, 0, -1]]]
  movej(p[0.820715,-0.328546,-0.058423,0,3.141593,0], a=0.523599, v=0.436332, r=0.005)  # [Transform: move to [820.715, -328.546, -58.423] mm and rotate to [[-1, 0, 0], [0, 1, 0], [0, 0, -1]]]
  movej(p[0.811941,-0.327103,-0.039219,0,3.141593,0], a=0.523599, v=0.436332, r=0.005)  # [Transform: move to [811.941, -327.103, -39.219] mm and rotate to [[-1, 0, 0], [0, 1, 0], [0, 0, -1]]]
  movej(p[0.811941,-0.327103,-0.059219,0,3.141593,0], a=0.523599, v=0.436332, r=0.005)  # [Transform: move to [811.941, -327.103, -59.219] mm and rotate to [[-1, 0, 0], [0, 1, 0], [0, 0, -1]]]
  movej(p[0.801977,-0.325858,-0.037729,0,3.141593,0], a=0.523599, v=0.436332, r=0.005)  # [Transform: move to [801.977, -325.858, -37.729] mm and rotate to [[-1, 0, 0], [0, 1, 0], [0, 0, -1]]]
  movej(p[0.801977,-0.325858,-0.057729,0,3.141593,0], a=0.523599, v=0.436332, r=0.005)  # [Transform: move to [801.977, -325.858, -57.729] mm and rotate to [[-1, 0, 0], [0, 1, 0], [0, 0, -1]]]
  movej(p[0.796787,-0.31943,-0.03898,0,3.141593,0], a=0.523599, v=0.436332, r=0.005)  # [Transform: move to [796.787, -319.43, -38.98] mm and rotate to [[-1, 0, 0], [0, 1, 0], [0, 0, -1]]]
  movej(p[0.796787,-0.31943,-0.05898,0,3.141593,0], a=0.523599, v=0.436332, r=0.005)  # [Transform: move to [796.787, -319.43, -58.98] mm and rotate to [[-1, 0, 0], [0, 1, 0], [0, 0, -1]]]
  movej(p[0.78822,-0.317316,-0.039087,0,3.141593,0], a=0.523599, v=0.436332, r=0.005)  # [Transform: move to [788.22, -317.316, -39.087] mm and rotate to [[-1, 0, 0], [0, 1, 0], [0, 0, -1]]]
  movej(p[0.78822,-0.317316,-0.059087,0,3.141593,0], a=0.523599, v=0.436332, r=0.005)  # [Transform: move to [788.22, -317.316, -59.087] mm and rotate to [[-1, 0, 0], [0, 1, 0], [0, 0, -1]]]
  movej(p[0.779972,-0.317786,-0.039519,0,3.141593,0], a=0.523599, v=0.436332, r=0.005)  # [Transform: move to [779.972, -317.786, -39.519] mm and rotate to [[-1, 0, 0], [0, 1, 0], [0, 0, -1]]]
  movej(p[0.779972,-0.317786,-0.059519,0,3.141593,0], a=0.523599, v=0.436332, r=0.005)  # [Transform: move to [779.972, -317.786, -59.519] mm and rotate to [[-1, 0, 0], [0, 1, 0], [0, 0, -1]]]
  movej(p[0.780255,-0.328049,-0.039405,0,3.141593,0], a=0.523599, v=0.436332, r=0.005)  # [Transform: move to [780.255, -328.049, -39.405] mm and rotate to [[-1, 0, 0], [0, 1, 0], [0, 0, -1]]]
  movej(p[0.780255,-0.328049,-0.059405,0,3.141593,0], a=0.523599, v=0.436332, r=0.005)  # [Transform: move to [780.255, -328.049, -59.405] mm and rotate to [[-1, 0, 0], [0, 1, 0], [0, 0, -1]]]
  movej(p[0.790927,-0.327954,-0.03735,0,3.141593,0], a=0.523599, v=0.436332, r=0.005)  # [Transform: move to [790.927, -327.954, -37.35] mm and rotate to [[-1, 0, 0], [0, 1, 0], [0, 0, -1]]]
  movej(p[0.790927,-0.327954,-0.05735,0,3.141593,0], a=0.523599, v=0.436332, r=0.005)  # [Transform: move to [790.927, -327.954, -57.35] mm and rotate to [[-1, 0, 0], [0, 1, 0], [0, 0, -1]]]
  movej(p[0.769289,-0.324688,-0.037343,0,3.141593,0], a=0.523599, v=0.436332, r=0.005)  # [Transform: move to [769.289, -324.688, -37.343] mm and rotate to [[-1, 0, 0], [0, 1, 0], [0, 0, -1]]]
  movej(p[0.769289,-0.324688,-0.057343,0,3.141593,0], a=0.523599, v=0.436332, r=0.005)  # [Transform: move to [769.289, -324.688, -57.343] mm and rotate to [[-1, 0, 0], [0, 1, 0], [0, 0, -1]]]
  movej(p[0.761113,-0.328009,-0.038964,0,3.141593,0], a=0.523599, v=0.436332, r=0.005)  # [Transform: move to [761.113, -328.009, -38.964] mm and rotate to [[-1, 0, 0], [0, 1, 0], [0, 0, -1]]]
  movej(p[0.761113,-0.328009,-0.058964,0,3.141593,0], a=0.523599, v=0.436332, r=0.005)  # [Transform: move to [761.113, -328.009, -58.964] mm and rotate to [[-1, 0, 0], [0, 1, 0], [0, 0, -1]]]
  movej(p[0.752686,-0.328732,-0.038752,0,3.141593,0], a=0.523599, v=0.436332, r=0.005)  # [Transform: move to [752.686, -328.732, -38.752] mm and rotate to [[-1, 0, 0], [0, 1, 0], [0, 0, -1]]]
  movej(p[0.752686,-0.328732,-0.058752,0,3.141593,0], a=0.523599, v=0.436332, r=0.005)  # [Transform: move to [752.686, -328.732, -58.752] mm and rotate to [[-1, 0, 0], [0, 1, 0], [0, 0, -1]]]
  movej(p[0.740484,-0.332266,-0.03822,0,3.141593,0], a=0.523599, v=0.436332, r=0.005)  # [Transform: move to [740.484, -332.266, -38.22] mm and rotate to [[-1, 0, 0], [0, 1, 0], [0, 0, -1]]]
  movej(p[0.740484,-0.332266,-0.05822,0,3.141593,0], a=0.523599, v=0.436332, r=0.005)  # [Transform: move to [740.484, -332.266, -58.22] mm and rotate to [[-1, 0, 0], [0, 1, 0], [0, 0, -1]]]
  movej(p[0.727799,-0.3339,-0.037866,0,3.141593,0], a=0.523599, v=0.436332, r=0.005)  # [Transform: move to [727.799, -333.9, -37.866] mm and rotate to [[-1, 0, 0], [0, 1, 0], [0, 0, -1]]]
  movej(p[0.727799,-0.3339,-0.057866,0,3.141593,0], a=0.523599, v=0.436332, r=0.005)  # [Transform: move to [727.799, -333.9, -57.866] mm and rotate to [[-1, 0, 0], [0, 1, 0], [0, 0, -1]]]
  movej(p[0.717714,-0.332416,-0.037761,0,3.141593,0], a=0.523599, v=0.436332, r=0.005)  # [Transform: move to [717.714, -332.416, -37.761] mm and rotate to [[-1, 0, 0], [0, 1, 0], [0, 0, -1]]]
  movej(p[0.717714,-0.332416,-0.057761,0,3.141593,0], a=0.523599, v=0.436332, r=0.005)  # [Transform: move to [717.714, -332.416, -57.761] mm and rotate to [[-1, 0, 0], [0, 1, 0], [0, 0, -1]]]
  movej(p[0.709055,-0.331579,-0.037464,0,3.141593,0], a=0.523599, v=0.436332, r=0.005)  # [Transform: move to [709.055, -331.579, -37.464] mm and rotate to [[-1, 0, 0], [0, 1, 0], [0, 0, -1]]]
  movej(p[0.709055,-0.331579,-0.057464,0,3.141593,0], a=0.523599, v=0.436332, r=0.005)  # [Transform: move to [709.055, -331.579, -57.464] mm and rotate to [[-1, 0, 0], [0, 1, 0], [0, 0, -1]]]
  movej(p[0.699363,-0.330404,-0.037675,0,3.141593,0], a=0.523599, v=0.436332, r=0.005)  # [Transform: move to [699.363, -330.404, -37.675] mm and rotate to [[-1, 0, 0], [0, 1, 0], [0, 0, -1]]]
  movej(p[0.699363,-0.330404,-0.057675,0,3.141593,0], a=0.523599, v=0.436332, r=0.005)  # [Transform: move to [699.363, -330.404, -57.675] mm and rotate to [[-1, 0, 0], [0, 1, 0], [0, 0, -1]]]
  movej(p[0.690861,-0.325967,-0.037839,0,3.141593,0], a=0.523599, v=0.436332, r=0.005)  # [Transform: move to [690.861, -325.967, -37.839] mm and rotate to [[-1, 0, 0], [0, 1, 0], [0, 0, -1]]]
  movej(p[0.690861,-0.325967,-0.057839,0,3.141593,0], a=0.523599, v=0.436332, r=0.005)  # [Transform: move to [690.861, -325.967, -57.839] mm and rotate to [[-1, 0, 0], [0, 1, 0], [0, 0, -1]]]
  movej(p[0.679497,-0.321109,-0.038902,0,3.141593,0], a=0.523599, v=0.436332, r=0.005)  # [Transform: move to [679.497, -321.109, -38.902] mm and rotate to [[-1, 0, 0], [0, 1, 0], [0, 0, -1]]]
  movej(p[0.679497,-0.321109,-0.058902,0,3.141593,0], a=0.523599, v=0.436332, r=0.005)  # [Transform: move to [679.497, -321.109, -58.902] mm and rotate to [[-1, 0, 0], [0, 1, 0], [0, 0, -1]]]
  movej(p[0.67449,-0.312276,-0.039295,0,3.141593,0], a=0.523599, v=0.436332, r=0.005)  # [Transform: move to [674.49, -312.276, -39.295] mm and rotate to [[-1, 0, 0], [0, 1, 0], [0, 0, -1]]]
  movej(p[0.67449,-0.312276,-0.059295,0,3.141593,0], a=0.523599, v=0.436332, r=0.005)  # [Transform: move to [674.49, -312.276, -59.295] mm and rotate to [[-1, 0, 0], [0, 1, 0], [0, 0, -1]]]
  movej(p[0.677281,-0.306171,-0.038585,0,3.141593,0], a=0.523599, v=0.436332, r=0.005)  # [Transform: move to [677.281, -306.171, -38.585] mm and rotate to [[-1, 0, 0], [0, 1, 0], [0, 0, -1]]]
  movej(p[0.677281,-0.306171,-0.058585,0,3.141593,0], a=0.523599, v=0.436332, r=0.005)  # [Transform: move to [677.281, -306.171, -58.585] mm and rotate to [[-1, 0, 0], [0, 1, 0], [0, 0, -1]]]
  movej(p[0.684712,-0.30571,-0.038923,0,3.141593,0], a=0.523599, v=0.436332, r=0.005)  # [Transform: move to [684.712, -305.71, -38.923] mm and rotate to [[-1, 0, 0], [0, 1, 0], [0, 0, -1]]]
  movej(p[0.684712,-0.30571,-0.058923,0,3.141593,0], a=0.523599, v=0.436332, r=0.005)  # [Transform: move to [684.712, -305.71, -58.923] mm and rotate to [[-1, 0, 0], [0, 1, 0], [0, 0, -1]]]
  movej(p[0.693759,-0.302998,-0.038023,0,3.141593,0], a=0.523599, v=0.436332, r=0.005)  # [Transform: move to [693.759, -302.998, -38.023] mm and rotate to [[-1, 0, 0], [0, 1, 0], [0, 0, -1]]]
  movej(p[0.693759,-0.302998,-0.058023,0,3.141593,0], a=0.523599, v=0.436332, r=0.005)  # [Transform: move to [693.759, -302.998, -58.023] mm and rotate to [[-1, 0, 0], [0, 1, 0], [0, 0, -1]]]
  movej(p[0.693214,-0.29694,-0.038345,0,3.141593,0], a=0.523599, v=0.436332, r=0.005)  # [Transform: move to [693.214, -296.94, -38.345] mm and rotate to [[-1, 0, 0], [0, 1, 0], [0, 0, -1]]]
  movej(p[0.693214,-0.29694,-0.058345,0,3.141593,0], a=0.523599, v=0.436332, r=0.005)  # [Transform: move to [693.214, -296.94, -58.345] mm and rotate to [[-1, 0, 0], [0, 1, 0], [0, 0, -1]]]
  movej(p[0.690778,-0.29071,-0.038406,0,3.141593,0], a=0.523599, v=0.436332, r=0.005)  # [Transform: move to [690.778, -290.71, -38.406] mm and rotate to [[-1, 0, 0], [0, 1, 0], [0, 0, -1]]]
  movej(p[0.690778,-0.29071,-0.058406,0,3.141593,0], a=0.523599, v=0.436332, r=0.005)  # [Transform: move to [690.778, -290.71, -58.406] mm and rotate to [[-1, 0, 0], [0, 1, 0], [0, 0, -1]]]
  movej(p[0.699387,-0.292056,-0.038238,0,3.141593,0], a=0.523599, v=0.436332, r=0.005)  # [Transform: move to [699.387, -292.056, -38.238] mm and rotate to [[-1, 0, 0], [0, 1, 0], [0, 0, -1]]]
  movej(p[0.699387,-0.292056,-0.058238,0,3.141593,0], a=0.523599, v=0.436332, r=0.005)  # [Transform: move to [699.387, -292.056, -58.238] mm and rotate to [[-1, 0, 0], [0, 1, 0], [0, 0, -1]]]
  movej(p[0.701023,-0.298803,-0.037283,0,3.141593,0], a=0.523599, v=0.436332, r=0.005)  # [Transform: move to [701.023, -298.803, -37.283] mm and rotate to [[-1, 0, 0], [0, 1, 0], [0, 0, -1]]]
  movej(p[0.701023,-0.298803,-0.057283,0,3.141593,0], a=0.523599, v=0.436332, r=0.005)  # [Transform: move to [701.023, -298.803, -57.283] mm and rotate to [[-1, 0, 0], [0, 1, 0], [0, 0, -1]]]
  movej(p[0.707914,-0.298865,-0.037336,0,3.141593,0], a=0.523599, v=0.436332, r=0.005)  # [Transform: move to [707.914, -298.865, -37.336] mm and rotate to [[-1, 0, 0], [0, 1, 0], [0, 0, -1]]]
  movej(p[0.707914,-0.298865,-0.057336,0,3.141593,0], a=0.523599, v=0.436332, r=0.005)  # [Transform: move to [707.914, -298.865, -57.336] mm and rotate to [[-1, 0, 0], [0, 1, 0], [0, 0, -1]]]
  movej(p[0.716058,-0.290057,-0.037145,0,3.141593,0], a=0.523599, v=0.436332, r=0.005)  # [Transform: move to [716.058, -290.057, -37.145] mm and rotate to [[-1, 0, 0], [0, 1, 0], [0, 0, -1]]]
  movej(p[0.716058,-0.290057,-0.057145,0,3.141593,0], a=0.523599, v=0.436332, r=0.005)  # [Transform: move to [716.058, -290.057, -57.145] mm and rotate to [[-1, 0, 0], [0, 1, 0], [0, 0, -1]]]
  movej(p[0.720113,-0.299643,-0.037376,0,3.141593,0], a=0.523599, v=0.436332, r=0.005)  # [Transform: move to [720.113, -299.643, -37.376] mm and rotate to [[-1, 0, 0], [0, 1, 0], [0, 0, -1]]]
  movej(p[0.720113,-0.299643,-0.057376,0,3.141593,0], a=0.523599, v=0.436332, r=0.005)  # [Transform: move to [720.113, -299.643, -57.376] mm and rotate to [[-1, 0, 0], [0, 1, 0], [0, 0, -1]]]
  movej(p[0.728779,-0.298734,-0.039422,0,3.141593,0], a=0.523599, v=0.436332, r=0.005)  # [Transform: move to [728.779, -298.734, -39.422] mm and rotate to [[-1, 0, 0], [0, 1, 0], [0, 0, -1]]]
  movej(p[0.728779,-0.298734,-0.059422,0,3.141593,0], a=0.523599, v=0.436332, r=0.005)  # [Transform: move to [728.779, -298.734, -59.422] mm and rotate to [[-1, 0, 0], [0, 1, 0], [0, 0, -1]]]
  movej(p[0.738171,-0.289449,-0.039261,0,3.141593,0], a=0.523599, v=0.436332, r=0.005)  # [Transform: move to [738.171, -289.449, -39.261] mm and rotate to [[-1, 0, 0], [0, 1, 0], [0, 0, -1]]]
  movej(p[0.738171,-0.289449,-0.059261,0,3.141593,0], a=0.523599, v=0.436332, r=0.005)  # [Transform: move to [738.171, -289.449, -59.261] mm and rotate to [[-1, 0, 0], [0, 1, 0], [0, 0, -1]]]
  movej(p[0.737056,-0.276926,-0.038099,0,3.141593,0], a=0.523599, v=0.436332, r=0.005)  # [Transform: move to [737.056, -276.926, -38.099] mm and rotate to [[-1, 0, 0], [0, 1, 0], [0, 0, -1]]]
  movej(p[0.737056,-0.276926,-0.058099,0,3.141593,0], a=0.523599, v=0.436332, r=0.005)  # [Transform: move to [737.056, -276.926, -58.099] mm and rotate to [[-1, 0, 0], [0, 1, 0], [0, 0, -1]]]
  movej(p[0.743821,-0.27709,-0.039106,0,3.141593,0], a=0.523599, v=0.436332, r=0.005)  # [Transform: move to [743.821, -277.09, -39.106] mm and rotate to [[-1, 0, 0], [0, 1, 0], [0, 0, -1]]]
  movej(p[0.743821,-0.27709,-0.059106,0,3.141593,0], a=0.523599, v=0.436332, r=0.005)  # [Transform: move to [743.821, -277.09, -59.106] mm and rotate to [[-1, 0, 0], [0, 1, 0], [0, 0, -1]]]
  movej(p[0.75024,-0.269042,-0.037278,0,3.141593,0], a=0.523599, v=0.436332, r=0.005)  # [Transform: move to [750.24, -269.042, -37.278] mm and rotate to [[-1, 0, 0], [0, 1, 0], [0, 0, -1]]]
  movej(p[0.75024,-0.269042,-0.057278,0,3.141593,0], a=0.523599, v=0.436332, r=0.005)  # [Transform: move to [750.24, -269.042, -57.278] mm and rotate to [[-1, 0, 0], [0, 1, 0], [0, 0, -1]]]
  movej(p[0.755215,-0.261094,-0.038431,0,3.141593,0], a=0.523599, v=0.436332, r=0.005)  # [Transform: move to [755.215, -261.094, -38.431] mm and rotate to [[-1, 0, 0], [0, 1, 0], [0, 0, -1]]]
  movej(p[0.755215,-0.261094,-0.058431,0,3.141593,0], a=0.523599, v=0.436332, r=0.005)  # [Transform: move to [755.215, -261.094, -58.431] mm and rotate to [[-1, 0, 0], [0, 1, 0], [0, 0, -1]]]
  movej(p[0.76149,-0.265517,-0.039822,0,3.141593,0], a=0.523599, v=0.436332, r=0.005)  # [Transform: move to [761.49, -265.517, -39.822] mm and rotate to [[-1, 0, 0], [0, 1, 0], [0, 0, -1]]]
  movej(p[0.76149,-0.265517,-0.059822,0,3.141593,0], a=0.523599, v=0.436332, r=0.005)  # [Transform: move to [761.49, -265.517, -59.822] mm and rotate to [[-1, 0, 0], [0, 1, 0], [0, 0, -1]]]
  movej(p[0.769312,-0.262297,-0.039842,0,3.141593,0], a=0.523599, v=0.436332, r=0.005)  # [Transform: move to [769.312, -262.297, -39.842] mm and rotate to [[-1, 0, 0], [0, 1, 0], [0, 0, -1]]]
  movej(p[0.769312,-0.262297,-0.059842,0,3.141593,0], a=0.523599, v=0.436332, r=0.005)  # [Transform: move to [769.312, -262.297, -59.842] mm and rotate to [[-1, 0, 0], [0, 1, 0], [0, 0, -1]]]
  movej(p[0.777823,-0.266925,-0.03834,0,3.141593,0], a=0.523599, v=0.436332, r=0.005)  # [Transform: move to [777.823, -266.925, -38.34] mm and rotate to [[-1, 0, 0], [0, 1, 0], [0, 0, -1]]]
  movej(p[0.777823,-0.266925,-0.05834,0,3.141593,0], a=0.523599, v=0.436332, r=0.005)  # [Transform: move to [777.823, -266.925, -58.34] mm and rotate to [[-1, 0, 0], [0, 1, 0], [0, 0, -1]]]
  movej(p[0.789151,-0.269961,-0.038862,0,3.141593,0], a=0.523599, v=0.436332, r=0.005)  # [Transform: move to [789.151, -269.961, -38.862] mm and rotate to [[-1, 0, 0], [0, 1, 0], [0, 0, -1]]]
  movej(p[0.789151,-0.269961,-0.058862,0,3.141593,0], a=0.523599, v=0.436332, r=0.005)  # [Transform: move to [789.151, -269.961, -58.862] mm and rotate to [[-1, 0, 0], [0, 1, 0], [0, 0, -1]]]
  movej(p[0.79962,-0.27307,-0.03727,0,3.141593,0], a=0.523599, v=0.436332, r=0.005)  # [Transform: move to [799.62, -273.07, -37.27] mm and rotate to [[-1, 0, 0], [0, 1, 0], [0, 0, -1]]]
  movej(p[0.79962,-0.27307,-0.05727,0,3.141593,0], a=0.523599, v=0.436332, r=0.005)  # [Transform: move to [799.62, -273.07, -57.27] mm and rotate to [[-1, 0, 0], [0, 1, 0], [0, 0, -1]]]
  movej(p[0.806829,-0.276157,-0.03929,0,3.141593,0], a=0.523599, v=0.436332, r=0.005)  # [Transform: move to [806.829, -276.157, -39.29] mm and rotate to [[-1, 0, 0], [0, 1, 0], [0, 0, -1]]]
  movej(p[0.806829,-0.276157,-0.05929,0,3.141593,0], a=0.523599, v=0.436332, r=0.005)  # [Transform: move to [806.829, -276.157, -59.29] mm and rotate to [[-1, 0, 0], [0, 1, 0], [0, 0, -1]]]
  movej(p[0.814999,-0.278019,-0.037109,0,3.141593,0], a=0.523599, v=0.436332, r=0.005)  # [Transform: move to [814.999, -278.019, -37.109] mm and rotate to [[-1, 0, 0], [0, 1, 0], [0, 0, -1]]]
  movej(p[0.814999,-0.278019,-0.057109,0,3.141593,0], a=0.523599, v=0.436332, r=0.005)  # [Transform: move to [814.999, -278.019, -57.109] mm and rotate to [[-1, 0, 0], [0, 1, 0], [0, 0, -1]]]
  movej(p[0.812801,-0.26898,-0.037304,0,3.141593,0], a=0.523599, v=0.436332, r=0.005)  # [Transform: move to [812.801, -268.98, -37.304] mm and rotate to [[-1, 0, 0], [0, 1, 0], [0, 0, -1]]]
  movej(p[0.812801,-0.26898,-0.057304,0,3.141593,0], a=0.523599, v=0.436332, r=0.005)  # [Transform: move to [812.801, -268.98, -57.304] mm and rotate to [[-1, 0, 0], [0, 1, 0], [0, 0, -1]]]
  movej(p[0.816954,-0.263677,-0.039965,0,3.141593,0], a=0.523599, v=0.436332, r=0.005)  # [Transform: move to [816.954, -263.677, -39.965] mm and rotate to [[-1, 0, 0], [0, 1, 0], [0, 0, -1]]]
  movej(p[0.816954,-0.263677,-0.059965,0,3.141593,0], a=0.523599, v=0.436332, r=0.005)  # [Transform: move to [816.954, -263.677, -59.965] mm and rotate to [[-1, 0, 0], [0, 1, 0], [0, 0, -1]]]
  movej(p[0.823093,-0.283705,-0.037516,0,3.141593,0], a=0.523599, v=0.436332, r=0.005)  # [Transform: move to [823.093, -283.705, -37.516] mm and rotate to [[-1, 0, 0], [0, 1, 0], [0, 0, -1]]]
  movej(p[0.823093,-0.283705,-0.057516,0,3.141593,0], a=0.523599, v=0.436332, r=0.005)  # [Transform: move to [823.093, -283.705, -57.516] mm and rotate to [[-1, 0, 0], [0, 1, 0], [0, 0, -1]]]
  movej(p[0.82948,-0.287061,-0.039785,0,3.141593,0], a=0.523599, v=0.436332, r=0.005)  # [Transform: move to [829.48, -287.061, -39.785] mm and rotate to [[-1, 0, 0], [0, 1, 0], [0, 0, -1]]]
  movej(p[0.82948,-0.287061,-0.059785,0,3.141593,0], a=0.523599, v=0.436332, r=0.005)  # [Transform: move to [829.48, -287.061, -59.785] mm and rotate to [[-1, 0, 0], [0, 1, 0], [0, 0, -1]]]
  movej(p[0.838762,-0.290024,-0.039886,0,3.141593,0], a=0.523599, v=0.436332, r=0.005)  # [Transform: move to [838.762, -290.024, -39.886] mm and rotate to [[-1, 0, 0], [0, 1, 0], [0, 0, -1]]]
  movej(p[0.838762,-0.290024,-0.059886,0,3.141593,0], a=0.523599, v=0.436332, r=0.005)  # [Transform: move to [838.762, -290.024, -59.886] mm and rotate to [[-1, 0, 0], [0, 1, 0], [0, 0, -1]]]
  movej(p[0.829808,-0.229646,-0.037735,0,3.141593,0], a=0.523599, v=0.436332, r=0.005)  # [Transform: move to [829.808, -229.646, -37.735] mm and rotate to [[-1, 0, 0], [0, 1, 0], [0, 0, -1]]]
  movej(p[0.829808,-0.229646,-0.057735,0,3.141593,0], a=0.523599, v=0.436332, r=0.005)  # [Transform: move to [829.808, -229.646, -57.735] mm and rotate to [[-1, 0, 0], [0, 1, 0], [0, 0, -1]]]
  movej(p[0.826109,-0.223722,-0.038072,0,3.141593,0], a=0.523599, v=0.436332, r=0.005)  # [Transform: move to [826.109, -223.722, -38.072] mm and rotate to [[-1, 0, 0], [0, 1, 0], [0, 0, -1]]]
  movej(p[0.826109,-0.223722,-0.058072,0,3.141593,0], a=0.523599, v=0.436332, r=0.005)  # [Transform: move to [826.109, -223.722, -58.072] mm and rotate to [[-1, 0, 0], [0, 1, 0], [0, 0, -1]]]
  movej(p[0.829326,-0.216466,-0.038453,0,3.141593,0], a=0.523599, v=0.436332, r=0.005)  # [Transform: move to [829.326, -216.466, -38.453] mm and rotate to [[-1, 0, 0], [0, 1, 0], [0, 0, -1]]]
  movej(p[0.829326,-0.216466,-0.058453,0,3.141593,0], a=0.523599, v=0.436332, r=0.005)  # [Transform: move to [829.326, -216.466, -58.453] mm and rotate to [[-1, 0, 0], [0, 1, 0], [0, 0, -1]]]
  movej(p[0.818981,-0.219079,-0.039963,0,3.141593,0], a=0.523599, v=0.436332, r=0.005)  # [Transform: move to [818.981, -219.079, -39.963] mm and rotate to [[-1, 0, 0], [0, 1, 0], [0, 0, -1]]]
  movej(p[0.818981,-0.219079,-0.059963,0,3.141593,0], a=0.523599, v=0.436332, r=0.005)  # [Transform: move to [818.981, -219.079, -59.963] mm and rotate to [[-1, 0, 0], [0, 1, 0], [0, 0, -1]]]
  movej(p[0.821909,-0.207251,-0.039647,0,3.141593,0], a=0.523599, v=0.436332, r=0.005)  # [Transform: move to [821.909, -207.251, -39.647] mm and rotate to [[-1, 0, 0], [0, 1, 0], [0, 0, -1]]]
  movej(p[0.821909,-0.207251,-0.059647,0,3.141593,0], a=0.523599, v=0.436332, r=0.005)  # [Transform: move to [821.909, -207.251, -59.647] mm and rotate to [[-1, 0, 0], [0, 1, 0], [0, 0, -1]]]
  movej(p[0.811032,-0.209181,-0.038364,0,3.141593,0], a=0.523599, v=0.436332, r=0.005)  # [Transform: move to [811.032, -209.181, -38.364] mm and rotate to [[-1, 0, 0], [0, 1, 0], [0, 0, -1]]]
  movej(p[0.811032,-0.209181,-0.058364,0,3.141593,0], a=0.523599, v=0.436332, r=0.005)  # [Transform: move to [811.032, -209.181, -58.364] mm and rotate to [[-1, 0, 0], [0, 1, 0], [0, 0, -1]]]
  movej(p[0.799693,-0.213422,-0.03878,0,3.141593,0], a=0.523599, v=0.436332, r=0.005)  # [Transform: move to [799.693, -213.422, -38.78] mm and rotate to [[-1, 0, 0], [0, 1, 0], [0, 0, -1]]]
  movej(p[0.799693,-0.213422,-0.05878,0,3.141593,0], a=0.523599, v=0.436332, r=0.005)  # [Transform: move to [799.693, -213.422, -58.78] mm and rotate to [[-1, 0, 0], [0, 1, 0], [0, 0, -1]]]
  movej(p[0.792355,-0.210709,-0.038913,0,3.141593,0], a=0.523599, v=0.436332, r=0.005)  # [Transform: move to [792.355, -210.709, -38.913] mm and rotate to [[-1, 0, 0], [0, 1, 0], [0, 0, -1]]]
  movej(p[0.792355,-0.210709,-0.058913,0,3.141593,0], a=0.523599, v=0.436332, r=0.005)  # [Transform: move to [792.355, -210.709, -58.913] mm and rotate to [[-1, 0, 0], [0, 1, 0], [0, 0, -1]]]
  movej(p[0.785441,-0.209648,-0.0374,0,3.141593,0], a=0.523599, v=0.436332, r=0.005)  # [Transform: move to [785.441, -209.648, -37.4] mm and rotate to [[-1, 0, 0], [0, 1, 0], [0, 0, -1]]]
  movej(p[0.785441,-0.209648,-0.0574,0,3.141593,0], a=0.523599, v=0.436332, r=0.005)  # [Transform: move to [785.441, -209.648, -57.4] mm and rotate to [[-1, 0, 0], [0, 1, 0], [0, 0, -1]]]
  movej(p[0.777004,-0.206899,-0.037875,0,3.141593,0], a=0.523599, v=0.436332, r=0.005)  # [Transform: move to [777.004, -206.899, -37.875] mm and rotate to [[-1, 0, 0], [0, 1, 0], [0, 0, -1]]]
  movej(p[0.777004,-0.206899,-0.057875,0,3.141593,0], a=0.523599, v=0.436332, r=0.005)  # [Transform: move to [777.004, -206.899, -57.875] mm and rotate to [[-1, 0, 0], [0, 1, 0], [0, 0, -1]]]
  movej(p[0.770406,-0.205608,-0.039323,0,3.141593,0], a=0.523599, v=0.436332, r=0.005)  # [Transform: move to [770.406, -205.608, -39.323] mm and rotate to [[-1, 0, 0], [0, 1, 0], [0, 0, -1]]]
  movej(p[0.770406,-0.205608,-0.059323,0,3.141593,0], a=0.523599, v=0.436332, r=0.005)  # [Transform: move to [770.406, -205.608, -59.323] mm and rotate to [[-1, 0, 0], [0, 1, 0], [0, 0, -1]]]
  movej(p[0.766431,-0.199276,-0.037743,0,3.141593,0], a=0.523599, v=0.436332, r=0.005)  # [Transform: move to [766.431, -199.276, -37.743] mm and rotate to [[-1, 0, 0], [0, 1, 0], [0, 0, -1]]]
  movej(p[0.766431,-0.199276,-0.057743,0,3.141593,0], a=0.523599, v=0.436332, r=0.005)  # [Transform: move to [766.431, -199.276, -57.743] mm and rotate to [[-1, 0, 0], [0, 1, 0], [0, 0, -1]]]
  movej(p[0.760974,-0.19367,-0.038805,0,3.141593,0], a=0.523599, v=0.436332, r=0.005)  # [Transform: move to [760.974, -193.67, -38.805] mm and rotate to [[-1, 0, 0], [0, 1, 0], [0, 0, -1]]]
  movej(p[0.760974,-0.19367,-0.058805,0,3.141593,0], a=0.523599, v=0.436332, r=0.005)  # [Transform: move to [760.974, -193.67, -58.805] mm and rotate to [[-1, 0, 0], [0, 1, 0], [0, 0, -1]]]
  movej(p[0.754435,-0.185535,-0.039183,0,3.141593,0], a=0.523599, v=0.436332, r=0.005)  # [Transform: move to [754.435, -185.535, -39.183] mm and rotate to [[-1, 0, 0], [0, 1, 0], [0, 0, -1]]]
  movej(p[0.754435,-0.185535,-0.059183,0,3.141593,0], a=0.523599, v=0.436332, r=0.005)  # [Transform: move to [754.435, -185.535, -59.183] mm and rotate to [[-1, 0, 0], [0, 1, 0], [0, 0, -1]]]
  movej(p[0.754392,-0.178866,-0.03926,0,3.141593,0], a=0.523599, v=0.436332, r=0.005)  # [Transform: move to [754.392, -178.866, -39.26] mm and rotate to [[-1, 0, 0], [0, 1, 0], [0, 0, -1]]]
  movej(p[0.754392,-0.178866,-0.05926,0,3.141593,0], a=0.523599, v=0.436332, r=0.005)  # [Transform: move to [754.392, -178.866, -59.26] mm and rotate to [[-1, 0, 0], [0, 1, 0], [0, 0, -1]]]
  movej(p[0.761368,-0.171682,-0.039974,0,3.141593,0], a=0.523599, v=0.436332, r=0.005)  # [Transform: move to [761.368, -171.682, -39.974] mm and rotate to [[-1, 0, 0], [0, 1, 0], [0, 0, -1]]]
  movej(p[0.761368,-0.171682,-0.059974,0,3.141593,0], a=0.523599, v=0.436332, r=0.005)  # [Transform: move to [761.368, -171.682, -59.974] mm and rotate to [[-1, 0, 0], [0, 1, 0], [0, 0, -1]]]
  movej(p[0.769118,-0.166451,-0.037921,0,3.141593,0], a=0.523599, v=0.436332, r=0.005)  # [Transform: move to [769.118, -166.451, -37.921] mm and rotate to [[-1, 0, 0], [0, 1, 0], [0, 0, -1]]]
  movej(p[0.769118,-0.166451,-0.057921,0,3.141593,0], a=0.523599, v=0.436332, r=0.005)  # [Transform: move to [769.118, -166.451, -57.921] mm and rotate to [[-1, 0, 0], [0, 1, 0], [0, 0, -1]]]
  movej(p[0.776346,-0.16252,-0.039703,0,3.141593,0], a=0.523599, v=0.436332, r=0.005)  # [Transform: move to [776.346, -162.52, -39.703] mm and rotate to [[-1, 0, 0], [0, 1, 0], [0, 0, -1]]]
  movej(p[0.776346,-0.16252,-0.059703,0,3.141593,0], a=0.523599, v=0.436332, r=0.005)  # [Transform: move to [776.346, -162.52, -59.703] mm and rotate to [[-1, 0, 0], [0, 1, 0], [0, 0, -1]]]
  movej(p[0.789063,-0.158132,-0.037653,0,3.141593,0], a=0.523599, v=0.436332, r=0.005)  # [Transform: move to [789.063, -158.132, -37.653] mm and rotate to [[-1, 0, 0], [0, 1, 0], [0, 0, -1]]]
  movej(p[0.789063,-0.158132,-0.057653,0,3.141593,0], a=0.523599, v=0.436332, r=0.005)  # [Transform: move to [789.063, -158.132, -57.653] mm and rotate to [[-1, 0, 0], [0, 1, 0], [0, 0, -1]]]
  movej(p[0.796297,-0.166524,-0.039114,0,3.141593,0], a=0.523599, v=0.436332, r=0.005)  # [Transform: move to [796.297, -166.524, -39.114] mm and rotate to [[-1, 0, 0], [0, 1, 0], [0, 0, -1]]]
  movej(p[0.796297,-0.166524,-0.059114,0,3.141593,0], a=0.523599, v=0.436332, r=0.005)  # [Transform: move to [796.297, -166.524, -59.114] mm and rotate to [[-1, 0, 0], [0, 1, 0], [0, 0, -1]]]
  movej(p[0.807598,-0.17616,-0.037589,0,3.141593,0], a=0.523599, v=0.436332, r=0.005)  # [Transform: move to [807.598, -176.16, -37.589] mm and rotate to [[-1, 0, 0], [0, 1, 0], [0, 0, -1]]]
  movej(p[0.807598,-0.17616,-0.057589,0,3.141593,0], a=0.523599, v=0.436332, r=0.005)  # [Transform: move to [807.598, -176.16, -57.589] mm and rotate to [[-1, 0, 0], [0, 1, 0], [0, 0, -1]]]
  movej(p[0.813056,-0.180981,-0.039331,0,3.141593,0], a=0.523599, v=0.436332, r=0.005)  # [Transform: move to [813.056, -180.981, -39.331] mm and rotate to [[-1, 0, 0], [0, 1, 0], [0, 0, -1]]]
  movej(p[0.813056,-0.180981,-0.059331,0,3.141593,0], a=0.523599, v=0.436332, r=0.005)  # [Transform: move to [813.056, -180.981, -59.331] mm and rotate to [[-1, 0, 0], [0, 1, 0], [0, 0, -1]]]
  movej(p[0.815999,-0.186968,-0.037642,0,3.141593,0], a=0.523599, v=0.436332, r=0.005)  # [Transform: move to [815.999, -186.968, -37.642] mm and rotate to [[-1, 0, 0], [0, 1, 0], [0, 0, -1]]]
  movej(p[0.815999,-0.186968,-0.057642,0,3.141593,0], a=0.523599, v=0.436332, r=0.005)  # [Transform: move to [815.999, -186.968, -57.642] mm and rotate to [[-1, 0, 0], [0, 1, 0], [0, 0, -1]]]
  movej(p[0.816718,-0.196545,-0.037833,0,3.141593,0], a=0.523599, v=0.436332, r=0.005)  # [Transform: move to [816.718, -196.545, -37.833] mm and rotate to [[-1, 0, 0], [0, 1, 0], [0, 0, -1]]]
  movej(p[0.816718,-0.196545,-0.057833,0,3.141593,0], a=0.523599, v=0.436332, r=0.005)  # [Transform: move to [816.718, -196.545, -57.833] mm and rotate to [[-1, 0, 0], [0, 1, 0], [0, 0, -1]]]
  movej(p[0.841922,-0.218474,-0.0395,0,3.141593,0], a=0.523599, v=0.436332, r=0.005)  # [Transform: move to [841.922, -218.474, -39.5] mm and rotate to [[-1, 0, 0], [0, 1, 0], [0, 0, -1]]]
  movej(p[0.841922,-0.218474,-0.0595,0,3.141593,0], a=0.523599, v=0.436332, r=0.005)  # [Transform: move to [841.922, -218.474, -59.5] mm and rotate to [[-1, 0, 0], [0, 1, 0], [0, 0, -1]]]
  movej(p[0.841228,-0.225047,-0.037039,0,3.141593,0], a=0.523599, v=0.436332, r=0.005)  # [Transform: move to [841.228, -225.047, -37.039] mm and rotate to [[-1, 0, 0], [0, 1, 0], [0, 0, -1]]]
  movej(p[0.841228,-0.225047,-0.057039,0,3.141593,0], a=0.523599, v=0.436332, r=0.005)  # [Transform: move to [841.228, -225.047, -57.039] mm and rotate to [[-1, 0, 0], [0, 1, 0], [0, 0, -1]]]
  movej(p[0.75932,-0.252647,-0.039025,0,3.141593,0], a=0.523599, v=0.436332, r=0.005)  # [Transform: move to [759.32, -252.647, -39.025] mm and rotate to [[-1, 0, 0], [0, 1, 0], [0, 0, -1]]]
  movej(p[0.75932,-0.252647,-0.059025,0,3.141593,0], a=0.523599, v=0.436332, r=0.005)  # [Transform: move to [759.32, -252.647, -59.025] mm and rotate to [[-1, 0, 0], [0, 1, 0], [0, 0, -1]]]
  movej(p[0.755396,-0.243659,-0.039295,0,3.141593,0], a=0.523599, v=0.436332, r=0.005)  # [Transform: move to [755.396, -243.659, -39.295] mm and rotate to [[-1, 0, 0], [0, 1, 0], [0, 0, -1]]]
  movej(p[0.755396,-0.243659,-0.059295,0,3.141593,0], a=0.523599, v=0.436332, r=0.005)  # [Transform: move to [755.396, -243.659, -59.295] mm and rotate to [[-1, 0, 0], [0, 1, 0], [0, 0, -1]]]
  movej(p[0.74933,-0.237166,-0.038814,0,3.141593,0], a=0.523599, v=0.436332, r=0.005)  # [Transform: move to [749.33, -237.166, -38.814] mm and rotate to [[-1, 0, 0], [0, 1, 0], [0, 0, -1]]]
  movej(p[0.74933,-0.237166,-0.058814,0,3.141593,0], a=0.523599, v=0.436332, r=0.005)  # [Transform: move to [749.33, -237.166, -58.814] mm and rotate to [[-1, 0, 0], [0, 1, 0], [0, 0, -1]]]
  movej(p[0.743493,-0.233471,-0.037719,0,3.141593,0], a=0.523599, v=0.436332, r=0.005)  # [Transform: move to [743.493, -233.471, -37.719] mm and rotate to [[-1, 0, 0], [0, 1, 0], [0, 0, -1]]]
  movej(p[0.743493,-0.233471,-0.057719,0,3.141593,0], a=0.523599, v=0.436332, r=0.005)  # [Transform: move to [743.493, -233.471, -57.719] mm and rotate to [[-1, 0, 0], [0, 1, 0], [0, 0, -1]]]
  movej(p[0.73433,-0.233393,-0.038379,0,3.141593,0], a=0.523599, v=0.436332, r=0.005)  # [Transform: move to [734.33, -233.393, -38.379] mm and rotate to [[-1, 0, 0], [0, 1, 0], [0, 0, -1]]]
  movej(p[0.73433,-0.233393,-0.058379,0,3.141593,0], a=0.523599, v=0.436332, r=0.005)  # [Transform: move to [734.33, -233.393, -58.379] mm and rotate to [[-1, 0, 0], [0, 1, 0], [0, 0, -1]]]
  movej(p[0.728849,-0.236251,-0.03789,0,3.141593,0], a=0.523599, v=0.436332, r=0.005)  # [Transform: move to [728.849, -236.251, -37.89] mm and rotate to [[-1, 0, 0], [0, 1, 0], [0, 0, -1]]]
  movej(p[0.728849,-0.236251,-0.05789,0,3.141593,0], a=0.523599, v=0.436332, r=0.005)  # [Transform: move to [728.849, -236.251, -57.89] mm and rotate to [[-1, 0, 0], [0, 1, 0], [0, 0, -1]]]
  movej(p[0.728062,-0.246928,-0.038452,0,3.141593,0], a=0.523599, v=0.436332, r=0.005)  # [Transform: move to [728.062, -246.928, -38.452] mm and rotate to [[-1, 0, 0], [0, 1, 0], [0, 0, -1]]]
  movej(p[0.728062,-0.246928,-0.058452,0,3.141593,0], a=0.523599, v=0.436332, r=0.005)  # [Transform: move to [728.062, -246.928, -58.452] mm and rotate to [[-1, 0, 0], [0, 1, 0], [0, 0, -1]]]
  movej(p[0.72786,-0.257367,-0.037397,0,3.141593,0], a=0.523599, v=0.436332, r=0.005)  # [Transform: move to [727.86, -257.367, -37.397] mm and rotate to [[-1, 0, 0], [0, 1, 0], [0, 0, -1]]]
  movej(p[0.72786,-0.257367,-0.057397,0,3.141593,0], a=0.523599, v=0.436332, r=0.005)  # [Transform: move to [727.86, -257.367, -57.397] mm and rotate to [[-1, 0, 0], [0, 1, 0], [0, 0, -1]]]
  movej(p[0.733496,-0.264521,-0.039601,0,3.141593,0], a=0.523599, v=0.436332, r=0.005)  # [Transform: move to [733.496, -264.521, -39.601] mm and rotate to [[-1, 0, 0], [0, 1, 0], [0, 0, -1]]]
  movej(p[0.733496,-0.264521,-0.059601,0,3.141593,0], a=0.523599, v=0.436332, r=0.005)  # [Transform: move to [733.496, -264.521, -59.601] mm and rotate to [[-1, 0, 0], [0, 1, 0], [0, 0, -1]]]
  movej(p[0.739829,-0.266967,-0.039073,0,3.141593,0], a=0.523599, v=0.436332, r=0.005)  # [Transform: move to [739.829, -266.967, -39.073] mm and rotate to [[-1, 0, 0], [0, 1, 0], [0, 0, -1]]]
  movej(p[0.739829,-0.266967,-0.059073,0,3.141593,0], a=0.523599, v=0.436332, r=0.005)  # [Transform: move to [739.829, -266.967, -59.073] mm and rotate to [[-1, 0, 0], [0, 1, 0], [0, 0, -1]]]
  movej(p[0.7306,-0.27145,-0.038924,0,3.141593,0], a=0.523599, v=0.436332, r=0.005)  # [Transform: move to [730.6, -271.45, -38.924] mm and rotate to [[-1, 0, 0], [0, 1, 0], [0, 0, -1]]]
  movej(p[0.7306,-0.27145,-0.058924,0,3.141593,0], a=0.523599, v=0.436332, r=0.005)  # [Transform: move to [730.6, -271.45, -58.924] mm and rotate to [[-1, 0, 0], [0, 1, 0], [0, 0, -1]]]
  movej(p[0.722213,-0.270262,-0.03946,0,3.141593,0], a=0.523599, v=0.436332, r=0.005)  # [Transform: move to [722.213, -270.262, -39.46] mm and rotate to [[-1, 0, 0], [0, 1, 0], [0, 0, -1]]]
  movej(p[0.722213,-0.270262,-0.05946,0,3.141593,0], a=0.523599, v=0.436332, r=0.005)  # [Transform: move to [722.213, -270.262, -59.46] mm and rotate to [[-1, 0, 0], [0, 1, 0], [0, 0, -1]]]
  movej(p[0.716442,-0.274813,-0.039614,0,3.141593,0], a=0.523599, v=0.436332, r=0.005)  # [Transform: move to [716.442, -274.813, -39.614] mm and rotate to [[-1, 0, 0], [0, 1, 0], [0, 0, -1]]]
  movej(p[0.716442,-0.274813,-0.059614,0,3.141593,0], a=0.523599, v=0.436332, r=0.005)  # [Transform: move to [716.442, -274.813, -59.614] mm and rotate to [[-1, 0, 0], [0, 1, 0], [0, 0, -1]]]
  movej(p[0.710564,-0.280501,-0.039735,0,3.141593,0], a=0.523599, v=0.436332, r=0.005)  # [Transform: move to [710.564, -280.501, -39.735] mm and rotate to [[-1, 0, 0], [0, 1, 0], [0, 0, -1]]]
  movej(p[0.710564,-0.280501,-0.059735,0,3.141593,0], a=0.523599, v=0.436332, r=0.005)  # [Transform: move to [710.564, -280.501, -59.735] mm and rotate to [[-1, 0, 0], [0, 1, 0], [0, 0, -1]]]
  movej(p[0.706132,-0.286752,-0.037326,0,3.141593,0], a=0.523599, v=0.436332, r=0.005)  # [Transform: move to [706.132, -286.752, -37.326] mm and rotate to [[-1, 0, 0], [0, 1, 0], [0, 0, -1]]]
  movej(p[0.706132,-0.286752,-0.057326,0,3.141593,0], a=0.523599, v=0.436332, r=0.005)  # [Transform: move to [706.132, -286.752, -57.326] mm and rotate to [[-1, 0, 0], [0, 1, 0], [0, 0, -1]]]
  movej(p[0.676524,-0.283367,-0.038365,0,3.141593,0], a=0.523599, v=0.436332, r=0.005)  # [Transform: move to [676.524, -283.367, -38.365] mm and rotate to [[-1, 0, 0], [0, 1, 0], [0, 0, -1]]]
  movej(p[0.676524,-0.283367,-0.058365,0,3.141593,0], a=0.523599, v=0.436332, r=0.005)  # [Transform: move to [676.524, -283.367, -58.365] mm and rotate to [[-1, 0, 0], [0, 1, 0], [0, 0, -1]]]
  movej(p[0.675936,-0.272878,-0.03803,0,3.141593,0], a=0.523599, v=0.436332, r=0.005)  # [Transform: move to [675.936, -272.878, -38.03] mm and rotate to [[-1, 0, 0], [0, 1, 0], [0, 0, -1]]]
  movej(p[0.675936,-0.272878,-0.05803,0,3.141593,0], a=0.523599, v=0.436332, r=0.005)  # [Transform: move to [675.936, -272.878, -58.03] mm and rotate to [[-1, 0, 0], [0, 1, 0], [0, 0, -1]]]
  movej(p[0.676627,-0.26502,-0.038948,0,3.141593,0], a=0.523599, v=0.436332, r=0.005)  # [Transform: move to [676.627, -265.02, -38.948] mm and rotate to [[-1, 0, 0], [0, 1, 0], [0, 0, -1]]]
  movej(p[0.676627,-0.26502,-0.058948,0,3.141593,0], a=0.523599, v=0.436332, r=0.005)  # [Transform: move to [676.627, -265.02, -58.948] mm and rotate to [[-1, 0, 0], [0, 1, 0], [0, 0, -1]]]
  movej(p[0.677453,-0.257011,-0.037519,0,3.141593,0], a=0.523599, v=0.436332, r=0.005)  # [Transform: move to [677.453, -257.011, -37.519] mm and rotate to [[-1, 0, 0], [0, 1, 0], [0, 0, -1]]]
  movej(p[0.677453,-0.257011,-0.057519,0,3.141593,0], a=0.523599, v=0.436332, r=0.005)  # [Transform: move to [677.453, -257.011, -57.519] mm and rotate to [[-1, 0, 0], [0, 1, 0], [0, 0, -1]]]
  movej(p[0.678947,-0.245988,-0.037597,0,3.141593,0], a=0.523599, v=0.436332, r=0.005)  # [Transform: move to [678.947, -245.988, -37.597] mm and rotate to [[-1, 0, 0], [0, 1, 0], [0, 0, -1]]]
  movej(p[0.678947,-0.245988,-0.057597,0,3.141593,0], a=0.523599, v=0.436332, r=0.005)  # [Transform: move to [678.947, -245.988, -57.597] mm and rotate to [[-1, 0, 0], [0, 1, 0], [0, 0, -1]]]
  movej(p[0.680107,-0.233657,-0.037058,0,3.141593,0], a=0.523599, v=0.436332, r=0.005)  # [Transform: move to [680.107, -233.657, -37.058] mm and rotate to [[-1, 0, 0], [0, 1, 0], [0, 0, -1]]]
  movej(p[0.680107,-0.233657,-0.057058,0,3.141593,0], a=0.523599, v=0.436332, r=0.005)  # [Transform: move to [680.107, -233.657, -57.058] mm and rotate to [[-1, 0, 0], [0, 1, 0], [0, 0, -1]]]
  movej(p[0.674939,-0.226814,-0.038087,0,3.141593,0], a=0.523599, v=0.436332, r=0.005)  # [Transform: move to [674.939, -226.814, -38.087] mm and rotate to [[-1, 0, 0], [0, 1, 0], [0, 0, -1]]]
  movej(p[0.674939,-0.226814,-0.058087,0,3.141593,0], a=0.523599, v=0.436332, r=0.005)  # [Transform: move to [674.939, -226.814, -58.087] mm and rotate to [[-1, 0, 0], [0, 1, 0], [0, 0, -1]]]
  movej(p[0.667176,-0.225005,-0.037029,0,3.141593,0], a=0.523599, v=0.436332, r=0.005)  # [Transform: move to [667.176, -225.005, -37.029] mm and rotate to [[-1, 0, 0], [0, 1, 0], [0, 0, -1]]]
  movej(p[0.667176,-0.225005,-0.057029,0,3.141593,0], a=0.523599, v=0.436332, r=0.005)  # [Transform: move to [667.176, -225.005, -57.029] mm and rotate to [[-1, 0, 0], [0, 1, 0], [0, 0, -1]]]
  movej(p[0.658015,-0.220712,-0.037135,0,3.141593,0], a=0.523599, v=0.436332, r=0.005)  # [Transform: move to [658.015, -220.712, -37.135] mm and rotate to [[-1, 0, 0], [0, 1, 0], [0, 0, -1]]]
  movej(p[0.658015,-0.220712,-0.057135,0,3.141593,0], a=0.523599, v=0.436332, r=0.005)  # [Transform: move to [658.015, -220.712, -57.135] mm and rotate to [[-1, 0, 0], [0, 1, 0], [0, 0, -1]]]
  movej(p[0.648489,-0.216403,-0.039383,0,3.141593,0], a=0.523599, v=0.436332, r=0.005)  # [Transform: move to [648.489, -216.403, -39.383] mm and rotate to [[-1, 0, 0], [0, 1, 0], [0, 0, -1]]]
  movej(p[0.648489,-0.216403,-0.059383,0,3.141593,0], a=0.523599, v=0.436332, r=0.005)  # [Transform: move to [648.489, -216.403, -59.383] mm and rotate to [[-1, 0, 0], [0, 1, 0], [0, 0, -1]]]
  movej(p[0.640934,-0.215149,-0.037263,0,3.141593,0], a=0.523599, v=0.436332, r=0.005)  # [Transform: move to [640.934, -215.149, -37.263] mm and rotate to [[-1, 0, 0], [0, 1, 0], [0, 0, -1]]]
  movej(p[0.640934,-0.215149,-0.057263,0,3.141593,0], a=0.523599, v=0.436332, r=0.005)  # [Transform: move to [640.934, -215.149, -57.263] mm and rotate to [[-1, 0, 0], [0, 1, 0], [0, 0, -1]]]
  movej(p[0.632176,-0.210707,-0.039863,0,3.141593,0], a=0.523599, v=0.436332, r=0.005)  # [Transform: move to [632.176, -210.707, -39.863] mm and rotate to [[-1, 0, 0], [0, 1, 0], [0, 0, -1]]]
  movej(p[0.632176,-0.210707,-0.059863,0,3.141593,0], a=0.523599, v=0.436332, r=0.005)  # [Transform: move to [632.176, -210.707, -59.863] mm and rotate to [[-1, 0, 0], [0, 1, 0], [0, 0, -1]]]
  movej(p[0.630886,-0.20332,-0.037672,0,3.141593,0], a=0.523599, v=0.436332, r=0.005)  # [Transform: move to [630.886, -203.32, -37.672] mm and rotate to [[-1, 0, 0], [0, 1, 0], [0, 0, -1]]]
  movej(p[0.630886,-0.20332,-0.057672,0,3.141593,0], a=0.523599, v=0.436332, r=0.005)  # [Transform: move to [630.886, -203.32, -57.672] mm and rotate to [[-1, 0, 0], [0, 1, 0], [0, 0, -1]]]
  movej(p[0.631521,-0.193767,-0.039297,0,3.141593,0], a=0.523599, v=0.436332, r=0.005)  # [Transform: move to [631.521, -193.767, -39.297] mm and rotate to [[-1, 0, 0], [0, 1, 0], [0, 0, -1]]]
  movej(p[0.631521,-0.193767,-0.059297,0,3.141593,0], a=0.523599, v=0.436332, r=0.005)  # [Transform: move to [631.521, -193.767, -59.297] mm and rotate to [[-1, 0, 0], [0, 1, 0], [0, 0, -1]]]
  movej(p[0.632884,-0.183265,-0.038405,0,3.141593,0], a=0.523599, v=0.436332, r=0.005)  # [Transform: move to [632.884, -183.265, -38.405] mm and rotate to [[-1, 0, 0], [0, 1, 0], [0, 0, -1]]]
  movej(p[0.632884,-0.183265,-0.058405,0,3.141593,0], a=0.523599, v=0.436332, r=0.005)  # [Transform: move to [632.884, -183.265, -58.405] mm and rotate to [[-1, 0, 0], [0, 1, 0], [0, 0, -1]]]
  movej(p[0.628464,-0.174366,-0.03743,0,3.141593,0], a=0.523599, v=0.436332, r=0.005)  # [Transform: move to [628.464, -174.366, -37.43] mm and rotate to [[-1, 0, 0], [0, 1, 0], [0, 0, -1]]]
  movej(p[0.628464,-0.174366,-0.05743,0,3.141593,0], a=0.523599, v=0.436332, r=0.005)  # [Transform: move to [628.464, -174.366, -57.43] mm and rotate to [[-1, 0, 0], [0, 1, 0], [0, 0, -1]]]
  movej(p[0.622096,-0.170355,-0.037619,0,3.141593,0], a=0.523599, v=0.436332, r=0.005)  # [Transform: move to [622.096, -170.355, -37.619] mm and rotate to [[-1, 0, 0], [0, 1, 0], [0, 0, -1]]]
  movej(p[0.622096,-0.170355,-0.057619,0,3.141593,0], a=0.523599, v=0.436332, r=0.005)  # [Transform: move to [622.096, -170.355, -57.619] mm and rotate to [[-1, 0, 0], [0, 1, 0], [0, 0, -1]]]
  movej(p[0.610102,-0.163482,-0.037463,0,3.141593,0], a=0.523599, v=0.436332, r=0.005)  # [Transform: move to [610.102, -163.482, -37.463] mm and rotate to [[-1, 0, 0], [0, 1, 0], [0, 0, -1]]]
  movej(p[0.610102,-0.163482,-0.057463,0,3.141593,0], a=0.523599, v=0.436332, r=0.005)  # [Transform: move to [610.102, -163.482, -57.463] mm and rotate to [[-1, 0, 0], [0, 1, 0], [0, 0, -1]]]
  movej(p[0.606052,-0.155675,-0.039608,0,3.141593,0], a=0.523599, v=0.436332, r=0.005)  # [Transform: move to [606.052, -155.675, -39.608] mm and rotate to [[-1, 0, 0], [0, 1, 0], [0, 0, -1]]]
  movej(p[0.606052,-0.155675,-0.059608,0,3.141593,0], a=0.523599, v=0.436332, r=0.005)  # [Transform: move to [606.052, -155.675, -59.608] mm and rotate to [[-1, 0, 0], [0, 1, 0], [0, 0, -1]]]
  movej(p[0.613019,-0.154629,-0.039338,0,3.141593,0], a=0.523599, v=0.436332, r=0.005)  # [Transform: move to [613.019, -154.629, -39.338] mm and rotate to [[-1, 0, 0], [0, 1, 0], [0, 0, -1]]]
  movej(p[0.613019,-0.154629,-0.059338,0,3.141593,0], a=0.523599, v=0.436332, r=0.005)  # [Transform: move to [613.019, -154.629, -59.338] mm and rotate to [[-1, 0, 0], [0, 1, 0], [0, 0, -1]]]
  movej(p[0.611328,-0.147048,-0.039485,0,3.141593,0], a=0.523599, v=0.436332, r=0.005)  # [Transform: move to [611.328, -147.048, -39.485] mm and rotate to [[-1, 0, 0], [0, 1, 0], [0, 0, -1]]]
  movej(p[0.611328,-0.147048,-0.059485,0,3.141593,0], a=0.523599, v=0.436332, r=0.005)  # [Transform: move to [611.328, -147.048, -59.485] mm and rotate to [[-1, 0, 0], [0, 1, 0], [0, 0, -1]]]
  movej(p[0.618368,-0.137911,-0.037099,0,3.141593,0], a=0.523599, v=0.436332, r=0.005)  # [Transform: move to [618.368, -137.911, -37.099] mm and rotate to [[-1, 0, 0], [0, 1, 0], [0, 0, -1]]]
  movej(p[0.618368,-0.137911,-0.057099,0,3.141593,0], a=0.523599, v=0.436332, r=0.005)  # [Transform: move to [618.368, -137.911, -57.099] mm and rotate to [[-1, 0, 0], [0, 1, 0], [0, 0, -1]]]
  movej(p[0.625737,-0.132531,-0.039681,0,3.141593,0], a=0.523599, v=0.436332, r=0.005)  # [Transform: move to [625.737, -132.531, -39.681] mm and rotate to [[-1, 0, 0], [0, 1, 0], [0, 0, -1]]]
  movej(p[0.625737,-0.132531,-0.059681,0,3.141593,0], a=0.523599, v=0.436332, r=0.005)  # [Transform: move to [625.737, -132.531, -59.681] mm and rotate to [[-1, 0, 0], [0, 1, 0], [0, 0, -1]]]
  movej(p[0.652592,-0.146288,-0.039495,0,3.141593,0], a=0.523599, v=0.436332, r=0.005)  # [Transform: move to [652.592, -146.288, -39.495] mm and rotate to [[-1, 0, 0], [0, 1, 0], [0, 0, -1]]]
  movej(p[0.652592,-0.146288,-0.059495,0,3.141593,0], a=0.523599, v=0.436332, r=0.005)  # [Transform: move to [652.592, -146.288, -59.495] mm and rotate to [[-1, 0, 0], [0, 1, 0], [0, 0, -1]]]
  movej(p[0.650752,-0.158761,-0.038432,0,3.141593,0], a=0.523599, v=0.436332, r=0.005)  # [Transform: move to [650.752, -158.761, -38.432] mm and rotate to [[-1, 0, 0], [0, 1, 0], [0, 0, -1]]]
  movej(p[0.650752,-0.158761,-0.058432,0,3.141593,0], a=0.523599, v=0.436332, r=0.005)  # [Transform: move to [650.752, -158.761, -58.432] mm and rotate to [[-1, 0, 0], [0, 1, 0], [0, 0, -1]]]
  movej(p[0.645522,-0.167423,-0.039291,0,3.141593,0], a=0.523599, v=0.436332, r=0.005)  # [Transform: move to [645.522, -167.423, -39.291] mm and rotate to [[-1, 0, 0], [0, 1, 0], [0, 0, -1]]]
  movej(p[0.645522,-0.167423,-0.059291,0,3.141593,0], a=0.523599, v=0.436332, r=0.005)  # [Transform: move to [645.522, -167.423, -59.291] mm and rotate to [[-1, 0, 0], [0, 1, 0], [0, 0, -1]]]
  movej(p[0.63909,-0.173748,-0.038408,0,3.141593,0], a=0.523599, v=0.436332, r=0.005)  # [Transform: move to [639.09, -173.748, -38.408] mm and rotate to [[-1, 0, 0], [0, 1, 0], [0, 0, -1]]]
  movej(p[0.63909,-0.173748,-0.058408,0,3.141593,0], a=0.523599, v=0.436332, r=0.005)  # [Transform: move to [639.09, -173.748, -58.408] mm and rotate to [[-1, 0, 0], [0, 1, 0], [0, 0, -1]]]
  movej(p[0.60292,-0.170084,-0.039582,0,3.141593,0], a=0.523599, v=0.436332, r=0.005)  # [Transform: move to [602.92, -170.084, -39.582] mm and rotate to [[-1, 0, 0], [0, 1, 0], [0, 0, -1]]]
  movej(p[0.60292,-0.170084,-0.059582,0,3.141593,0], a=0.523599, v=0.436332, r=0.005)  # [Transform: move to [602.92, -170.084, -59.582] mm and rotate to [[-1, 0, 0], [0, 1, 0], [0, 0, -1]]]
  movej(p[0.597625,-0.17872,-0.037188,0,3.141593,0], a=0.523599, v=0.436332, r=0.005)  # [Transform: move to [597.625, -178.72, -37.188] mm and rotate to [[-1, 0, 0], [0, 1, 0], [0, 0, -1]]]
  movej(p[0.597625,-0.17872,-0.057188,0,3.141593,0], a=0.523599, v=0.436332, r=0.005)  # [Transform: move to [597.625, -178.72, -57.188] mm and rotate to [[-1, 0, 0], [0, 1, 0], [0, 0, -1]]]
  movej(p[0.593975,-0.18597,-0.03805,0,3.141593,0], a=0.523599, v=0.436332, r=0.005)  # [Transform: move to [593.975, -185.97, -38.05] mm and rotate to [[-1, 0, 0], [0, 1, 0], [0, 0, -1]]]
  movej(p[0.593975,-0.18597,-0.05805,0,3.141593,0], a=0.523599, v=0.436332, r=0.005)  # [Transform: move to [593.975, -185.97, -58.05] mm and rotate to [[-1, 0, 0], [0, 1, 0], [0, 0, -1]]]
  movej(p[0.591807,-0.195851,-0.038461,0,3.141593,0], a=0.523599, v=0.436332, r=0.005)  # [Transform: move to [591.807, -195.851, -38.461] mm and rotate to [[-1, 0, 0], [0, 1, 0], [0, 0, -1]]]
  movej(p[0.591807,-0.195851,-0.058461,0,3.141593,0], a=0.523599, v=0.436332, r=0.005)  # [Transform: move to [591.807, -195.851, -58.461] mm and rotate to [[-1, 0, 0], [0, 1, 0], [0, 0, -1]]]
  movej(p[0.591726,-0.207144,-0.037089,0,3.141593,0], a=0.523599, v=0.436332, r=0.005)  # [Transform: move to [591.726, -207.144, -37.089] mm and rotate to [[-1, 0, 0], [0, 1, 0], [0, 0, -1]]]
  movej(p[0.591726,-0.207144,-0.057089,0,3.141593,0], a=0.523599, v=0.436332, r=0.005)  # [Transform: move to [591.726, -207.144, -57.089] mm and rotate to [[-1, 0, 0], [0, 1, 0], [0, 0, -1]]]
  movej(p[0.593445,-0.217807,-0.037917,0,3.141593,0], a=0.523599, v=0.436332, r=0.005)  # [Transform: move to [593.445, -217.807, -37.917] mm and rotate to [[-1, 0, 0], [0, 1, 0], [0, 0, -1]]]
  movej(p[0.593445,-0.217807,-0.057917,0,3.141593,0], a=0.523599, v=0.436332, r=0.005)  # [Transform: move to [593.445, -217.807, -57.917] mm and rotate to [[-1, 0, 0], [0, 1, 0], [0, 0, -1]]]
  movej(p[0.597541,-0.22696,-0.038787,0,3.141593,0], a=0.523599, v=0.436332, r=0.005)  # [Transform: move to [597.541, -226.96, -38.787] mm and rotate to [[-1, 0, 0], [0, 1, 0], [0, 0, -1]]]
  movej(p[0.597541,-0.22696,-0.058787,0,3.141593,0], a=0.523599, v=0.436332, r=0.005)  # [Transform: move to [597.541, -226.96, -58.787] mm and rotate to [[-1, 0, 0], [0, 1, 0], [0, 0, -1]]]
  movej(p[0.60148,-0.233953,-0.039224,0,3.141593,0], a=0.523599, v=0.436332, r=0.005)  # [Transform: move to [601.48, -233.953, -39.224] mm and rotate to [[-1, 0, 0], [0, 1, 0], [0, 0, -1]]]
  movej(p[0.60148,-0.233953,-0.059224,0,3.141593,0], a=0.523599, v=0.436332, r=0.005)  # [Transform: move to [601.48, -233.953, -59.224] mm and rotate to [[-1, 0, 0], [0, 1, 0], [0, 0, -1]]]
  movej(p[0.59924,-0.239753,-0.0383,0,3.141593,0], a=0.523599, v=0.436332, r=0.005)  # [Transform: move to [599.24, -239.753, -38.3] mm and rotate to [[-1, 0, 0], [0, 1, 0], [0, 0, -1]]]
  movej(p[0.59924,-0.239753,-0.0583,0,3.141593,0], a=0.523599, v=0.436332, r=0.005)  # [Transform: move to [599.24, -239.753, -58.3] mm and rotate to [[-1, 0, 0], [0, 1, 0], [0, 0, -1]]]
  movej(p[0.601459,-0.246948,-0.038694,0,3.141593,0], a=0.523599, v=0.436332, r=0.005)  # [Transform: move to [601.459, -246.948, -38.694] mm and rotate to [[-1, 0, 0], [0, 1, 0], [0, 0, -1]]]
  movej(p[0.601459,-0.246948,-0.058694,0,3.141593,0], a=0.523599, v=0.436332, r=0.005)  # [Transform: move to [601.459, -246.948, -58.694] mm and rotate to [[-1, 0, 0], [0, 1, 0], [0, 0, -1]]]
  movej(p[0.60421,-0.252933,-0.037314,0,3.141593,0], a=0.523599, v=0.436332, r=0.005)  # [Transform: move to [604.21, -252.933, -37.314] mm and rotate to [[-1, 0, 0], [0, 1, 0], [0, 0, -1]]]
  movej(p[0.60421,-0.252933,-0.057314,0,3.141593,0], a=0.523599, v=0.436332, r=0.005)  # [Transform: move to [604.21, -252.933, -57.314] mm and rotate to [[-1, 0, 0], [0, 1, 0], [0, 0, -1]]]
  movej(p[0.610822,-0.253154,-0.038903,0,3.141593,0], a=0.523599, v=0.436332, r=0.005)  # [Transform: move to [610.822, -253.154, -38.903] mm and rotate to [[-1, 0, 0], [0, 1, 0], [0, 0, -1]]]
  movej(p[0.610822,-0.253154,-0.058903,0,3.141593,0], a=0.523599, v=0.436332, r=0.005)  # [Transform: move to [610.822, -253.154, -58.903] mm and rotate to [[-1, 0, 0], [0, 1, 0], [0, 0, -1]]]
  movej(p[0.618291,-0.257495,-0.039981,0,3.141593,0], a=0.523599, v=0.436332, r=0.005)  # [Transform: move to [618.291, -257.495, -39.981] mm and rotate to [[-1, 0, 0], [0, 1, 0], [0, 0, -1]]]
  movej(p[0.618291,-0.257495,-0.059981,0,3.141593,0], a=0.523599, v=0.436332, r=0.005)  # [Transform: move to [618.291, -257.495, -59.981] mm and rotate to [[-1, 0, 0], [0, 1, 0], [0, 0, -1]]]
  movej(p[0.621153,-0.264354,-0.037938,0,3.141593,0], a=0.523599, v=0.436332, r=0.005)  # [Transform: move to [621.153, -264.354, -37.938] mm and rotate to [[-1, 0, 0], [0, 1, 0], [0, 0, -1]]]
  movej(p[0.621153,-0.264354,-0.057938,0,3.141593,0], a=0.523599, v=0.436332, r=0.005)  # [Transform: move to [621.153, -264.354, -57.938] mm and rotate to [[-1, 0, 0], [0, 1, 0], [0, 0, -1]]]
