## ###\   ###\ #####\  ######\##\  ##\##\###\   ##\ #####\ 
## ####\ ####\##\\\##\##\\\\\\##\  ##\##\####\  ##\##\\\##\
## ##\####\##\#######\##\     #######\##\##\##\ ##\#######\
## ##\\##\\##\##\\\##\##\     ##\\\##\##\##\\##\##\##\\\##\
## ##\ \\\ ##\##\  ##\\######\##\  ##\##\##\ \####\##\  ##\
## \\\     \\\\\\  \\\ \\\\\\\\\\  \\\\\\\\\  \\\\\\\\  \\\
## 
## Program name: slime_mold
## Created: 01/01/2021 23:23:06
## 
## DISCLAIMER: WORKING WITH ROBOTS CAN BE DANGEROUS!
## When using robots in a real-time interactive environment, please make sure:
##     - You have been adequately trained to use that particular machine,
##     - you are in good physical and mental condition,
##     - you are operating the robot under the utmost security measures,
##     - you are following the facility's and facility staff's security protocols,
##     - and the robot has the appropriate guarding in place, including, but not reduced to:
##         e -stops, physical barriers, light curtains, etc.
## The Machina software framework and its generated code is provided as is;
## use at your own risk. This product is not intended for any use that may
## involve potential risks of death (including lifesaving equipment),
## personal injury, or severe property or environmental damage.
## Machina is in a very early stage of development. You are using this software
## at your own risk, no warranties are provided herewith, and unexpected
## results / bugs may arise during its use. Always test and simulate your
## applications thoroughly before running them on a real device.
## The author/s shall not be liable for any injuries, damages or losses
## consequence of using this software in any way whatsoever.
## 
## 
## Copyright(c) 2021 Jose Luis Garcia del Castillo y Lopez
## https://github.com/RobotExMachina
## 
## MIT License
## 
## Permission is hereby granted, free of charge, to any person obtaining a copy
## of this software and associated documentation files(the "Software"), to deal
## in the Software without restriction, including without limitation the rights
## to use, copy, modify, merge, publish, distribute, sublicense, and / or sell
## copies of the Software, and to permit persons to whom the Software is
## furnished to do so, subject to the following conditions:
## 
## The above copyright notice and this permission notice shall be included in all
## copies or substantial portions of the Software.
## 
## THE SOFTWARE IS PROVIDED "AS IS", WITHOUT WARRANTY OF ANY KIND, EXPRESS OR
## IMPLIED, INCLUDING BUT NOT LIMITED TO THE WARRANTIES OF MERCHANTABILITY,
## FITNESS FOR A PARTICULAR PURPOSE AND NONINFRINGEMENT. IN NO EVENT SHALL THE
## AUTHORS OR COPYRIGHT HOLDERS BE LIABLE FOR ANY CLAIM, DAMAGES OR OTHER
## LIABILITY, WHETHER IN AN ACTION OF CONTRACT, TORT OR OTHERWISE, ARISING FROM,
## OUT OF OR IN CONNECTION WITH THE SOFTWARE OR THE USE OR OTHER DEALINGS IN THE
## SOFTWARE.


def slime_mold():

  movej([0,-1.570796,-1.570796,-1.570796,1.570796,0], a=0.523599, v=0.349066, r=0.005)  # [Set joint rotations to [0, -90, -90, -90, 90, 0] deg]
  # [Set motion type to 'Joint']
  # [Set motion speed to 25 mm/s or deg/s]
  movej(p[0.676104,-0.271585,-0.031916,0,3.141593,0], a=0.523599, v=0.436332, r=0.005)  # [Transform: move to [676.104, -271.585, -31.916] mm and rotate to [[-1, 0, 0], [0, 1, 0], [0, 0, -1]]]
  movej(p[0.762434,0.039407,-0.033383,0,3.141593,0], a=0.523599, v=0.436332, r=0.005)  # [Transform: move to [762.434, 39.407, -33.383] mm and rotate to [[-1, 0, 0], [0, 1, 0], [0, 0, -1]]]
  movej(p[0.852339,-0.057651,-0.034336,0,3.141593,0], a=0.523599, v=0.436332, r=0.005)  # [Transform: move to [852.339, -57.651, -34.336] mm and rotate to [[-1, 0, 0], [0, 1, 0], [0, 0, -1]]]
  movej(p[0.841173,-0.046512,-0.03106,0,3.141593,0], a=0.523599, v=0.436332, r=0.005)  # [Transform: move to [841.173, -46.512, -31.06] mm and rotate to [[-1, 0, 0], [0, 1, 0], [0, 0, -1]]]
  movej(p[0.872,-0.021448,-0.034564,0,3.141593,0], a=0.523599, v=0.436332, r=0.005)  # [Transform: move to [872, -21.448, -34.564] mm and rotate to [[-1, 0, 0], [0, 1, 0], [0, 0, -1]]]
  movej(p[0.872,0.014814,-0.033773,0,3.141593,0], a=0.523599, v=0.436332, r=0.005)  # [Transform: move to [872, 14.814, -33.773] mm and rotate to [[-1, 0, 0], [0, 1, 0], [0, 0, -1]]]
  movej(p[0.856849,0.038231,-0.031791,0,3.141593,0], a=0.523599, v=0.436332, r=0.005)  # [Transform: move to [856.849, 38.231, -31.791] mm and rotate to [[-1, 0, 0], [0, 1, 0], [0, 0, -1]]]
  movej(p[0.845845,0.049741,-0.033218,0,3.141593,0], a=0.523599, v=0.436332, r=0.005)  # [Transform: move to [845.845, 49.741, -33.218] mm and rotate to [[-1, 0, 0], [0, 1, 0], [0, 0, -1]]]
  movej(p[0.872,0.058012,-0.0341,0,3.141593,0], a=0.523599, v=0.436332, r=0.005)  # [Transform: move to [872, 58.012, -34.1] mm and rotate to [[-1, 0, 0], [0, 1, 0], [0, 0, -1]]]
  movej(p[0.872,0.084163,-0.034955,0,3.141593,0], a=0.523599, v=0.436332, r=0.005)  # [Transform: move to [872, 84.163, -34.955] mm and rotate to [[-1, 0, 0], [0, 1, 0], [0, 0, -1]]]
  movej(p[0.854775,0.077573,-0.031939,0,3.141593,0], a=0.523599, v=0.436332, r=0.005)  # [Transform: move to [854.775, 77.573, -31.939] mm and rotate to [[-1, 0, 0], [0, 1, 0], [0, 0, -1]]]
  movej(p[0.776122,0.070459,-0.034885,0,3.141593,0], a=0.523599, v=0.436332, r=0.005)  # [Transform: move to [776.122, 70.459, -34.885] mm and rotate to [[-1, 0, 0], [0, 1, 0], [0, 0, -1]]]
  movej(p[0.67469,0.020283,-0.03497,0,3.141593,0], a=0.523599, v=0.436332, r=0.005)  # [Transform: move to [674.69, 20.283, -34.97] mm and rotate to [[-1, 0, 0], [0, 1, 0], [0, 0, -1]]]
  movej(p[0.653774,0.020567,-0.03296,0,3.141593,0], a=0.523599, v=0.436332, r=0.005)  # [Transform: move to [653.774, 20.567, -32.96] mm and rotate to [[-1, 0, 0], [0, 1, 0], [0, 0, -1]]]
  movej(p[0.660527,0.043457,-0.033472,0,3.141593,0], a=0.523599, v=0.436332, r=0.005)  # [Transform: move to [660.527, 43.457, -33.472] mm and rotate to [[-1, 0, 0], [0, 1, 0], [0, 0, -1]]]
  movej(p[0.70758,0.08026,-0.033882,0,3.141593,0], a=0.523599, v=0.436332, r=0.005)  # [Transform: move to [707.58, 80.26, -33.882] mm and rotate to [[-1, 0, 0], [0, 1, 0], [0, 0, -1]]]
  movej(p[0.79458,-0.047255,-0.032188,0,3.141593,0], a=0.523599, v=0.436332, r=0.005)  # [Transform: move to [794.58, -47.255, -32.188] mm and rotate to [[-1, 0, 0], [0, 1, 0], [0, 0, -1]]]
  movej(p[0.77141,-0.042228,-0.034059,0,3.141593,0], a=0.523599, v=0.436332, r=0.005)  # [Transform: move to [771.41, -42.228, -34.059] mm and rotate to [[-1, 0, 0], [0, 1, 0], [0, 0, -1]]]
  movej(p[0.750871,-0.085092,-0.032075,0,3.141593,0], a=0.523599, v=0.436332, r=0.005)  # [Transform: move to [750.871, -85.092, -32.075] mm and rotate to [[-1, 0, 0], [0, 1, 0], [0, 0, -1]]]
  movej(p[0.716627,-0.061315,-0.034644,0,3.141593,0], a=0.523599, v=0.436332, r=0.005)  # [Transform: move to [716.627, -61.315, -34.644] mm and rotate to [[-1, 0, 0], [0, 1, 0], [0, 0, -1]]]
  movej(p[0.755392,-0.035483,-0.034669,0,3.141593,0], a=0.523599, v=0.436332, r=0.005)  # [Transform: move to [755.392, -35.483, -34.669] mm and rotate to [[-1, 0, 0], [0, 1, 0], [0, 0, -1]]]
  movej(p[0.755998,0.026659,-0.033645,0,3.141593,0], a=0.523599, v=0.436332, r=0.005)  # [Transform: move to [755.998, 26.659, -33.645] mm and rotate to [[-1, 0, 0], [0, 1, 0], [0, 0, -1]]]
  movej(p[0.746685,0.013907,-0.03368,0,3.141593,0], a=0.523599, v=0.436332, r=0.005)  # [Transform: move to [746.685, 13.907, -33.68] mm and rotate to [[-1, 0, 0], [0, 1, 0], [0, 0, -1]]]
  movej(p[0.670431,-0.239861,-0.032075,0,3.141593,0], a=0.523599, v=0.436332, r=0.005)  # [Transform: move to [670.431, -239.861, -32.075] mm and rotate to [[-1, 0, 0], [0, 1, 0], [0, 0, -1]]]
  movej(p[0.683432,-0.210064,-0.031416,0,3.141593,0], a=0.523599, v=0.436332, r=0.005)  # [Transform: move to [683.432, -210.064, -31.416] mm and rotate to [[-1, 0, 0], [0, 1, 0], [0, 0, -1]]]
  movej(p[0.727252,-0.141164,-0.031749,0,3.141593,0], a=0.523599, v=0.436332, r=0.005)  # [Transform: move to [727.252, -141.164, -31.749] mm and rotate to [[-1, 0, 0], [0, 1, 0], [0, 0, -1]]]
  movej(p[0.823207,-0.205445,-0.032386,0,3.141593,0], a=0.523599, v=0.436332, r=0.005)  # [Transform: move to [823.207, -205.445, -32.386] mm and rotate to [[-1, 0, 0], [0, 1, 0], [0, 0, -1]]]
  movej(p[0.818408,-0.21768,-0.031293,0,3.141593,0], a=0.523599, v=0.436332, r=0.005)  # [Transform: move to [818.408, -217.68, -31.293] mm and rotate to [[-1, 0, 0], [0, 1, 0], [0, 0, -1]]]
  movej(p[0.792898,-0.210342,-0.034603,0,3.141593,0], a=0.523599, v=0.436332, r=0.005)  # [Transform: move to [792.898, -210.342, -34.603] mm and rotate to [[-1, 0, 0], [0, 1, 0], [0, 0, -1]]]
  movej(p[0.772441,-0.259956,-0.032233,0,3.141593,0], a=0.523599, v=0.436332, r=0.005)  # [Transform: move to [772.441, -259.956, -32.233] mm and rotate to [[-1, 0, 0], [0, 1, 0], [0, 0, -1]]]
  movej(p[0.680411,-0.287034,-0.031298,0,3.141593,0], a=0.523599, v=0.436332, r=0.005)  # [Transform: move to [680.411, -287.034, -31.298] mm and rotate to [[-1, 0, 0], [0, 1, 0], [0, 0, -1]]]
  movej(p[0.697363,-0.297678,-0.031079,0,3.141593,0], a=0.523599, v=0.436332, r=0.005)  # [Transform: move to [697.363, -297.678, -31.079] mm and rotate to [[-1, 0, 0], [0, 1, 0], [0, 0, -1]]]
  movej(p[0.759972,-0.272511,-0.034594,0,3.141593,0], a=0.523599, v=0.436332, r=0.005)  # [Transform: move to [759.972, -272.511, -34.594] mm and rotate to [[-1, 0, 0], [0, 1, 0], [0, 0, -1]]]
  movej(p[0.761584,-0.335003,-0.034845,0,3.141593,0], a=0.523599, v=0.436332, r=0.005)  # [Transform: move to [761.584, -335.003, -34.845] mm and rotate to [[-1, 0, 0], [0, 1, 0], [0, 0, -1]]]
  movej(p[0.598312,-0.328271,-0.058636,0,3.141593,0], a=0.523599, v=0.436332, r=0.005)  # [Transform: move to [598.312, -328.271, -58.636] mm and rotate to [[-1, 0, 0], [0, 1, 0], [0, 0, -1]]]
  movej(p[0.718835,-0.335082,-0.031601,0,3.141593,0], a=0.523599, v=0.436332, r=0.005)  # [Transform: move to [718.835, -335.082, -31.601] mm and rotate to [[-1, 0, 0], [0, 1, 0], [0, 0, -1]]]
  movej(p[0.679899,-0.315545,-0.032252,0,3.141593,0], a=0.523599, v=0.436332, r=0.005)  # [Transform: move to [679.899, -315.545, -32.252] mm and rotate to [[-1, 0, 0], [0, 1, 0], [0, 0, -1]]]
  movej(p[0.592409,-0.322587,-0.032024,0,3.141593,0], a=0.523599, v=0.436332, r=0.005)  # [Transform: move to [592.409, -322.587, -32.024] mm and rotate to [[-1, 0, 0], [0, 1, 0], [0, 0, -1]]]
  movej(p[0.588131,-0.112405,-0.032257,0,3.141593,0], a=0.523599, v=0.436332, r=0.005)  # [Transform: move to [588.131, -112.405, -32.257] mm and rotate to [[-1, 0, 0], [0, 1, 0], [0, 0, -1]]]
  movej(p[0.57967,-0.094516,-0.034628,0,3.141593,0], a=0.523599, v=0.436332, r=0.005)  # [Transform: move to [579.67, -94.516, -34.628] mm and rotate to [[-1, 0, 0], [0, 1, 0], [0, 0, -1]]]
  movej(p[0.593776,-0.008331,-0.034838,0,3.141593,0], a=0.523599, v=0.436332, r=0.005)  # [Transform: move to [593.776, -8.331, -34.838] mm and rotate to [[-1, 0, 0], [0, 1, 0], [0, 0, -1]]]
  movej(p[0.597154,-0.034935,-0.033914,0,3.141593,0], a=0.523599, v=0.436332, r=0.005)  # [Transform: move to [597.154, -34.935, -33.914] mm and rotate to [[-1, 0, 0], [0, 1, 0], [0, 0, -1]]]
  movej(p[0.602042,-0.054254,-0.033947,0,3.141593,0], a=0.523599, v=0.436332, r=0.005)  # [Transform: move to [602.042, -54.254, -33.947] mm and rotate to [[-1, 0, 0], [0, 1, 0], [0, 0, -1]]]
  movej(p[0.643526,-0.089686,-0.033001,0,3.141593,0], a=0.523599, v=0.436332, r=0.005)  # [Transform: move to [643.526, -89.686, -33.001] mm and rotate to [[-1, 0, 0], [0, 1, 0], [0, 0, -1]]]
  movej(p[0.703139,-0.130734,-0.031154,0,3.141593,0], a=0.523599, v=0.436332, r=0.005)  # [Transform: move to [703.139, -130.734, -31.154] mm and rotate to [[-1, 0, 0], [0, 1, 0], [0, 0, -1]]]
  movej(p[0.680178,-0.115979,-0.032776,0,3.141593,0], a=0.523599, v=0.436332, r=0.005)  # [Transform: move to [680.178, -115.979, -32.776] mm and rotate to [[-1, 0, 0], [0, 1, 0], [0, 0, -1]]]
  movej(p[0.649921,-0.141967,-0.03493,0,3.141593,0], a=0.523599, v=0.436332, r=0.005)  # [Transform: move to [649.921, -141.967, -34.93] mm and rotate to [[-1, 0, 0], [0, 1, 0], [0, 0, -1]]]
  movej(p[0.609858,-0.144343,-0.033046,0,3.141593,0], a=0.523599, v=0.436332, r=0.005)  # [Transform: move to [609.858, -144.343, -33.046] mm and rotate to [[-1, 0, 0], [0, 1, 0], [0, 0, -1]]]
  movej(p[0.629537,-0.175278,-0.033631,0,3.141593,0], a=0.523599, v=0.436332, r=0.005)  # [Transform: move to [629.537, -175.278, -33.631] mm and rotate to [[-1, 0, 0], [0, 1, 0], [0, 0, -1]]]
  movej(p[0.611269,-0.165192,-0.033057,0,3.141593,0], a=0.523599, v=0.436332, r=0.005)  # [Transform: move to [611.269, -165.192, -33.057] mm and rotate to [[-1, 0, 0], [0, 1, 0], [0, 0, -1]]]
  movej(p[0.628408,-0.238251,-0.03243,0,3.141593,0], a=0.523599, v=0.436332, r=0.005)  # [Transform: move to [628.408, -238.251, -32.43] mm and rotate to [[-1, 0, 0], [0, 1, 0], [0, 0, -1]]]
  movej(p[0.598891,-0.255635,-0.032519,0,3.141593,0], a=0.523599, v=0.436332, r=0.005)  # [Transform: move to [598.891, -255.635, -32.519] mm and rotate to [[-1, 0, 0], [0, 1, 0], [0, 0, -1]]]
  movej(p[0.6257,-0.294478,-0.034707,0,3.141593,0], a=0.523599, v=0.436332, r=0.005)  # [Transform: move to [625.7, -294.478, -34.707] mm and rotate to [[-1, 0, 0], [0, 1, 0], [0, 0, -1]]]
  movej(p[0.739544,-0.227977,-0.031418,0,3.141593,0], a=0.523599, v=0.436332, r=0.005)  # [Transform: move to [739.544, -227.977, -31.418] mm and rotate to [[-1, 0, 0], [0, 1, 0], [0, 0, -1]]]
  movej(p[0.731561,-0.199587,-0.032619,0,3.141593,0], a=0.523599, v=0.436332, r=0.005)  # [Transform: move to [731.561, -199.587, -32.619] mm and rotate to [[-1, 0, 0], [0, 1, 0], [0, 0, -1]]]
  movej(p[0.743054,-0.203323,-0.033271,0,3.141593,0], a=0.523599, v=0.436332, r=0.005)  # [Transform: move to [743.054, -203.323, -33.271] mm and rotate to [[-1, 0, 0], [0, 1, 0], [0, 0, -1]]]
  movej(p[0.74099,-0.183314,-0.034703,0,3.141593,0], a=0.523599, v=0.436332, r=0.005)  # [Transform: move to [740.99, -183.314, -34.703] mm and rotate to [[-1, 0, 0], [0, 1, 0], [0, 0, -1]]]
  movej(p[0.753004,-0.179203,-0.033261,0,3.141593,0], a=0.523599, v=0.436332, r=0.005)  # [Transform: move to [753.004, -179.203, -33.261] mm and rotate to [[-1, 0, 0], [0, 1, 0], [0, 0, -1]]]
  movej(p[0.805918,-0.11624,-0.034644,0,3.141593,0], a=0.523599, v=0.436332, r=0.005)  # [Transform: move to [805.918, -116.24, -34.644] mm and rotate to [[-1, 0, 0], [0, 1, 0], [0, 0, -1]]]
  movej(p[0.813182,-0.102839,-0.033815,0,3.141593,0], a=0.523599, v=0.436332, r=0.005)  # [Transform: move to [813.182, -102.839, -33.815] mm and rotate to [[-1, 0, 0], [0, 1, 0], [0, 0, -1]]]
  movej(p[0.796953,-0.091578,-0.032387,0,3.141593,0], a=0.523599, v=0.436332, r=0.005)  # [Transform: move to [796.953, -91.578, -32.387] mm and rotate to [[-1, 0, 0], [0, 1, 0], [0, 0, -1]]]
  movej(p[0.808153,-0.076475,-0.031499,0,3.141593,0], a=0.523599, v=0.436332, r=0.005)  # [Transform: move to [808.153, -76.475, -31.499] mm and rotate to [[-1, 0, 0], [0, 1, 0], [0, 0, -1]]]
  movej(p[0.824275,-0.127622,-0.033615,0,3.141593,0], a=0.523599, v=0.436332, r=0.005)  # [Transform: move to [824.275, -127.622, -33.615] mm and rotate to [[-1, 0, 0], [0, 1, 0], [0, 0, -1]]]
  movej(p[0.856854,-0.147139,-0.032867,0,3.141593,0], a=0.523599, v=0.436332, r=0.005)  # [Transform: move to [856.854, -147.139, -32.867] mm and rotate to [[-1, 0, 0], [0, 1, 0], [0, 0, -1]]]
  movej(p[0.872,-0.153458,-0.034657,0,3.141593,0], a=0.523599, v=0.436332, r=0.005)  # [Transform: move to [872, -153.458, -34.657] mm and rotate to [[-1, 0, 0], [0, 1, 0], [0, 0, -1]]]
  movej(p[0.872,-0.187292,-0.031859,0,3.141593,0], a=0.523599, v=0.436332, r=0.005)  # [Transform: move to [872, -187.292, -31.859] mm and rotate to [[-1, 0, 0], [0, 1, 0], [0, 0, -1]]]
  movej(p[0.872,-0.218718,-0.031291,0,3.141593,0], a=0.523599, v=0.436332, r=0.005)  # [Transform: move to [872, -218.718, -31.291] mm and rotate to [[-1, 0, 0], [0, 1, 0], [0, 0, -1]]]
  movej(p[0.872,-0.239556,-0.031124,0,3.141593,0], a=0.523599, v=0.436332, r=0.005)  # [Transform: move to [872, -239.556, -31.124] mm and rotate to [[-1, 0, 0], [0, 1, 0], [0, 0, -1]]]
  movej(p[0.84888,-0.23147,-0.034324,0,3.141593,0], a=0.523599, v=0.436332, r=0.005)  # [Transform: move to [848.88, -231.47, -34.324] mm and rotate to [[-1, 0, 0], [0, 1, 0], [0, 0, -1]]]
  movej(p[0.836009,-0.235478,-0.03287,0,3.141593,0], a=0.523599, v=0.436332, r=0.005)  # [Transform: move to [836.009, -235.478, -32.87] mm and rotate to [[-1, 0, 0], [0, 1, 0], [0, 0, -1]]]
  movej(p[0.83753,-0.261079,-0.032631,0,3.141593,0], a=0.523599, v=0.436332, r=0.005)  # [Transform: move to [837.53, -261.079, -32.631] mm and rotate to [[-1, 0, 0], [0, 1, 0], [0, 0, -1]]]
  movej(p[0.850821,-0.251759,-0.031164,0,3.141593,0], a=0.523599, v=0.436332, r=0.005)  # [Transform: move to [850.821, -251.759, -31.164] mm and rotate to [[-1, 0, 0], [0, 1, 0], [0, 0, -1]]]
  movej(p[0.848543,-0.282815,-0.032801,0,3.141593,0], a=0.523599, v=0.436332, r=0.005)  # [Transform: move to [848.543, -282.815, -32.801] mm and rotate to [[-1, 0, 0], [0, 1, 0], [0, 0, -1]]]
  movej(p[0.872,-0.300923,-0.032447,0,3.141593,0], a=0.523599, v=0.436332, r=0.005)  # [Transform: move to [872, -300.923, -32.447] mm and rotate to [[-1, 0, 0], [0, 1, 0], [0, 0, -1]]]
  movej(p[0.872,-0.330353,-0.034806,0,3.141593,0], a=0.523599, v=0.436332, r=0.005)  # [Transform: move to [872, -330.353, -34.806] mm and rotate to [[-1, 0, 0], [0, 1, 0], [0, 0, -1]]]
  movej(p[0.823645,-0.322088,-0.031756,0,3.141593,0], a=0.523599, v=0.436332, r=0.005)  # [Transform: move to [823.645, -322.088, -31.756] mm and rotate to [[-1, 0, 0], [0, 1, 0], [0, 0, -1]]]
  movej(p[0.793807,-0.331393,-0.034698,0,3.141593,0], a=0.523599, v=0.436332, r=0.005)  # [Transform: move to [793.807, -331.393, -34.698] mm and rotate to [[-1, 0, 0], [0, 1, 0], [0, 0, -1]]]
  movej(p[0.7707,-0.313235,-0.031679,0,3.141593,0], a=0.523599, v=0.436332, r=0.005)  # [Transform: move to [770.7, -313.235, -31.679] mm and rotate to [[-1, 0, 0], [0, 1, 0], [0, 0, -1]]]
  movej(p[0.822276,-0.255325,-0.031921,0,3.141593,0], a=0.523599, v=0.436332, r=0.005)  # [Transform: move to [822.276, -255.325, -31.921] mm and rotate to [[-1, 0, 0], [0, 1, 0], [0, 0, -1]]]
  movej(p[0.753506,-0.235839,-0.03364,0,3.141593,0], a=0.523599, v=0.436332, r=0.005)  # [Transform: move to [753.506, -235.839, -33.64] mm and rotate to [[-1, 0, 0], [0, 1, 0], [0, 0, -1]]]
  movej(p[0.682376,-0.153899,-0.03182,0,3.141593,0], a=0.523599, v=0.436332, r=0.005)  # [Transform: move to [682.376, -153.899, -31.82] mm and rotate to [[-1, 0, 0], [0, 1, 0], [0, 0, -1]]]
  movej(p[0.771698,-0.116646,-0.03434,0,3.141593,0], a=0.523599, v=0.436332, r=0.005)  # [Transform: move to [771.698, -116.646, -34.34] mm and rotate to [[-1, 0, 0], [0, 1, 0], [0, 0, -1]]]
  movej(p[0.872,-0.111918,-0.032662,0,3.141593,0], a=0.523599, v=0.436332, r=0.005)  # [Transform: move to [872, -111.918, -32.662] mm and rotate to [[-1, 0, 0], [0, 1, 0], [0, 0, -1]]]
  movej(p[0.872,-0.08163,-0.032546,0,3.141593,0], a=0.523599, v=0.436332, r=0.005)  # [Transform: move to [872, -81.63, -32.546] mm and rotate to [[-1, 0, 0], [0, 1, 0], [0, 0, -1]]]
  movej(p[0.872,-0.135516,-0.034802,0,3.141593,0], a=0.523599, v=0.436332, r=0.005)  # [Transform: move to [872, -135.516, -34.802] mm and rotate to [[-1, 0, 0], [0, 1, 0], [0, 0, -1]]]
  movej(p[0.804352,0.011946,-0.033779,0,3.141593,0], a=0.523599, v=0.436332, r=0.005)  # [Transform: move to [804.352, 11.946, -33.779] mm and rotate to [[-1, 0, 0], [0, 1, 0], [0, 0, -1]]]
  movej(p[0.802374,0.032944,-0.031373,0,3.141593,0], a=0.523599, v=0.436332, r=0.005)  # [Transform: move to [802.374, 32.944, -31.373] mm and rotate to [[-1, 0, 0], [0, 1, 0], [0, 0, -1]]]
  movej(p[0.696376,-0.03109,-0.034176,0,3.141593,0], a=0.523599, v=0.436332, r=0.005)  # [Transform: move to [696.376, -31.09, -34.176] mm and rotate to [[-1, 0, 0], [0, 1, 0], [0, 0, -1]]]
  movej(p[0.691317,-0.00833,-0.033227,0,3.141593,0], a=0.523599, v=0.436332, r=0.005)  # [Transform: move to [691.317, -8.33, -33.227] mm and rotate to [[-1, 0, 0], [0, 1, 0], [0, 0, -1]]]
  movej(p[0.6527,-0.042681,-0.031365,0,3.141593,0], a=0.523599, v=0.436332, r=0.005)  # [Transform: move to [652.7, -42.681, -31.365] mm and rotate to [[-1, 0, 0], [0, 1, 0], [0, 0, -1]]]
  movej(p[0.676414,-0.054389,-0.031898,0,3.141593,0], a=0.523599, v=0.436332, r=0.005)  # [Transform: move to [676.414, -54.389, -31.898] mm and rotate to [[-1, 0, 0], [0, 1, 0], [0, 0, -1]]]
  movej(p[0.62446,0.071471,-0.03399,0,3.141593,0], a=0.523599, v=0.436332, r=0.005)  # [Transform: move to [624.46, 71.471, -33.99] mm and rotate to [[-1, 0, 0], [0, 1, 0], [0, 0, -1]]]
  movej(p[0.603719,-0.329418,-0.05738,0,3.141593,0], a=0.523599, v=0.436332, r=0.005)  # [Transform: move to [603.719, -329.418, -57.38] mm and rotate to [[-1, 0, 0], [0, 1, 0], [0, 0, -1]]]
  movej(p[0.605911,-0.332105,-0.058443,0,3.141593,0], a=0.523599, v=0.436332, r=0.005)  # [Transform: move to [605.911, -332.105, -58.443] mm and rotate to [[-1, 0, 0], [0, 1, 0], [0, 0, -1]]]
  movej(p[0.613079,-0.332959,-0.05824,0,3.141593,0], a=0.523599, v=0.436332, r=0.005)  # [Transform: move to [613.079, -332.959, -58.24] mm and rotate to [[-1, 0, 0], [0, 1, 0], [0, 0, -1]]]
  movej(p[0.618133,-0.335058,-0.059339,0,3.141593,0], a=0.523599, v=0.436332, r=0.005)  # [Transform: move to [618.133, -335.058, -59.339] mm and rotate to [[-1, 0, 0], [0, 1, 0], [0, 0, -1]]]
  movej(p[0.625557,-0.334962,-0.056299,0,3.141593,0], a=0.523599, v=0.436332, r=0.005)  # [Transform: move to [625.557, -334.962, -56.299] mm and rotate to [[-1, 0, 0], [0, 1, 0], [0, 0, -1]]]
  movej(p[0.625668,-0.330949,-0.05708,0,3.141593,0], a=0.523599, v=0.436332, r=0.005)  # [Transform: move to [625.668, -330.949, -57.08] mm and rotate to [[-1, 0, 0], [0, 1, 0], [0, 0, -1]]]
  movej(p[0.629902,-0.335966,-0.058344,0,3.141593,0], a=0.523599, v=0.436332, r=0.005)  # [Transform: move to [629.902, -335.966, -58.344] mm and rotate to [[-1, 0, 0], [0, 1, 0], [0, 0, -1]]]
  movej(p[0.632454,-0.332096,-0.059295,0,3.141593,0], a=0.523599, v=0.436332, r=0.005)  # [Transform: move to [632.454, -332.096, -59.295] mm and rotate to [[-1, 0, 0], [0, 1, 0], [0, 0, -1]]]
  movej(p[0.639383,-0.331468,-0.057485,0,3.141593,0], a=0.523599, v=0.436332, r=0.005)  # [Transform: move to [639.383, -331.468, -57.485] mm and rotate to [[-1, 0, 0], [0, 1, 0], [0, 0, -1]]]
  movej(p[0.643889,-0.334264,-0.059805,0,3.141593,0], a=0.523599, v=0.436332, r=0.005)  # [Transform: move to [643.889, -334.264, -59.805] mm and rotate to [[-1, 0, 0], [0, 1, 0], [0, 0, -1]]]
  movej(p[0.648134,-0.329488,-0.058722,0,3.141593,0], a=0.523599, v=0.436332, r=0.005)  # [Transform: move to [648.134, -329.488, -58.722] mm and rotate to [[-1, 0, 0], [0, 1, 0], [0, 0, -1]]]
  movej(p[0.65167,-0.329428,-0.056761,0,3.141593,0], a=0.523599, v=0.436332, r=0.005)  # [Transform: move to [651.67, -329.428, -56.761] mm and rotate to [[-1, 0, 0], [0, 1, 0], [0, 0, -1]]]
  movej(p[0.657024,-0.328162,-0.056427,0,3.141593,0], a=0.523599, v=0.436332, r=0.005)  # [Transform: move to [657.024, -328.162, -56.427] mm and rotate to [[-1, 0, 0], [0, 1, 0], [0, 0, -1]]]
  movej(p[0.657709,-0.324074,-0.057267,0,3.141593,0], a=0.523599, v=0.436332, r=0.005)  # [Transform: move to [657.709, -324.074, -57.267] mm and rotate to [[-1, 0, 0], [0, 1, 0], [0, 0, -1]]]
  movej(p[0.659592,-0.32012,-0.059718,0,3.141593,0], a=0.523599, v=0.436332, r=0.005)  # [Transform: move to [659.592, -320.12, -59.718] mm and rotate to [[-1, 0, 0], [0, 1, 0], [0, 0, -1]]]
  movej(p[0.662218,-0.322469,-0.05826,0,3.141593,0], a=0.523599, v=0.436332, r=0.005)  # [Transform: move to [662.218, -322.469, -58.26] mm and rotate to [[-1, 0, 0], [0, 1, 0], [0, 0, -1]]]
  movej(p[0.665928,-0.324169,-0.056612,0,3.141593,0], a=0.523599, v=0.436332, r=0.005)  # [Transform: move to [665.928, -324.169, -56.612] mm and rotate to [[-1, 0, 0], [0, 1, 0], [0, 0, -1]]]
  movej(p[0.667475,-0.319167,-0.056863,0,3.141593,0], a=0.523599, v=0.436332, r=0.005)  # [Transform: move to [667.475, -319.167, -56.863] mm and rotate to [[-1, 0, 0], [0, 1, 0], [0, 0, -1]]]
  movej(p[0.663083,-0.316805,-0.058572,0,3.141593,0], a=0.523599, v=0.436332, r=0.005)  # [Transform: move to [663.083, -316.805, -58.572] mm and rotate to [[-1, 0, 0], [0, 1, 0], [0, 0, -1]]]
  movej(p[0.662609,-0.311518,-0.059024,0,3.141593,0], a=0.523599, v=0.436332, r=0.005)  # [Transform: move to [662.609, -311.518, -59.024] mm and rotate to [[-1, 0, 0], [0, 1, 0], [0, 0, -1]]]
  movej(p[0.667195,-0.311,-0.05734,0,3.141593,0], a=0.523599, v=0.436332, r=0.005)  # [Transform: move to [667.195, -311, -57.34] mm and rotate to [[-1, 0, 0], [0, 1, 0], [0, 0, -1]]]
  movej(p[0.668937,-0.306402,-0.057003,0,3.141593,0], a=0.523599, v=0.436332, r=0.005)  # [Transform: move to [668.937, -306.402, -57.003] mm and rotate to [[-1, 0, 0], [0, 1, 0], [0, 0, -1]]]
  movej(p[0.668719,-0.299773,-0.057995,0,3.141593,0], a=0.523599, v=0.436332, r=0.005)  # [Transform: move to [668.719, -299.773, -57.995] mm and rotate to [[-1, 0, 0], [0, 1, 0], [0, 0, -1]]]
  movej(p[0.672178,-0.297359,-0.058048,0,3.141593,0], a=0.523599, v=0.436332, r=0.005)  # [Transform: move to [672.178, -297.359, -58.048] mm and rotate to [[-1, 0, 0], [0, 1, 0], [0, 0, -1]]]
  movej(p[0.672309,-0.292543,-0.058837,0,3.141593,0], a=0.523599, v=0.436332, r=0.005)  # [Transform: move to [672.309, -292.543, -58.837] mm and rotate to [[-1, 0, 0], [0, 1, 0], [0, 0, -1]]]
  movej(p[0.676281,-0.294312,-0.057069,0,3.141593,0], a=0.523599, v=0.436332, r=0.005)  # [Transform: move to [676.281, -294.312, -57.069] mm and rotate to [[-1, 0, 0], [0, 1, 0], [0, 0, -1]]]
  movej(p[0.676227,-0.290462,-0.058065,0,3.141593,0], a=0.523599, v=0.436332, r=0.005)  # [Transform: move to [676.227, -290.462, -58.065] mm and rotate to [[-1, 0, 0], [0, 1, 0], [0, 0, -1]]]
  movej(p[0.674336,-0.285709,-0.056879,0,3.141593,0], a=0.523599, v=0.436332, r=0.005)  # [Transform: move to [674.336, -285.709, -56.879] mm and rotate to [[-1, 0, 0], [0, 1, 0], [0, 0, -1]]]
  movej(p[0.678968,-0.282207,-0.056486,0,3.141593,0], a=0.523599, v=0.436332, r=0.005)  # [Transform: move to [678.968, -282.207, -56.486] mm and rotate to [[-1, 0, 0], [0, 1, 0], [0, 0, -1]]]
  movej(p[0.682126,-0.280488,-0.057115,0,3.141593,0], a=0.523599, v=0.436332, r=0.005)  # [Transform: move to [682.126, -280.488, -57.115] mm and rotate to [[-1, 0, 0], [0, 1, 0], [0, 0, -1]]]
  movej(p[0.679276,-0.27585,-0.057898,0,3.141593,0], a=0.523599, v=0.436332, r=0.005)  # [Transform: move to [679.276, -275.85, -57.898] mm and rotate to [[-1, 0, 0], [0, 1, 0], [0, 0, -1]]]
  movej(p[0.677081,-0.278371,-0.058959,0,3.141593,0], a=0.523599, v=0.436332, r=0.005)  # [Transform: move to [677.081, -278.371, -58.959] mm and rotate to [[-1, 0, 0], [0, 1, 0], [0, 0, -1]]]
  movej(p[0.672012,-0.27378,-0.056972,0,3.141593,0], a=0.523599, v=0.436332, r=0.005)  # [Transform: move to [672.012, -273.78, -56.972] mm and rotate to [[-1, 0, 0], [0, 1, 0], [0, 0, -1]]]
  movej(p[0.671953,-0.257835,-0.05864,0,3.141593,0], a=0.523599, v=0.436332, r=0.005)  # [Transform: move to [671.953, -257.835, -58.64] mm and rotate to [[-1, 0, 0], [0, 1, 0], [0, 0, -1]]]
  movej(p[0.674172,-0.251338,-0.058783,0,3.141593,0], a=0.523599, v=0.436332, r=0.005)  # [Transform: move to [674.172, -251.338, -58.783] mm and rotate to [[-1, 0, 0], [0, 1, 0], [0, 0, -1]]]
  movej(p[0.677159,-0.243756,-0.059358,0,3.141593,0], a=0.523599, v=0.436332, r=0.005)  # [Transform: move to [677.159, -243.756, -59.358] mm and rotate to [[-1, 0, 0], [0, 1, 0], [0, 0, -1]]]
  movej(p[0.67879,-0.240257,-0.059207,0,3.141593,0], a=0.523599, v=0.436332, r=0.005)  # [Transform: move to [678.79, -240.257, -59.207] mm and rotate to [[-1, 0, 0], [0, 1, 0], [0, 0, -1]]]
  movej(p[0.681946,-0.238633,-0.056467,0,3.141593,0], a=0.523599, v=0.436332, r=0.005)  # [Transform: move to [681.946, -238.633, -56.467] mm and rotate to [[-1, 0, 0], [0, 1, 0], [0, 0, -1]]]
  movej(p[0.68133,-0.242986,-0.056457,0,3.141593,0], a=0.523599, v=0.436332, r=0.005)  # [Transform: move to [681.33, -242.986, -56.457] mm and rotate to [[-1, 0, 0], [0, 1, 0], [0, 0, -1]]]
  movej(p[0.687682,-0.24032,-0.058618,0,3.141593,0], a=0.523599, v=0.436332, r=0.005)  # [Transform: move to [687.682, -240.32, -58.618] mm and rotate to [[-1, 0, 0], [0, 1, 0], [0, 0, -1]]]
  movej(p[0.690958,-0.238497,-0.058336,0,3.141593,0], a=0.523599, v=0.436332, r=0.005)  # [Transform: move to [690.958, -238.497, -58.336] mm and rotate to [[-1, 0, 0], [0, 1, 0], [0, 0, -1]]]
  movej(p[0.691516,-0.234824,-0.057626,0,3.141593,0], a=0.523599, v=0.436332, r=0.005)  # [Transform: move to [691.516, -234.824, -57.626] mm and rotate to [[-1, 0, 0], [0, 1, 0], [0, 0, -1]]]
  movej(p[0.688145,-0.234123,-0.057155,0,3.141593,0], a=0.523599, v=0.436332, r=0.005)  # [Transform: move to [688.145, -234.123, -57.155] mm and rotate to [[-1, 0, 0], [0, 1, 0], [0, 0, -1]]]
  movej(p[0.694019,-0.230276,-0.057015,0,3.141593,0], a=0.523599, v=0.436332, r=0.005)  # [Transform: move to [694.019, -230.276, -57.015] mm and rotate to [[-1, 0, 0], [0, 1, 0], [0, 0, -1]]]
  movej(p[0.69517,-0.226991,-0.056618,0,3.141593,0], a=0.523599, v=0.436332, r=0.005)  # [Transform: move to [695.17, -226.991, -56.618] mm and rotate to [[-1, 0, 0], [0, 1, 0], [0, 0, -1]]]
  movej(p[0.695304,-0.223691,-0.056901,0,3.141593,0], a=0.523599, v=0.436332, r=0.005)  # [Transform: move to [695.304, -223.691, -56.901] mm and rotate to [[-1, 0, 0], [0, 1, 0], [0, 0, -1]]]
  movej(p[0.695542,-0.220601,-0.057119,0,3.141593,0], a=0.523599, v=0.436332, r=0.005)  # [Transform: move to [695.542, -220.601, -57.119] mm and rotate to [[-1, 0, 0], [0, 1, 0], [0, 0, -1]]]
  movej(p[0.696366,-0.216406,-0.058536,0,3.141593,0], a=0.523599, v=0.436332, r=0.005)  # [Transform: move to [696.366, -216.406, -58.536] mm and rotate to [[-1, 0, 0], [0, 1, 0], [0, 0, -1]]]
  movej(p[0.698588,-0.213407,-0.05906,0,3.141593,0], a=0.523599, v=0.436332, r=0.005)  # [Transform: move to [698.588, -213.407, -59.06] mm and rotate to [[-1, 0, 0], [0, 1, 0], [0, 0, -1]]]
  movej(p[0.697301,-0.207693,-0.058113,0,3.141593,0], a=0.523599, v=0.436332, r=0.005)  # [Transform: move to [697.301, -207.693, -58.113] mm and rotate to [[-1, 0, 0], [0, 1, 0], [0, 0, -1]]]
  movej(p[0.700529,-0.205228,-0.058564,0,3.141593,0], a=0.523599, v=0.436332, r=0.005)  # [Transform: move to [700.529, -205.228, -58.564] mm and rotate to [[-1, 0, 0], [0, 1, 0], [0, 0, -1]]]
  movej(p[0.700088,-0.201529,-0.057364,0,3.141593,0], a=0.523599, v=0.436332, r=0.005)  # [Transform: move to [700.088, -201.529, -57.364] mm and rotate to [[-1, 0, 0], [0, 1, 0], [0, 0, -1]]]
  movej(p[0.702577,-0.195994,-0.057793,0,3.141593,0], a=0.523599, v=0.436332, r=0.005)  # [Transform: move to [702.577, -195.994, -57.793] mm and rotate to [[-1, 0, 0], [0, 1, 0], [0, 0, -1]]]
  movej(p[0.701612,-0.191287,-0.057875,0,3.141593,0], a=0.523599, v=0.436332, r=0.005)  # [Transform: move to [701.612, -191.287, -57.875] mm and rotate to [[-1, 0, 0], [0, 1, 0], [0, 0, -1]]]
  movej(p[0.704121,-0.185959,-0.05765,0,3.141593,0], a=0.523599, v=0.436332, r=0.005)  # [Transform: move to [704.121, -185.959, -57.65] mm and rotate to [[-1, 0, 0], [0, 1, 0], [0, 0, -1]]]
  movej(p[0.703673,-0.18173,-0.056377,0,3.141593,0], a=0.523599, v=0.436332, r=0.005)  # [Transform: move to [703.673, -181.73, -56.377] mm and rotate to [[-1, 0, 0], [0, 1, 0], [0, 0, -1]]]
  movej(p[0.700558,-0.182637,-0.056448,0,3.141593,0], a=0.523599, v=0.436332, r=0.005)  # [Transform: move to [700.558, -182.637, -56.448] mm and rotate to [[-1, 0, 0], [0, 1, 0], [0, 0, -1]]]
  movej(p[0.707078,-0.182484,-0.056193,0,3.141593,0], a=0.523599, v=0.436332, r=0.005)  # [Transform: move to [707.078, -182.484, -56.193] mm and rotate to [[-1, 0, 0], [0, 1, 0], [0, 0, -1]]]
  movej(p[0.708581,-0.186899,-0.056502,0,3.141593,0], a=0.523599, v=0.436332, r=0.005)  # [Transform: move to [708.581, -186.899, -56.502] mm and rotate to [[-1, 0, 0], [0, 1, 0], [0, 0, -1]]]
  movej(p[0.707808,-0.177796,-0.05923,0,3.141593,0], a=0.523599, v=0.436332, r=0.005)  # [Transform: move to [707.808, -177.796, -59.23] mm and rotate to [[-1, 0, 0], [0, 1, 0], [0, 0, -1]]]
  movej(p[0.704185,-0.174712,-0.059015,0,3.141593,0], a=0.523599, v=0.436332, r=0.005)  # [Transform: move to [704.185, -174.712, -59.015] mm and rotate to [[-1, 0, 0], [0, 1, 0], [0, 0, -1]]]
  movej(p[0.710878,-0.173891,-0.057465,0,3.141593,0], a=0.523599, v=0.436332, r=0.005)  # [Transform: move to [710.878, -173.891, -57.465] mm and rotate to [[-1, 0, 0], [0, 1, 0], [0, 0, -1]]]
  movej(p[0.712834,-0.17748,-0.058808,0,3.141593,0], a=0.523599, v=0.436332, r=0.005)  # [Transform: move to [712.834, -177.48, -58.808] mm and rotate to [[-1, 0, 0], [0, 1, 0], [0, 0, -1]]]
  movej(p[0.716729,-0.180505,-0.05637,0,3.141593,0], a=0.523599, v=0.436332, r=0.005)  # [Transform: move to [716.729, -180.505, -56.37] mm and rotate to [[-1, 0, 0], [0, 1, 0], [0, 0, -1]]]
  movej(p[0.721307,-0.180239,-0.057907,0,3.141593,0], a=0.523599, v=0.436332, r=0.005)  # [Transform: move to [721.307, -180.239, -57.907] mm and rotate to [[-1, 0, 0], [0, 1, 0], [0, 0, -1]]]
  movej(p[0.724865,-0.181283,-0.059763,0,3.141593,0], a=0.523599, v=0.436332, r=0.005)  # [Transform: move to [724.865, -181.283, -59.763] mm and rotate to [[-1, 0, 0], [0, 1, 0], [0, 0, -1]]]
  movej(p[0.728019,-0.181244,-0.059789,0,3.141593,0], a=0.523599, v=0.436332, r=0.005)  # [Transform: move to [728.019, -181.244, -59.789] mm and rotate to [[-1, 0, 0], [0, 1, 0], [0, 0, -1]]]
  movej(p[0.731659,-0.184522,-0.057786,0,3.141593,0], a=0.523599, v=0.436332, r=0.005)  # [Transform: move to [731.659, -184.522, -57.786] mm and rotate to [[-1, 0, 0], [0, 1, 0], [0, 0, -1]]]
  movej(p[0.734636,-0.183336,-0.058483,0,3.141593,0], a=0.523599, v=0.436332, r=0.005)  # [Transform: move to [734.636, -183.336, -58.483] mm and rotate to [[-1, 0, 0], [0, 1, 0], [0, 0, -1]]]
  movej(p[0.734668,-0.186457,-0.05636,0,3.141593,0], a=0.523599, v=0.436332, r=0.005)  # [Transform: move to [734.668, -186.457, -56.36] mm and rotate to [[-1, 0, 0], [0, 1, 0], [0, 0, -1]]]
  movej(p[0.738043,-0.188492,-0.059053,0,3.141593,0], a=0.523599, v=0.436332, r=0.005)  # [Transform: move to [738.043, -188.492, -59.053] mm and rotate to [[-1, 0, 0], [0, 1, 0], [0, 0, -1]]]
  movej(p[0.734583,-0.192639,-0.056145,0,3.141593,0], a=0.523599, v=0.436332, r=0.005)  # [Transform: move to [734.583, -192.639, -56.145] mm and rotate to [[-1, 0, 0], [0, 1, 0], [0, 0, -1]]]
  movej(p[0.739398,-0.19621,-0.056405,0,3.141593,0], a=0.523599, v=0.436332, r=0.005)  # [Transform: move to [739.398, -196.21, -56.405] mm and rotate to [[-1, 0, 0], [0, 1, 0], [0, 0, -1]]]
  movej(p[0.744657,-0.198481,-0.059954,0,3.141593,0], a=0.523599, v=0.436332, r=0.005)  # [Transform: move to [744.657, -198.481, -59.954] mm and rotate to [[-1, 0, 0], [0, 1, 0], [0, 0, -1]]]
  movej(p[0.747899,-0.202097,-0.056688,0,3.141593,0], a=0.523599, v=0.436332, r=0.005)  # [Transform: move to [747.899, -202.097, -56.688] mm and rotate to [[-1, 0, 0], [0, 1, 0], [0, 0, -1]]]
  movej(p[0.750147,-0.198487,-0.059714,0,3.141593,0], a=0.523599, v=0.436332, r=0.005)  # [Transform: move to [750.147, -198.487, -59.714] mm and rotate to [[-1, 0, 0], [0, 1, 0], [0, 0, -1]]]
  movej(p[0.755084,-0.194571,-0.059848,0,3.141593,0], a=0.523599, v=0.436332, r=0.005)  # [Transform: move to [755.084, -194.571, -59.848] mm and rotate to [[-1, 0, 0], [0, 1, 0], [0, 0, -1]]]
  movej(p[0.758606,-0.197908,-0.05698,0,3.141593,0], a=0.523599, v=0.436332, r=0.005)  # [Transform: move to [758.606, -197.908, -56.98] mm and rotate to [[-1, 0, 0], [0, 1, 0], [0, 0, -1]]]
  movej(p[0.764965,-0.200341,-0.057429,0,3.141593,0], a=0.523599, v=0.436332, r=0.005)  # [Transform: move to [764.965, -200.341, -57.429] mm and rotate to [[-1, 0, 0], [0, 1, 0], [0, 0, -1]]]
  movej(p[0.770551,-0.203162,-0.057937,0,3.141593,0], a=0.523599, v=0.436332, r=0.005)  # [Transform: move to [770.551, -203.162, -57.937] mm and rotate to [[-1, 0, 0], [0, 1, 0], [0, 0, -1]]]
  movej(p[0.776826,-0.204851,-0.05995,0,3.141593,0], a=0.523599, v=0.436332, r=0.005)  # [Transform: move to [776.826, -204.851, -59.95] mm and rotate to [[-1, 0, 0], [0, 1, 0], [0, 0, -1]]]
  movej(p[0.781194,-0.20706,-0.059529,0,3.141593,0], a=0.523599, v=0.436332, r=0.005)  # [Transform: move to [781.194, -207.06, -59.529] mm and rotate to [[-1, 0, 0], [0, 1, 0], [0, 0, -1]]]
  movej(p[0.785572,-0.207965,-0.057818,0,3.141593,0], a=0.523599, v=0.436332, r=0.005)  # [Transform: move to [785.572, -207.965, -57.818] mm and rotate to [[-1, 0, 0], [0, 1, 0], [0, 0, -1]]]
  movej(p[0.786783,-0.213764,-0.058373,0,3.141593,0], a=0.523599, v=0.436332, r=0.005)  # [Transform: move to [786.783, -213.764, -58.373] mm and rotate to [[-1, 0, 0], [0, 1, 0], [0, 0, -1]]]
  movej(p[0.787146,-0.217589,-0.058551,0,3.141593,0], a=0.523599, v=0.436332, r=0.005)  # [Transform: move to [787.146, -217.589, -58.551] mm and rotate to [[-1, 0, 0], [0, 1, 0], [0, 0, -1]]]
  movej(p[0.791382,-0.217944,-0.056534,0,3.141593,0], a=0.523599, v=0.436332, r=0.005)  # [Transform: move to [791.382, -217.944, -56.534] mm and rotate to [[-1, 0, 0], [0, 1, 0], [0, 0, -1]]]
  movej(p[0.7946,-0.220662,-0.057166,0,3.141593,0], a=0.523599, v=0.436332, r=0.005)  # [Transform: move to [794.6, -220.662, -57.166] mm and rotate to [[-1, 0, 0], [0, 1, 0], [0, 0, -1]]]
  movej(p[0.796597,-0.223322,-0.059097,0,3.141593,0], a=0.523599, v=0.436332, r=0.005)  # [Transform: move to [796.597, -223.322, -59.097] mm and rotate to [[-1, 0, 0], [0, 1, 0], [0, 0, -1]]]
  movej(p[0.801525,-0.223526,-0.05699,0,3.141593,0], a=0.523599, v=0.436332, r=0.005)  # [Transform: move to [801.525, -223.526, -56.99] mm and rotate to [[-1, 0, 0], [0, 1, 0], [0, 0, -1]]]
  movej(p[0.801221,-0.220111,-0.058406,0,3.141593,0], a=0.523599, v=0.436332, r=0.005)  # [Transform: move to [801.221, -220.111, -58.406] mm and rotate to [[-1, 0, 0], [0, 1, 0], [0, 0, -1]]]
  movej(p[0.798278,-0.218281,-0.05891,0,3.141593,0], a=0.523599, v=0.436332, r=0.005)  # [Transform: move to [798.278, -218.281, -58.91] mm and rotate to [[-1, 0, 0], [0, 1, 0], [0, 0, -1]]]
  movej(p[0.799888,-0.215489,-0.059014,0,3.141593,0], a=0.523599, v=0.436332, r=0.005)  # [Transform: move to [799.888, -215.489, -59.014] mm and rotate to [[-1, 0, 0], [0, 1, 0], [0, 0, -1]]]
  movej(p[0.802768,-0.212972,-0.059965,0,3.141593,0], a=0.523599, v=0.436332, r=0.005)  # [Transform: move to [802.768, -212.972, -59.965] mm and rotate to [[-1, 0, 0], [0, 1, 0], [0, 0, -1]]]
  movej(p[0.805859,-0.212333,-0.057228,0,3.141593,0], a=0.523599, v=0.436332, r=0.005)  # [Transform: move to [805.859, -212.333, -57.228] mm and rotate to [[-1, 0, 0], [0, 1, 0], [0, 0, -1]]]
  movej(p[0.806665,-0.215669,-0.059604,0,3.141593,0], a=0.523599, v=0.436332, r=0.005)  # [Transform: move to [806.665, -215.669, -59.604] mm and rotate to [[-1, 0, 0], [0, 1, 0], [0, 0, -1]]]
  movej(p[0.807282,-0.219714,-0.05687,0,3.141593,0], a=0.523599, v=0.436332, r=0.005)  # [Transform: move to [807.282, -219.714, -56.87] mm and rotate to [[-1, 0, 0], [0, 1, 0], [0, 0, -1]]]
  movej(p[0.813841,-0.215811,-0.058818,0,3.141593,0], a=0.523599, v=0.436332, r=0.005)  # [Transform: move to [813.841, -215.811, -58.818] mm and rotate to [[-1, 0, 0], [0, 1, 0], [0, 0, -1]]]
  movej(p[0.815924,-0.211645,-0.056785,0,3.141593,0], a=0.523599, v=0.436332, r=0.005)  # [Transform: move to [815.924, -211.645, -56.785] mm and rotate to [[-1, 0, 0], [0, 1, 0], [0, 0, -1]]]
  movej(p[0.818852,-0.214325,-0.059107,0,3.141593,0], a=0.523599, v=0.436332, r=0.005)  # [Transform: move to [818.852, -214.325, -59.107] mm and rotate to [[-1, 0, 0], [0, 1, 0], [0, 0, -1]]]
  movej(p[0.821767,-0.213162,-0.056855,0,3.141593,0], a=0.523599, v=0.436332, r=0.005)  # [Transform: move to [821.767, -213.162, -56.855] mm and rotate to [[-1, 0, 0], [0, 1, 0], [0, 0, -1]]]
  movej(p[0.822483,-0.217719,-0.057111,0,3.141593,0], a=0.523599, v=0.436332, r=0.005)  # [Transform: move to [822.483, -217.719, -57.111] mm and rotate to [[-1, 0, 0], [0, 1, 0], [0, 0, -1]]]
  movej(p[0.823812,-0.220495,-0.059333,0,3.141593,0], a=0.523599, v=0.436332, r=0.005)  # [Transform: move to [823.812, -220.495, -59.333] mm and rotate to [[-1, 0, 0], [0, 1, 0], [0, 0, -1]]]
  movej(p[0.825318,-0.223901,-0.056052,0,3.141593,0], a=0.523599, v=0.436332, r=0.005)  # [Transform: move to [825.318, -223.901, -56.052] mm and rotate to [[-1, 0, 0], [0, 1, 0], [0, 0, -1]]]
  movej(p[0.827331,-0.227053,-0.0587,0,3.141593,0], a=0.523599, v=0.436332, r=0.005)  # [Transform: move to [827.331, -227.053, -58.7] mm and rotate to [[-1, 0, 0], [0, 1, 0], [0, 0, -1]]]
  movej(p[0.830837,-0.226262,-0.05906,0,3.141593,0], a=0.523599, v=0.436332, r=0.005)  # [Transform: move to [830.837, -226.262, -59.06] mm and rotate to [[-1, 0, 0], [0, 1, 0], [0, 0, -1]]]
  movej(p[0.832183,-0.230755,-0.058418,0,3.141593,0], a=0.523599, v=0.436332, r=0.005)  # [Transform: move to [832.183, -230.755, -58.418] mm and rotate to [[-1, 0, 0], [0, 1, 0], [0, 0, -1]]]
  movej(p[0.836273,-0.22795,-0.056959,0,3.141593,0], a=0.523599, v=0.436332, r=0.005)  # [Transform: move to [836.273, -227.95, -56.959] mm and rotate to [[-1, 0, 0], [0, 1, 0], [0, 0, -1]]]
  movej(p[0.839948,-0.229028,-0.057839,0,3.141593,0], a=0.523599, v=0.436332, r=0.005)  # [Transform: move to [839.948, -229.028, -57.839] mm and rotate to [[-1, 0, 0], [0, 1, 0], [0, 0, -1]]]
  movej(p[0.84241,-0.226976,-0.057187,0,3.141593,0], a=0.523599, v=0.436332, r=0.005)  # [Transform: move to [842.41, -226.976, -57.187] mm and rotate to [[-1, 0, 0], [0, 1, 0], [0, 0, -1]]]
  movej(p[0.847864,-0.22655,-0.057936,0,3.141593,0], a=0.523599, v=0.436332, r=0.005)  # [Transform: move to [847.864, -226.55, -57.936] mm and rotate to [[-1, 0, 0], [0, 1, 0], [0, 0, -1]]]
  movej(p[0.850866,-0.224748,-0.056529,0,3.141593,0], a=0.523599, v=0.436332, r=0.005)  # [Transform: move to [850.866, -224.748, -56.529] mm and rotate to [[-1, 0, 0], [0, 1, 0], [0, 0, -1]]]
  movej(p[0.852375,-0.219377,-0.059468,0,3.141593,0], a=0.523599, v=0.436332, r=0.005)  # [Transform: move to [852.375, -219.377, -59.468] mm and rotate to [[-1, 0, 0], [0, 1, 0], [0, 0, -1]]]
  movej(p[0.855464,-0.215362,-0.058764,0,3.141593,0], a=0.523599, v=0.436332, r=0.005)  # [Transform: move to [855.464, -215.362, -58.764] mm and rotate to [[-1, 0, 0], [0, 1, 0], [0, 0, -1]]]
  movej(p[0.85469,-0.212381,-0.058565,0,3.141593,0], a=0.523599, v=0.436332, r=0.005)  # [Transform: move to [854.69, -212.381, -58.565] mm and rotate to [[-1, 0, 0], [0, 1, 0], [0, 0, -1]]]
  movej(p[0.854345,-0.20324,-0.059279,0,3.141593,0], a=0.523599, v=0.436332, r=0.005)  # [Transform: move to [854.345, -203.24, -59.279] mm and rotate to [[-1, 0, 0], [0, 1, 0], [0, 0, -1]]]
  movej(p[0.856139,-0.198823,-0.059485,0,3.141593,0], a=0.523599, v=0.436332, r=0.005)  # [Transform: move to [856.139, -198.823, -59.485] mm and rotate to [[-1, 0, 0], [0, 1, 0], [0, 0, -1]]]
  movej(p[0.856044,-0.192658,-0.059647,0,3.141593,0], a=0.523599, v=0.436332, r=0.005)  # [Transform: move to [856.044, -192.658, -59.647] mm and rotate to [[-1, 0, 0], [0, 1, 0], [0, 0, -1]]]
  movej(p[0.856186,-0.186404,-0.056435,0,3.141593,0], a=0.523599, v=0.436332, r=0.005)  # [Transform: move to [856.186, -186.404, -56.435] mm and rotate to [[-1, 0, 0], [0, 1, 0], [0, 0, -1]]]
  movej(p[0.853795,-0.182329,-0.057819,0,3.141593,0], a=0.523599, v=0.436332, r=0.005)  # [Transform: move to [853.795, -182.329, -57.819] mm and rotate to [[-1, 0, 0], [0, 1, 0], [0, 0, -1]]]
  movej(p[0.853647,-0.178536,-0.057374,0,3.141593,0], a=0.523599, v=0.436332, r=0.005)  # [Transform: move to [853.647, -178.536, -57.374] mm and rotate to [[-1, 0, 0], [0, 1, 0], [0, 0, -1]]]
  movej(p[0.851151,-0.1756,-0.058597,0,3.141593,0], a=0.523599, v=0.436332, r=0.005)  # [Transform: move to [851.151, -175.6, -58.597] mm and rotate to [[-1, 0, 0], [0, 1, 0], [0, 0, -1]]]
  movej(p[0.852936,-0.171952,-0.056692,0,3.141593,0], a=0.523599, v=0.436332, r=0.005)  # [Transform: move to [852.936, -171.952, -56.692] mm and rotate to [[-1, 0, 0], [0, 1, 0], [0, 0, -1]]]
  movej(p[0.850763,-0.168809,-0.056796,0,3.141593,0], a=0.523599, v=0.436332, r=0.005)  # [Transform: move to [850.763, -168.809, -56.796] mm and rotate to [[-1, 0, 0], [0, 1, 0], [0, 0, -1]]]
  movej(p[0.849403,-0.164275,-0.056077,0,3.141593,0], a=0.523599, v=0.436332, r=0.005)  # [Transform: move to [849.403, -164.275, -56.077] mm and rotate to [[-1, 0, 0], [0, 1, 0], [0, 0, -1]]]
  movej(p[0.852484,-0.161946,-0.05745,0,3.141593,0], a=0.523599, v=0.436332, r=0.005)  # [Transform: move to [852.484, -161.946, -57.45] mm and rotate to [[-1, 0, 0], [0, 1, 0], [0, 0, -1]]]
  movej(p[0.845532,-0.15949,-0.056039,0,3.141593,0], a=0.523599, v=0.436332, r=0.005)  # [Transform: move to [845.532, -159.49, -56.039] mm and rotate to [[-1, 0, 0], [0, 1, 0], [0, 0, -1]]]
  movej(p[0.844271,-0.154298,-0.05618,0,3.141593,0], a=0.523599, v=0.436332, r=0.005)  # [Transform: move to [844.271, -154.298, -56.18] mm and rotate to [[-1, 0, 0], [0, 1, 0], [0, 0, -1]]]
  movej(p[0.841399,-0.155683,-0.059178,0,3.141593,0], a=0.523599, v=0.436332, r=0.005)  # [Transform: move to [841.399, -155.683, -59.178] mm and rotate to [[-1, 0, 0], [0, 1, 0], [0, 0, -1]]]
  movej(p[0.839828,-0.1514,-0.05635,0,3.141593,0], a=0.523599, v=0.436332, r=0.005)  # [Transform: move to [839.828, -151.4, -56.35] mm and rotate to [[-1, 0, 0], [0, 1, 0], [0, 0, -1]]]
  movej(p[0.837645,-0.149173,-0.059817,0,3.141593,0], a=0.523599, v=0.436332, r=0.005)  # [Transform: move to [837.645, -149.173, -59.817] mm and rotate to [[-1, 0, 0], [0, 1, 0], [0, 0, -1]]]
  movej(p[0.834943,-0.144732,-0.056896,0,3.141593,0], a=0.523599, v=0.436332, r=0.005)  # [Transform: move to [834.943, -144.732, -56.896] mm and rotate to [[-1, 0, 0], [0, 1, 0], [0, 0, -1]]]
  movej(p[0.836368,-0.141529,-0.059063,0,3.141593,0], a=0.523599, v=0.436332, r=0.005)  # [Transform: move to [836.368, -141.529, -59.063] mm and rotate to [[-1, 0, 0], [0, 1, 0], [0, 0, -1]]]
  movej(p[0.83203,-0.139133,-0.057873,0,3.141593,0], a=0.523599, v=0.436332, r=0.005)  # [Transform: move to [832.03, -139.133, -57.873] mm and rotate to [[-1, 0, 0], [0, 1, 0], [0, 0, -1]]]
  movej(p[0.833049,-0.13414,-0.056574,0,3.141593,0], a=0.523599, v=0.436332, r=0.005)  # [Transform: move to [833.049, -134.14, -56.574] mm and rotate to [[-1, 0, 0], [0, 1, 0], [0, 0, -1]]]
  movej(p[0.82952,-0.132876,-0.056825,0,3.141593,0], a=0.523599, v=0.436332, r=0.005)  # [Transform: move to [829.52, -132.876, -56.825] mm and rotate to [[-1, 0, 0], [0, 1, 0], [0, 0, -1]]]
  movej(p[0.833387,-0.129226,-0.056617,0,3.141593,0], a=0.523599, v=0.436332, r=0.005)  # [Transform: move to [833.387, -129.226, -56.617] mm and rotate to [[-1, 0, 0], [0, 1, 0], [0, 0, -1]]]
  movej(p[0.838135,-0.125524,-0.059477,0,3.141593,0], a=0.523599, v=0.436332, r=0.005)  # [Transform: move to [838.135, -125.524, -59.477] mm and rotate to [[-1, 0, 0], [0, 1, 0], [0, 0, -1]]]
  movej(p[0.839776,-0.122773,-0.059118,0,3.141593,0], a=0.523599, v=0.436332, r=0.005)  # [Transform: move to [839.776, -122.773, -59.118] mm and rotate to [[-1, 0, 0], [0, 1, 0], [0, 0, -1]]]
  movej(p[0.843337,-0.122785,-0.059313,0,3.141593,0], a=0.523599, v=0.436332, r=0.005)  # [Transform: move to [843.337, -122.785, -59.313] mm and rotate to [[-1, 0, 0], [0, 1, 0], [0, 0, -1]]]
  movej(p[0.850665,-0.12197,-0.056132,0,3.141593,0], a=0.523599, v=0.436332, r=0.005)  # [Transform: move to [850.665, -121.97, -56.132] mm and rotate to [[-1, 0, 0], [0, 1, 0], [0, 0, -1]]]
  movej(p[0.852768,-0.112974,-0.059575,0,3.141593,0], a=0.523599, v=0.436332, r=0.005)  # [Transform: move to [852.768, -112.974, -59.575] mm and rotate to [[-1, 0, 0], [0, 1, 0], [0, 0, -1]]]
  movej(p[0.854273,-0.106252,-0.059327,0,3.141593,0], a=0.523599, v=0.436332, r=0.005)  # [Transform: move to [854.273, -106.252, -59.327] mm and rotate to [[-1, 0, 0], [0, 1, 0], [0, 0, -1]]]
  movej(p[0.858771,-0.100816,-0.05791,0,3.141593,0], a=0.523599, v=0.436332, r=0.005)  # [Transform: move to [858.771, -100.816, -57.91] mm and rotate to [[-1, 0, 0], [0, 1, 0], [0, 0, -1]]]
  movej(p[0.859699,-0.091678,-0.059054,0,3.141593,0], a=0.523599, v=0.436332, r=0.005)  # [Transform: move to [859.699, -91.678, -59.054] mm and rotate to [[-1, 0, 0], [0, 1, 0], [0, 0, -1]]]
  movej(p[0.86208,-0.088162,-0.057877,0,3.141593,0], a=0.523599, v=0.436332, r=0.005)  # [Transform: move to [862.08, -88.162, -57.877] mm and rotate to [[-1, 0, 0], [0, 1, 0], [0, 0, -1]]]
  movej(p[0.858622,-0.080849,-0.059442,0,3.141593,0], a=0.523599, v=0.436332, r=0.005)  # [Transform: move to [858.622, -80.849, -59.442] mm and rotate to [[-1, 0, 0], [0, 1, 0], [0, 0, -1]]]
  movej(p[0.860616,-0.077741,-0.05625,0,3.141593,0], a=0.523599, v=0.436332, r=0.005)  # [Transform: move to [860.616, -77.741, -56.25] mm and rotate to [[-1, 0, 0], [0, 1, 0], [0, 0, -1]]]
  movej(p[0.857682,-0.074446,-0.0574,0,3.141593,0], a=0.523599, v=0.436332, r=0.005)  # [Transform: move to [857.682, -74.446, -57.4] mm and rotate to [[-1, 0, 0], [0, 1, 0], [0, 0, -1]]]
  movej(p[0.860433,-0.072665,-0.057948,0,3.141593,0], a=0.523599, v=0.436332, r=0.005)  # [Transform: move to [860.433, -72.665, -57.948] mm and rotate to [[-1, 0, 0], [0, 1, 0], [0, 0, -1]]]
  movej(p[0.860274,-0.06631,-0.056118,0,3.141593,0], a=0.523599, v=0.436332, r=0.005)  # [Transform: move to [860.274, -66.31, -56.118] mm and rotate to [[-1, 0, 0], [0, 1, 0], [0, 0, -1]]]
  movej(p[0.857151,-0.061672,-0.057223,0,3.141593,0], a=0.523599, v=0.436332, r=0.005)  # [Transform: move to [857.151, -61.672, -57.223] mm and rotate to [[-1, 0, 0], [0, 1, 0], [0, 0, -1]]]
  movej(p[0.853121,-0.063311,-0.058383,0,3.141593,0], a=0.523599, v=0.436332, r=0.005)  # [Transform: move to [853.121, -63.311, -58.383] mm and rotate to [[-1, 0, 0], [0, 1, 0], [0, 0, -1]]]
  movej(p[0.848044,-0.064193,-0.058965,0,3.141593,0], a=0.523599, v=0.436332, r=0.005)  # [Transform: move to [848.044, -64.193, -58.965] mm and rotate to [[-1, 0, 0], [0, 1, 0], [0, 0, -1]]]
  movej(p[0.850605,-0.070488,-0.057734,0,3.141593,0], a=0.523599, v=0.436332, r=0.005)  # [Transform: move to [850.605, -70.488, -57.734] mm and rotate to [[-1, 0, 0], [0, 1, 0], [0, 0, -1]]]
  movej(p[0.853362,-0.071967,-0.058259,0,3.141593,0], a=0.523599, v=0.436332, r=0.005)  # [Transform: move to [853.362, -71.967, -58.259] mm and rotate to [[-1, 0, 0], [0, 1, 0], [0, 0, -1]]]
  movej(p[0.844414,-0.071835,-0.056419,0,3.141593,0], a=0.523599, v=0.436332, r=0.005)  # [Transform: move to [844.414, -71.835, -56.419] mm and rotate to [[-1, 0, 0], [0, 1, 0], [0, 0, -1]]]
  movej(p[0.839656,-0.073237,-0.058537,0,3.141593,0], a=0.523599, v=0.436332, r=0.005)  # [Transform: move to [839.656, -73.237, -58.537] mm and rotate to [[-1, 0, 0], [0, 1, 0], [0, 0, -1]]]
  movej(p[0.834417,-0.078054,-0.059975,0,3.141593,0], a=0.523599, v=0.436332, r=0.005)  # [Transform: move to [834.417, -78.054, -59.975] mm and rotate to [[-1, 0, 0], [0, 1, 0], [0, 0, -1]]]
  movej(p[0.828885,-0.082263,-0.057251,0,3.141593,0], a=0.523599, v=0.436332, r=0.005)  # [Transform: move to [828.885, -82.263, -57.251] mm and rotate to [[-1, 0, 0], [0, 1, 0], [0, 0, -1]]]
  movej(p[0.821505,-0.090792,-0.059021,0,3.141593,0], a=0.523599, v=0.436332, r=0.005)  # [Transform: move to [821.505, -90.792, -59.021] mm and rotate to [[-1, 0, 0], [0, 1, 0], [0, 0, -1]]]
  movej(p[0.810055,-0.092547,-0.058238,0,3.141593,0], a=0.523599, v=0.436332, r=0.005)  # [Transform: move to [810.055, -92.547, -58.238] mm and rotate to [[-1, 0, 0], [0, 1, 0], [0, 0, -1]]]
  movej(p[0.800942,-0.089649,-0.057781,0,3.141593,0], a=0.523599, v=0.436332, r=0.005)  # [Transform: move to [800.942, -89.649, -57.781] mm and rotate to [[-1, 0, 0], [0, 1, 0], [0, 0, -1]]]
  movej(p[0.798713,-0.086213,-0.057489,0,3.141593,0], a=0.523599, v=0.436332, r=0.005)  # [Transform: move to [798.713, -86.213, -57.489] mm and rotate to [[-1, 0, 0], [0, 1, 0], [0, 0, -1]]]
  movej(p[0.80207,-0.084839,-0.05737,0,3.141593,0], a=0.523599, v=0.436332, r=0.005)  # [Transform: move to [802.07, -84.839, -57.37] mm and rotate to [[-1, 0, 0], [0, 1, 0], [0, 0, -1]]]
  movej(p[0.805853,-0.083421,-0.05704,0,3.141593,0], a=0.523599, v=0.436332, r=0.005)  # [Transform: move to [805.853, -83.421, -57.04] mm and rotate to [[-1, 0, 0], [0, 1, 0], [0, 0, -1]]]
  movej(p[0.804494,-0.078006,-0.057466,0,3.141593,0], a=0.523599, v=0.436332, r=0.005)  # [Transform: move to [804.494, -78.006, -57.466] mm and rotate to [[-1, 0, 0], [0, 1, 0], [0, 0, -1]]]
  movej(p[0.802834,-0.074692,-0.057595,0,3.141593,0], a=0.523599, v=0.436332, r=0.005)  # [Transform: move to [802.834, -74.692, -57.595] mm and rotate to [[-1, 0, 0], [0, 1, 0], [0, 0, -1]]]
  movej(p[0.805362,-0.072085,-0.05819,0,3.141593,0], a=0.523599, v=0.436332, r=0.005)  # [Transform: move to [805.362, -72.085, -58.19] mm and rotate to [[-1, 0, 0], [0, 1, 0], [0, 0, -1]]]
  movej(p[0.805109,-0.067614,-0.05774,0,3.141593,0], a=0.523599, v=0.436332, r=0.005)  # [Transform: move to [805.109, -67.614, -57.74] mm and rotate to [[-1, 0, 0], [0, 1, 0], [0, 0, -1]]]
  movej(p[0.805217,-0.064166,-0.058662,0,3.141593,0], a=0.523599, v=0.436332, r=0.005)  # [Transform: move to [805.217, -64.166, -58.662] mm and rotate to [[-1, 0, 0], [0, 1, 0], [0, 0, -1]]]
  movej(p[0.806004,-0.05909,-0.056009,0,3.141593,0], a=0.523599, v=0.436332, r=0.005)  # [Transform: move to [806.004, -59.09, -56.009] mm and rotate to [[-1, 0, 0], [0, 1, 0], [0, 0, -1]]]
  movej(p[0.802037,-0.058464,-0.056529,0,3.141593,0], a=0.523599, v=0.436332, r=0.005)  # [Transform: move to [802.037, -58.464, -56.529] mm and rotate to [[-1, 0, 0], [0, 1, 0], [0, 0, -1]]]
  movej(p[0.797582,-0.054499,-0.057122,0,3.141593,0], a=0.523599, v=0.436332, r=0.005)  # [Transform: move to [797.582, -54.499, -57.122] mm and rotate to [[-1, 0, 0], [0, 1, 0], [0, 0, -1]]]
  movej(p[0.802648,-0.050914,-0.057687,0,3.141593,0], a=0.523599, v=0.436332, r=0.005)  # [Transform: move to [802.648, -50.914, -57.687] mm and rotate to [[-1, 0, 0], [0, 1, 0], [0, 0, -1]]]
  movej(p[0.798889,-0.047105,-0.057799,0,3.141593,0], a=0.523599, v=0.436332, r=0.005)  # [Transform: move to [798.889, -47.105, -57.799] mm and rotate to [[-1, 0, 0], [0, 1, 0], [0, 0, -1]]]
  movej(p[0.801063,-0.043883,-0.05927,0,3.141593,0], a=0.523599, v=0.436332, r=0.005)  # [Transform: move to [801.063, -43.883, -59.27] mm and rotate to [[-1, 0, 0], [0, 1, 0], [0, 0, -1]]]
  movej(p[0.804884,-0.038334,-0.058783,0,3.141593,0], a=0.523599, v=0.436332, r=0.005)  # [Transform: move to [804.884, -38.334, -58.783] mm and rotate to [[-1, 0, 0], [0, 1, 0], [0, 0, -1]]]
  movej(p[0.809232,-0.031541,-0.057742,0,3.141593,0], a=0.523599, v=0.436332, r=0.005)  # [Transform: move to [809.232, -31.541, -57.742] mm and rotate to [[-1, 0, 0], [0, 1, 0], [0, 0, -1]]]
  movej(p[0.808539,-0.026956,-0.0582,0,3.141593,0], a=0.523599, v=0.436332, r=0.005)  # [Transform: move to [808.539, -26.956, -58.2] mm and rotate to [[-1, 0, 0], [0, 1, 0], [0, 0, -1]]]
  movej(p[0.810041,-0.024167,-0.058007,0,3.141593,0], a=0.523599, v=0.436332, r=0.005)  # [Transform: move to [810.041, -24.167, -58.007] mm and rotate to [[-1, 0, 0], [0, 1, 0], [0, 0, -1]]]
  movej(p[0.81013,-0.019243,-0.059789,0,3.141593,0], a=0.523599, v=0.436332, r=0.005)  # [Transform: move to [810.13, -19.243, -59.789] mm and rotate to [[-1, 0, 0], [0, 1, 0], [0, 0, -1]]]
  movej(p[0.810832,-0.012995,-0.05878,0,3.141593,0], a=0.523599, v=0.436332, r=0.005)  # [Transform: move to [810.832, -12.995, -58.78] mm and rotate to [[-1, 0, 0], [0, 1, 0], [0, 0, -1]]]
  movej(p[0.813328,-0.00908,-0.05723,0,3.141593,0], a=0.523599, v=0.436332, r=0.005)  # [Transform: move to [813.328, -9.08, -57.23] mm and rotate to [[-1, 0, 0], [0, 1, 0], [0, 0, -1]]]
  movej(p[0.809828,-0.006921,-0.056232,0,3.141593,0], a=0.523599, v=0.436332, r=0.005)  # [Transform: move to [809.828, -6.921, -56.232] mm and rotate to [[-1, 0, 0], [0, 1, 0], [0, 0, -1]]]
  movej(p[0.811222,-0.001713,-0.058594,0,3.141593,0], a=0.523599, v=0.436332, r=0.005)  # [Transform: move to [811.222, -1.713, -58.594] mm and rotate to [[-1, 0, 0], [0, 1, 0], [0, 0, -1]]]
  movej(p[0.811681,0.004416,-0.058513,0,3.141593,0], a=0.523599, v=0.436332, r=0.005)  # [Transform: move to [811.681, 4.416, -58.513] mm and rotate to [[-1, 0, 0], [0, 1, 0], [0, 0, -1]]]
  movej(p[0.81075,0.010919,-0.056098,0,3.141593,0], a=0.523599, v=0.436332, r=0.005)  # [Transform: move to [810.75, 10.919, -56.098] mm and rotate to [[-1, 0, 0], [0, 1, 0], [0, 0, -1]]]
  movej(p[0.815729,0.014861,-0.056139,0,3.141593,0], a=0.523599, v=0.436332, r=0.005)  # [Transform: move to [815.729, 14.861, -56.139] mm and rotate to [[-1, 0, 0], [0, 1, 0], [0, 0, -1]]]
  movej(p[0.820277,0.022685,-0.058315,0,3.141593,0], a=0.523599, v=0.436332, r=0.005)  # [Transform: move to [820.277, 22.685, -58.315] mm and rotate to [[-1, 0, 0], [0, 1, 0], [0, 0, -1]]]
  movej(p[0.823493,0.021172,-0.056407,0,3.141593,0], a=0.523599, v=0.436332, r=0.005)  # [Transform: move to [823.493, 21.172, -56.407] mm and rotate to [[-1, 0, 0], [0, 1, 0], [0, 0, -1]]]
  movej(p[0.826699,0.019054,-0.058081,0,3.141593,0], a=0.523599, v=0.436332, r=0.005)  # [Transform: move to [826.699, 19.054, -58.081] mm and rotate to [[-1, 0, 0], [0, 1, 0], [0, 0, -1]]]
  movej(p[0.82828,0.022246,-0.059501,0,3.141593,0], a=0.523599, v=0.436332, r=0.005)  # [Transform: move to [828.28, 22.246, -59.501] mm and rotate to [[-1, 0, 0], [0, 1, 0], [0, 0, -1]]]
  movej(p[0.82784,0.027913,-0.057867,0,3.141593,0], a=0.523599, v=0.436332, r=0.005)  # [Transform: move to [827.84, 27.913, -57.867] mm and rotate to [[-1, 0, 0], [0, 1, 0], [0, 0, -1]]]
  movej(p[0.822916,0.025529,-0.056292,0,3.141593,0], a=0.523599, v=0.436332, r=0.005)  # [Transform: move to [822.916, 25.529, -56.292] mm and rotate to [[-1, 0, 0], [0, 1, 0], [0, 0, -1]]]
  movej(p[0.819142,0.026087,-0.057894,0,3.141593,0], a=0.523599, v=0.436332, r=0.005)  # [Transform: move to [819.142, 26.087, -57.894] mm and rotate to [[-1, 0, 0], [0, 1, 0], [0, 0, -1]]]
  movej(p[0.816016,0.02541,-0.057794,0,3.141593,0], a=0.523599, v=0.436332, r=0.005)  # [Transform: move to [816.016, 25.41, -57.794] mm and rotate to [[-1, 0, 0], [0, 1, 0], [0, 0, -1]]]
  movej(p[0.817636,0.029495,-0.057838,0,3.141593,0], a=0.523599, v=0.436332, r=0.005)  # [Transform: move to [817.636, 29.495, -57.838] mm and rotate to [[-1, 0, 0], [0, 1, 0], [0, 0, -1]]]
  movej(p[0.814591,0.031823,-0.05654,0,3.141593,0], a=0.523599, v=0.436332, r=0.005)  # [Transform: move to [814.591, 31.823, -56.54] mm and rotate to [[-1, 0, 0], [0, 1, 0], [0, 0, -1]]]
  movej(p[0.804097,0.037211,-0.058014,0,3.141593,0], a=0.523599, v=0.436332, r=0.005)  # [Transform: move to [804.097, 37.211, -58.014] mm and rotate to [[-1, 0, 0], [0, 1, 0], [0, 0, -1]]]
  movej(p[0.800982,0.038677,-0.056411,0,3.141593,0], a=0.523599, v=0.436332, r=0.005)  # [Transform: move to [800.982, 38.677, -56.411] mm and rotate to [[-1, 0, 0], [0, 1, 0], [0, 0, -1]]]
  movej(p[0.802928,0.043736,-0.057847,0,3.141593,0], a=0.523599, v=0.436332, r=0.005)  # [Transform: move to [802.928, 43.736, -57.847] mm and rotate to [[-1, 0, 0], [0, 1, 0], [0, 0, -1]]]
  movej(p[0.800839,0.049628,-0.058061,0,3.141593,0], a=0.523599, v=0.436332, r=0.005)  # [Transform: move to [800.839, 49.628, -58.061] mm and rotate to [[-1, 0, 0], [0, 1, 0], [0, 0, -1]]]
  movej(p[0.798356,0.052695,-0.05966,0,3.141593,0], a=0.523599, v=0.436332, r=0.005)  # [Transform: move to [798.356, 52.695, -59.66] mm and rotate to [[-1, 0, 0], [0, 1, 0], [0, 0, -1]]]
  movej(p[0.790213,0.055073,-0.059286,0,3.141593,0], a=0.523599, v=0.436332, r=0.005)  # [Transform: move to [790.213, 55.073, -59.286] mm and rotate to [[-1, 0, 0], [0, 1, 0], [0, 0, -1]]]
  movej(p[0.78641,0.053184,-0.05611,0,3.141593,0], a=0.523599, v=0.436332, r=0.005)  # [Transform: move to [786.41, 53.184, -56.11] mm and rotate to [[-1, 0, 0], [0, 1, 0], [0, 0, -1]]]
  movej(p[0.784508,0.055538,-0.056694,0,3.141593,0], a=0.523599, v=0.436332, r=0.005)  # [Transform: move to [784.508, 55.538, -56.694] mm and rotate to [[-1, 0, 0], [0, 1, 0], [0, 0, -1]]]
  movej(p[0.77826,0.053945,-0.057261,0,3.141593,0], a=0.523599, v=0.436332, r=0.005)  # [Transform: move to [778.26, 53.945, -57.261] mm and rotate to [[-1, 0, 0], [0, 1, 0], [0, 0, -1]]]
  movej(p[0.774762,0.048374,-0.057278,0,3.141593,0], a=0.523599, v=0.436332, r=0.005)  # [Transform: move to [774.762, 48.374, -57.278] mm and rotate to [[-1, 0, 0], [0, 1, 0], [0, 0, -1]]]
  movej(p[0.772455,0.04599,-0.059935,0,3.141593,0], a=0.523599, v=0.436332, r=0.005)  # [Transform: move to [772.455, 45.99, -59.935] mm and rotate to [[-1, 0, 0], [0, 1, 0], [0, 0, -1]]]
  movej(p[0.769422,0.046095,-0.058989,0,3.141593,0], a=0.523599, v=0.436332, r=0.005)  # [Transform: move to [769.422, 46.095, -58.989] mm and rotate to [[-1, 0, 0], [0, 1, 0], [0, 0, -1]]]
  movej(p[0.765112,0.0435,-0.057636,0,3.141593,0], a=0.523599, v=0.436332, r=0.005)  # [Transform: move to [765.112, 43.5, -57.636] mm and rotate to [[-1, 0, 0], [0, 1, 0], [0, 0, -1]]]
  movej(p[0.75161,0.032743,-0.056795,0,3.141593,0], a=0.523599, v=0.436332, r=0.005)  # [Transform: move to [751.61, 32.743, -56.795] mm and rotate to [[-1, 0, 0], [0, 1, 0], [0, 0, -1]]]
  movej(p[0.748104,0.037468,-0.057775,0,3.141593,0], a=0.523599, v=0.436332, r=0.005)  # [Transform: move to [748.104, 37.468, -57.775] mm and rotate to [[-1, 0, 0], [0, 1, 0], [0, 0, -1]]]
  movej(p[0.746105,0.045166,-0.059243,0,3.141593,0], a=0.523599, v=0.436332, r=0.005)  # [Transform: move to [746.105, 45.166, -59.243] mm and rotate to [[-1, 0, 0], [0, 1, 0], [0, 0, -1]]]
  movej(p[0.744695,0.051587,-0.059232,0,3.141593,0], a=0.523599, v=0.436332, r=0.005)  # [Transform: move to [744.695, 51.587, -59.232] mm and rotate to [[-1, 0, 0], [0, 1, 0], [0, 0, -1]]]
  movej(p[0.745259,0.056993,-0.059458,0,3.141593,0], a=0.523599, v=0.436332, r=0.005)  # [Transform: move to [745.259, 56.993, -59.458] mm and rotate to [[-1, 0, 0], [0, 1, 0], [0, 0, -1]]]
  movej(p[0.745193,0.061633,-0.056551,0,3.141593,0], a=0.523599, v=0.436332, r=0.005)  # [Transform: move to [745.193, 61.633, -56.551] mm and rotate to [[-1, 0, 0], [0, 1, 0], [0, 0, -1]]]
  movej(p[0.742275,0.063268,-0.057257,0,3.141593,0], a=0.523599, v=0.436332, r=0.005)  # [Transform: move to [742.275, 63.268, -57.257] mm and rotate to [[-1, 0, 0], [0, 1, 0], [0, 0, -1]]]
  movej(p[0.739558,0.070972,-0.058775,0,3.141593,0], a=0.523599, v=0.436332, r=0.005)  # [Transform: move to [739.558, 70.972, -58.775] mm and rotate to [[-1, 0, 0], [0, 1, 0], [0, 0, -1]]]
  movej(p[0.742206,0.075489,-0.058527,0,3.141593,0], a=0.523599, v=0.436332, r=0.005)  # [Transform: move to [742.206, 75.489, -58.527] mm and rotate to [[-1, 0, 0], [0, 1, 0], [0, 0, -1]]]
  movej(p[0.745078,0.074429,-0.057368,0,3.141593,0], a=0.523599, v=0.436332, r=0.005)  # [Transform: move to [745.078, 74.429, -57.368] mm and rotate to [[-1, 0, 0], [0, 1, 0], [0, 0, -1]]]
  movej(p[0.749448,0.074627,-0.057456,0,3.141593,0], a=0.523599, v=0.436332, r=0.005)  # [Transform: move to [749.448, 74.627, -57.456] mm and rotate to [[-1, 0, 0], [0, 1, 0], [0, 0, -1]]]
  movej(p[0.755751,0.073939,-0.059875,0,3.141593,0], a=0.523599, v=0.436332, r=0.005)  # [Transform: move to [755.751, 73.939, -59.875] mm and rotate to [[-1, 0, 0], [0, 1, 0], [0, 0, -1]]]
  movej(p[0.754396,0.07028,-0.057333,0,3.141593,0], a=0.523599, v=0.436332, r=0.005)  # [Transform: move to [754.396, 70.28, -57.333] mm and rotate to [[-1, 0, 0], [0, 1, 0], [0, 0, -1]]]
  movej(p[0.762687,0.074959,-0.056581,0,3.141593,0], a=0.523599, v=0.436332, r=0.005)  # [Transform: move to [762.687, 74.959, -56.581] mm and rotate to [[-1, 0, 0], [0, 1, 0], [0, 0, -1]]]
  movej(p[0.767859,0.073976,-0.056507,0,3.141593,0], a=0.523599, v=0.436332, r=0.005)  # [Transform: move to [767.859, 73.976, -56.507] mm and rotate to [[-1, 0, 0], [0, 1, 0], [0, 0, -1]]]
  movej(p[0.770475,0.077421,-0.058662,0,3.141593,0], a=0.523599, v=0.436332, r=0.005)  # [Transform: move to [770.475, 77.421, -58.662] mm and rotate to [[-1, 0, 0], [0, 1, 0], [0, 0, -1]]]
  movej(p[0.772365,0.073453,-0.05683,0,3.141593,0], a=0.523599, v=0.436332, r=0.005)  # [Transform: move to [772.365, 73.453, -56.83] mm and rotate to [[-1, 0, 0], [0, 1, 0], [0, 0, -1]]]
  movej(p[0.775042,0.076687,-0.059793,0,3.141593,0], a=0.523599, v=0.436332, r=0.005)  # [Transform: move to [775.042, 76.687, -59.793] mm and rotate to [[-1, 0, 0], [0, 1, 0], [0, 0, -1]]]
  movej(p[0.77602,0.080422,-0.056004,0,3.141593,0], a=0.523599, v=0.436332, r=0.005)  # [Transform: move to [776.02, 80.422, -56.004] mm and rotate to [[-1, 0, 0], [0, 1, 0], [0, 0, -1]]]
  movej(p[0.778973,0.075347,-0.057431,0,3.141593,0], a=0.523599, v=0.436332, r=0.005)  # [Transform: move to [778.973, 75.347, -57.431] mm and rotate to [[-1, 0, 0], [0, 1, 0], [0, 0, -1]]]
  movej(p[0.782564,0.075085,-0.058243,0,3.141593,0], a=0.523599, v=0.436332, r=0.005)  # [Transform: move to [782.564, 75.085, -58.243] mm and rotate to [[-1, 0, 0], [0, 1, 0], [0, 0, -1]]]
  movej(p[0.786627,0.07406,-0.059728,0,3.141593,0], a=0.523599, v=0.436332, r=0.005)  # [Transform: move to [786.627, 74.06, -59.728] mm and rotate to [[-1, 0, 0], [0, 1, 0], [0, 0, -1]]]
  movej(p[0.78897,0.078118,-0.057789,0,3.141593,0], a=0.523599, v=0.436332, r=0.005)  # [Transform: move to [788.97, 78.118, -57.789] mm and rotate to [[-1, 0, 0], [0, 1, 0], [0, 0, -1]]]
  movej(p[0.791131,0.076015,-0.05616,0,3.141593,0], a=0.523599, v=0.436332, r=0.005)  # [Transform: move to [791.131, 76.015, -56.16] mm and rotate to [[-1, 0, 0], [0, 1, 0], [0, 0, -1]]]
  movej(p[0.794088,0.074509,-0.057728,0,3.141593,0], a=0.523599, v=0.436332, r=0.005)  # [Transform: move to [794.088, 74.509, -57.728] mm and rotate to [[-1, 0, 0], [0, 1, 0], [0, 0, -1]]]
  movej(p[0.797998,0.069536,-0.05912,0,3.141593,0], a=0.523599, v=0.436332, r=0.005)  # [Transform: move to [797.998, 69.536, -59.12] mm and rotate to [[-1, 0, 0], [0, 1, 0], [0, 0, -1]]]
  movej(p[0.799068,0.065528,-0.057944,0,3.141593,0], a=0.523599, v=0.436332, r=0.005)  # [Transform: move to [799.068, 65.528, -57.944] mm and rotate to [[-1, 0, 0], [0, 1, 0], [0, 0, -1]]]
  movej(p[0.802382,0.067678,-0.056122,0,3.141593,0], a=0.523599, v=0.436332, r=0.005)  # [Transform: move to [802.382, 67.678, -56.122] mm and rotate to [[-1, 0, 0], [0, 1, 0], [0, 0, -1]]]
  movej(p[0.804738,0.070226,-0.0579,0,3.141593,0], a=0.523599, v=0.436332, r=0.005)  # [Transform: move to [804.738, 70.226, -57.9] mm and rotate to [[-1, 0, 0], [0, 1, 0], [0, 0, -1]]]
  movej(p[0.806929,0.072604,-0.057253,0,3.141593,0], a=0.523599, v=0.436332, r=0.005)  # [Transform: move to [806.929, 72.604, -57.253] mm and rotate to [[-1, 0, 0], [0, 1, 0], [0, 0, -1]]]
  movej(p[0.801854,0.073391,-0.05882,0,3.141593,0], a=0.523599, v=0.436332, r=0.005)  # [Transform: move to [801.854, 73.391, -58.82] mm and rotate to [[-1, 0, 0], [0, 1, 0], [0, 0, -1]]]
  movej(p[0.810671,0.077765,-0.056204,0,3.141593,0], a=0.523599, v=0.436332, r=0.005)  # [Transform: move to [810.671, 77.765, -56.204] mm and rotate to [[-1, 0, 0], [0, 1, 0], [0, 0, -1]]]
  movej(p[0.814388,0.080106,-0.059326,0,3.141593,0], a=0.523599, v=0.436332, r=0.005)  # [Transform: move to [814.388, 80.106, -59.326] mm and rotate to [[-1, 0, 0], [0, 1, 0], [0, 0, -1]]]
  movej(p[0.819802,0.079551,-0.05877,0,3.141593,0], a=0.523599, v=0.436332, r=0.005)  # [Transform: move to [819.802, 79.551, -58.77] mm and rotate to [[-1, 0, 0], [0, 1, 0], [0, 0, -1]]]
  movej(p[0.826053,0.079763,-0.057286,0,3.141593,0], a=0.523599, v=0.436332, r=0.005)  # [Transform: move to [826.053, 79.763, -57.286] mm and rotate to [[-1, 0, 0], [0, 1, 0], [0, 0, -1]]]
  movej(p[0.833556,0.076596,-0.057726,0,3.141593,0], a=0.523599, v=0.436332, r=0.005)  # [Transform: move to [833.556, 76.596, -57.726] mm and rotate to [[-1, 0, 0], [0, 1, 0], [0, 0, -1]]]
  movej(p[0.840018,0.076171,-0.058624,0,3.141593,0], a=0.523599, v=0.436332, r=0.005)  # [Transform: move to [840.018, 76.171, -58.624] mm and rotate to [[-1, 0, 0], [0, 1, 0], [0, 0, -1]]]
  movej(p[0.846709,0.069288,-0.057059,0,3.141593,0], a=0.523599, v=0.436332, r=0.005)  # [Transform: move to [846.709, 69.288, -57.059] mm and rotate to [[-1, 0, 0], [0, 1, 0], [0, 0, -1]]]
  movej(p[0.848577,0.071729,-0.058436,0,3.141593,0], a=0.523599, v=0.436332, r=0.005)  # [Transform: move to [848.577, 71.729, -58.436] mm and rotate to [[-1, 0, 0], [0, 1, 0], [0, 0, -1]]]
  movej(p[0.849696,0.074691,-0.057243,0,3.141593,0], a=0.523599, v=0.436332, r=0.005)  # [Transform: move to [849.696, 74.691, -57.243] mm and rotate to [[-1, 0, 0], [0, 1, 0], [0, 0, -1]]]
  movej(p[0.852812,0.072711,-0.056581,0,3.141593,0], a=0.523599, v=0.436332, r=0.005)  # [Transform: move to [852.812, 72.711, -56.581] mm and rotate to [[-1, 0, 0], [0, 1, 0], [0, 0, -1]]]
  movej(p[0.851805,0.069472,-0.057765,0,3.141593,0], a=0.523599, v=0.436332, r=0.005)  # [Transform: move to [851.805, 69.472, -57.765] mm and rotate to [[-1, 0, 0], [0, 1, 0], [0, 0, -1]]]
  movej(p[0.847038,0.063399,-0.059486,0,3.141593,0], a=0.523599, v=0.436332, r=0.005)  # [Transform: move to [847.038, 63.399, -59.486] mm and rotate to [[-1, 0, 0], [0, 1, 0], [0, 0, -1]]]
  movej(p[0.851038,0.060076,-0.059043,0,3.141593,0], a=0.523599, v=0.436332, r=0.005)  # [Transform: move to [851.038, 60.076, -59.043] mm and rotate to [[-1, 0, 0], [0, 1, 0], [0, 0, -1]]]
  movej(p[0.848684,0.055488,-0.056391,0,3.141593,0], a=0.523599, v=0.436332, r=0.005)  # [Transform: move to [848.684, 55.488, -56.391] mm and rotate to [[-1, 0, 0], [0, 1, 0], [0, 0, -1]]]
  movej(p[0.854618,0.054625,-0.058186,0,3.141593,0], a=0.523599, v=0.436332, r=0.005)  # [Transform: move to [854.618, 54.625, -58.186] mm and rotate to [[-1, 0, 0], [0, 1, 0], [0, 0, -1]]]
  movej(p[0.857042,0.048464,-0.058327,0,3.141593,0], a=0.523599, v=0.436332, r=0.005)  # [Transform: move to [857.042, 48.464, -58.327] mm and rotate to [[-1, 0, 0], [0, 1, 0], [0, 0, -1]]]
  movej(p[0.85819,0.044928,-0.058705,0,3.141593,0], a=0.523599, v=0.436332, r=0.005)  # [Transform: move to [858.19, 44.928, -58.705] mm and rotate to [[-1, 0, 0], [0, 1, 0], [0, 0, -1]]]
  movej(p[0.853151,0.043502,-0.059602,0,3.141593,0], a=0.523599, v=0.436332, r=0.005)  # [Transform: move to [853.151, 43.502, -59.602] mm and rotate to [[-1, 0, 0], [0, 1, 0], [0, 0, -1]]]
  movej(p[0.848895,0.042407,-0.058032,0,3.141593,0], a=0.523599, v=0.436332, r=0.005)  # [Transform: move to [848.895, 42.407, -58.032] mm and rotate to [[-1, 0, 0], [0, 1, 0], [0, 0, -1]]]
  movej(p[0.846001,0.040335,-0.05643,0,3.141593,0], a=0.523599, v=0.436332, r=0.005)  # [Transform: move to [846.001, 40.335, -56.43] mm and rotate to [[-1, 0, 0], [0, 1, 0], [0, 0, -1]]]
  movej(p[0.841207,0.043647,-0.057485,0,3.141593,0], a=0.523599, v=0.436332, r=0.005)  # [Transform: move to [841.207, 43.647, -57.485] mm and rotate to [[-1, 0, 0], [0, 1, 0], [0, 0, -1]]]
  movej(p[0.839464,0.03764,-0.05993,0,3.141593,0], a=0.523599, v=0.436332, r=0.005)  # [Transform: move to [839.464, 37.64, -59.93] mm and rotate to [[-1, 0, 0], [0, 1, 0], [0, 0, -1]]]
  movej(p[0.847084,0.028815,-0.057558,0,3.141593,0], a=0.523599, v=0.436332, r=0.005)  # [Transform: move to [847.084, 28.815, -57.558] mm and rotate to [[-1, 0, 0], [0, 1, 0], [0, 0, -1]]]
  movej(p[0.846255,0.024028,-0.059394,0,3.141593,0], a=0.523599, v=0.436332, r=0.005)  # [Transform: move to [846.255, 24.028, -59.394] mm and rotate to [[-1, 0, 0], [0, 1, 0], [0, 0, -1]]]
  movej(p[0.842122,0.023521,-0.057067,0,3.141593,0], a=0.523599, v=0.436332, r=0.005)  # [Transform: move to [842.122, 23.521, -57.067] mm and rotate to [[-1, 0, 0], [0, 1, 0], [0, 0, -1]]]
  movej(p[0.837544,0.022493,-0.059986,0,3.141593,0], a=0.523599, v=0.436332, r=0.005)  # [Transform: move to [837.544, 22.493, -59.986] mm and rotate to [[-1, 0, 0], [0, 1, 0], [0, 0, -1]]]
  movej(p[0.837878,0.019408,-0.059083,0,3.141593,0], a=0.523599, v=0.436332, r=0.005)  # [Transform: move to [837.878, 19.408, -59.083] mm and rotate to [[-1, 0, 0], [0, 1, 0], [0, 0, -1]]]
  movej(p[0.835665,0.015218,-0.057504,0,3.141593,0], a=0.523599, v=0.436332, r=0.005)  # [Transform: move to [835.665, 15.218, -57.504] mm and rotate to [[-1, 0, 0], [0, 1, 0], [0, 0, -1]]]
  movej(p[0.838488,0.012778,-0.056338,0,3.141593,0], a=0.523599, v=0.436332, r=0.005)  # [Transform: move to [838.488, 12.778, -56.338] mm and rotate to [[-1, 0, 0], [0, 1, 0], [0, 0, -1]]]
  movej(p[0.834465,0.01134,-0.058607,0,3.141593,0], a=0.523599, v=0.436332, r=0.005)  # [Transform: move to [834.465, 11.34, -58.607] mm and rotate to [[-1, 0, 0], [0, 1, 0], [0, 0, -1]]]
  movej(p[0.83168,0.015607,-0.057135,0,3.141593,0], a=0.523599, v=0.436332, r=0.005)  # [Transform: move to [831.68, 15.607, -57.135] mm and rotate to [[-1, 0, 0], [0, 1, 0], [0, 0, -1]]]
  movej(p[0.840014,0.007633,-0.056875,0,3.141593,0], a=0.523599, v=0.436332, r=0.005)  # [Transform: move to [840.014, 7.633, -56.875] mm and rotate to [[-1, 0, 0], [0, 1, 0], [0, 0, -1]]]
  movej(p[0.838548,0.004195,-0.057275,0,3.141593,0], a=0.523599, v=0.436332, r=0.005)  # [Transform: move to [838.548, 4.195, -57.275] mm and rotate to [[-1, 0, 0], [0, 1, 0], [0, 0, -1]]]
  movej(p[0.845094,-0.002649,-0.058549,0,3.141593,0], a=0.523599, v=0.436332, r=0.005)  # [Transform: move to [845.094, -2.649, -58.549] mm and rotate to [[-1, 0, 0], [0, 1, 0], [0, 0, -1]]]
  movej(p[0.846624,-0.007983,-0.057252,0,3.141593,0], a=0.523599, v=0.436332, r=0.005)  # [Transform: move to [846.624, -7.983, -57.252] mm and rotate to [[-1, 0, 0], [0, 1, 0], [0, 0, -1]]]
  movej(p[0.846094,-0.013143,-0.056548,0,3.141593,0], a=0.523599, v=0.436332, r=0.005)  # [Transform: move to [846.094, -13.143, -56.548] mm and rotate to [[-1, 0, 0], [0, 1, 0], [0, 0, -1]]]
  movej(p[0.845175,-0.018599,-0.058563,0,3.141593,0], a=0.523599, v=0.436332, r=0.005)  # [Transform: move to [845.175, -18.599, -58.563] mm and rotate to [[-1, 0, 0], [0, 1, 0], [0, 0, -1]]]
  movej(p[0.845061,-0.02198,-0.059296,0,3.141593,0], a=0.523599, v=0.436332, r=0.005)  # [Transform: move to [845.061, -21.98, -59.296] mm and rotate to [[-1, 0, 0], [0, 1, 0], [0, 0, -1]]]
  movej(p[0.843725,-0.024975,-0.058781,0,3.141593,0], a=0.523599, v=0.436332, r=0.005)  # [Transform: move to [843.725, -24.975, -58.781] mm and rotate to [[-1, 0, 0], [0, 1, 0], [0, 0, -1]]]
  movej(p[0.842653,-0.029033,-0.056039,0,3.141593,0], a=0.523599, v=0.436332, r=0.005)  # [Transform: move to [842.653, -29.033, -56.039] mm and rotate to [[-1, 0, 0], [0, 1, 0], [0, 0, -1]]]
  movej(p[0.842339,-0.033444,-0.059771,0,3.141593,0], a=0.523599, v=0.436332, r=0.005)  # [Transform: move to [842.339, -33.444, -59.771] mm and rotate to [[-1, 0, 0], [0, 1, 0], [0, 0, -1]]]
  movej(p[0.84448,-0.037487,-0.057357,0,3.141593,0], a=0.523599, v=0.436332, r=0.005)  # [Transform: move to [844.48, -37.487, -57.357] mm and rotate to [[-1, 0, 0], [0, 1, 0], [0, 0, -1]]]
  movej(p[0.842016,-0.039946,-0.058761,0,3.141593,0], a=0.523599, v=0.436332, r=0.005)  # [Transform: move to [842.016, -39.946, -58.761] mm and rotate to [[-1, 0, 0], [0, 1, 0], [0, 0, -1]]]
  movej(p[0.845948,-0.043907,-0.05685,0,3.141593,0], a=0.523599, v=0.436332, r=0.005)  # [Transform: move to [845.948, -43.907, -56.85] mm and rotate to [[-1, 0, 0], [0, 1, 0], [0, 0, -1]]]
  movej(p[0.844495,-0.04907,-0.056478,0,3.141593,0], a=0.523599, v=0.436332, r=0.005)  # [Transform: move to [844.495, -49.07, -56.478] mm and rotate to [[-1, 0, 0], [0, 1, 0], [0, 0, -1]]]
  movej(p[0.848028,-0.049014,-0.056242,0,3.141593,0], a=0.523599, v=0.436332, r=0.005)  # [Transform: move to [848.028, -49.014, -56.242] mm and rotate to [[-1, 0, 0], [0, 1, 0], [0, 0, -1]]]
  movej(p[0.847786,-0.0531,-0.058746,0,3.141593,0], a=0.523599, v=0.436332, r=0.005)  # [Transform: move to [847.786, -53.1, -58.746] mm and rotate to [[-1, 0, 0], [0, 1, 0], [0, 0, -1]]]
  movej(p[0.846483,-0.057428,-0.05977,0,3.141593,0], a=0.523599, v=0.436332, r=0.005)  # [Transform: move to [846.483, -57.428, -59.77] mm and rotate to [[-1, 0, 0], [0, 1, 0], [0, 0, -1]]]
  movej(p[0.872,-0.036272,-0.059542,0,3.141593,0], a=0.523599, v=0.436332, r=0.005)  # [Transform: move to [872, -36.272, -59.542] mm and rotate to [[-1, 0, 0], [0, 1, 0], [0, 0, -1]]]
  movej(p[0.872,-0.027004,-0.056793,0,3.141593,0], a=0.523599, v=0.436332, r=0.005)  # [Transform: move to [872, -27.004, -56.793] mm and rotate to [[-1, 0, 0], [0, 1, 0], [0, 0, -1]]]
  movej(p[0.853301,0.033541,-0.059239,0,3.141593,0], a=0.523599, v=0.436332, r=0.005)  # [Transform: move to [853.301, 33.541, -59.239] mm and rotate to [[-1, 0, 0], [0, 1, 0], [0, 0, -1]]]
  movej(p[0.867618,0.075194,-0.05652,0,3.141593,0], a=0.523599, v=0.436332, r=0.005)  # [Transform: move to [867.618, 75.194, -56.52] mm and rotate to [[-1, 0, 0], [0, 1, 0], [0, 0, -1]]]
  movej(p[0.872,0.080304,-0.059868,0,3.141593,0], a=0.523599, v=0.436332, r=0.005)  # [Transform: move to [872, 80.304, -59.868] mm and rotate to [[-1, 0, 0], [0, 1, 0], [0, 0, -1]]]
  movej(p[0.860124,0.079303,-0.056822,0,3.141593,0], a=0.523599, v=0.436332, r=0.005)  # [Transform: move to [860.124, 79.303, -56.822] mm and rotate to [[-1, 0, 0], [0, 1, 0], [0, 0, -1]]]
  movej(p[0.858244,0.074397,-0.057334,0,3.141593,0], a=0.523599, v=0.436332, r=0.005)  # [Transform: move to [858.244, 74.397, -57.334] mm and rotate to [[-1, 0, 0], [0, 1, 0], [0, 0, -1]]]
  movej(p[0.795918,0.062141,-0.056274,0,3.141593,0], a=0.523599, v=0.436332, r=0.005)  # [Transform: move to [795.918, 62.141, -56.274] mm and rotate to [[-1, 0, 0], [0, 1, 0], [0, 0, -1]]]
  movej(p[0.789592,0.060039,-0.057769,0,3.141593,0], a=0.523599, v=0.436332, r=0.005)  # [Transform: move to [789.592, 60.039, -57.769] mm and rotate to [[-1, 0, 0], [0, 1, 0], [0, 0, -1]]]
  movej(p[0.782152,0.064627,-0.059377,0,3.141593,0], a=0.523599, v=0.436332, r=0.005)  # [Transform: move to [782.152, 64.627, -59.377] mm and rotate to [[-1, 0, 0], [0, 1, 0], [0, 0, -1]]]
  movej(p[0.737765,0.077663,-0.056219,0,3.141593,0], a=0.523599, v=0.436332, r=0.005)  # [Transform: move to [737.765, 77.663, -56.219] mm and rotate to [[-1, 0, 0], [0, 1, 0], [0, 0, -1]]]
  movej(p[0.735566,0.074862,-0.05774,0,3.141593,0], a=0.523599, v=0.436332, r=0.005)  # [Transform: move to [735.566, 74.862, -57.74] mm and rotate to [[-1, 0, 0], [0, 1, 0], [0, 0, -1]]]
  movej(p[0.731518,0.077657,-0.059541,0,3.141593,0], a=0.523599, v=0.436332, r=0.005)  # [Transform: move to [731.518, 77.657, -59.541] mm and rotate to [[-1, 0, 0], [0, 1, 0], [0, 0, -1]]]
  movej(p[0.728606,0.079259,-0.059555,0,3.141593,0], a=0.523599, v=0.436332, r=0.005)  # [Transform: move to [728.606, 79.259, -59.555] mm and rotate to [[-1, 0, 0], [0, 1, 0], [0, 0, -1]]]
  movej(p[0.723931,0.079343,-0.058098,0,3.141593,0], a=0.523599, v=0.436332, r=0.005)  # [Transform: move to [723.931, 79.343, -58.098] mm and rotate to [[-1, 0, 0], [0, 1, 0], [0, 0, -1]]]
  movej(p[0.714869,0.079164,-0.058637,0,3.141593,0], a=0.523599, v=0.436332, r=0.005)  # [Transform: move to [714.869, 79.164, -58.637] mm and rotate to [[-1, 0, 0], [0, 1, 0], [0, 0, -1]]]
  movej(p[0.713759,0.075606,-0.059446,0,3.141593,0], a=0.523599, v=0.436332, r=0.005)  # [Transform: move to [713.759, 75.606, -59.446] mm and rotate to [[-1, 0, 0], [0, 1, 0], [0, 0, -1]]]
  movej(p[0.711869,0.071268,-0.056889,0,3.141593,0], a=0.523599, v=0.436332, r=0.005)  # [Transform: move to [711.869, 71.268, -56.889] mm and rotate to [[-1, 0, 0], [0, 1, 0], [0, 0, -1]]]
  movej(p[0.711309,0.065662,-0.058212,0,3.141593,0], a=0.523599, v=0.436332, r=0.005)  # [Transform: move to [711.309, 65.662, -58.212] mm and rotate to [[-1, 0, 0], [0, 1, 0], [0, 0, -1]]]
  movej(p[0.708074,0.059981,-0.056494,0,3.141593,0], a=0.523599, v=0.436332, r=0.005)  # [Transform: move to [708.074, 59.981, -56.494] mm and rotate to [[-1, 0, 0], [0, 1, 0], [0, 0, -1]]]
  movej(p[0.709898,0.053914,-0.059139,0,3.141593,0], a=0.523599, v=0.436332, r=0.005)  # [Transform: move to [709.898, 53.914, -59.139] mm and rotate to [[-1, 0, 0], [0, 1, 0], [0, 0, -1]]]
  movej(p[0.707188,0.050405,-0.057638,0,3.141593,0], a=0.523599, v=0.436332, r=0.005)  # [Transform: move to [707.188, 50.405, -57.638] mm and rotate to [[-1, 0, 0], [0, 1, 0], [0, 0, -1]]]
  movej(p[0.706081,0.046023,-0.059764,0,3.141593,0], a=0.523599, v=0.436332, r=0.005)  # [Transform: move to [706.081, 46.023, -59.764] mm and rotate to [[-1, 0, 0], [0, 1, 0], [0, 0, -1]]]
  movej(p[0.707498,0.040074,-0.059409,0,3.141593,0], a=0.523599, v=0.436332, r=0.005)  # [Transform: move to [707.498, 40.074, -59.409] mm and rotate to [[-1, 0, 0], [0, 1, 0], [0, 0, -1]]]
  movej(p[0.706606,0.035234,-0.056821,0,3.141593,0], a=0.523599, v=0.436332, r=0.005)  # [Transform: move to [706.606, 35.234, -56.821] mm and rotate to [[-1, 0, 0], [0, 1, 0], [0, 0, -1]]]
  movej(p[0.708545,0.032414,-0.057993,0,3.141593,0], a=0.523599, v=0.436332, r=0.005)  # [Transform: move to [708.545, 32.414, -57.993] mm and rotate to [[-1, 0, 0], [0, 1, 0], [0, 0, -1]]]
  movej(p[0.705213,0.031845,-0.056659,0,3.141593,0], a=0.523599, v=0.436332, r=0.005)  # [Transform: move to [705.213, 31.845, -56.659] mm and rotate to [[-1, 0, 0], [0, 1, 0], [0, 0, -1]]]
  movej(p[0.710324,0.026072,-0.056129,0,3.141593,0], a=0.523599, v=0.436332, r=0.005)  # [Transform: move to [710.324, 26.072, -56.129] mm and rotate to [[-1, 0, 0], [0, 1, 0], [0, 0, -1]]]
  movej(p[0.709589,0.022781,-0.057169,0,3.141593,0], a=0.523599, v=0.436332, r=0.005)  # [Transform: move to [709.589, 22.781, -57.169] mm and rotate to [[-1, 0, 0], [0, 1, 0], [0, 0, -1]]]
  movej(p[0.712983,0.020371,-0.056707,0,3.141593,0], a=0.523599, v=0.436332, r=0.005)  # [Transform: move to [712.983, 20.371, -56.707] mm and rotate to [[-1, 0, 0], [0, 1, 0], [0, 0, -1]]]
  movej(p[0.714349,0.01769,-0.058916,0,3.141593,0], a=0.523599, v=0.436332, r=0.005)  # [Transform: move to [714.349, 17.69, -58.916] mm and rotate to [[-1, 0, 0], [0, 1, 0], [0, 0, -1]]]
  movej(p[0.71261,0.015143,-0.056825,0,3.141593,0], a=0.523599, v=0.436332, r=0.005)  # [Transform: move to [712.61, 15.143, -56.825] mm and rotate to [[-1, 0, 0], [0, 1, 0], [0, 0, -1]]]
  movej(p[0.716755,0.011807,-0.05724,0,3.141593,0], a=0.523599, v=0.436332, r=0.005)  # [Transform: move to [716.755, 11.807, -57.24] mm and rotate to [[-1, 0, 0], [0, 1, 0], [0, 0, -1]]]
  movej(p[0.715367,0.008441,-0.059313,0,3.141593,0], a=0.523599, v=0.436332, r=0.005)  # [Transform: move to [715.367, 8.441, -59.313] mm and rotate to [[-1, 0, 0], [0, 1, 0], [0, 0, -1]]]
  movej(p[0.71722,0.005718,-0.057962,0,3.141593,0], a=0.523599, v=0.436332, r=0.005)  # [Transform: move to [717.22, 5.718, -57.962] mm and rotate to [[-1, 0, 0], [0, 1, 0], [0, 0, -1]]]
  movej(p[0.711347,0.007433,-0.059545,0,3.141593,0], a=0.523599, v=0.436332, r=0.005)  # [Transform: move to [711.347, 7.433, -59.545] mm and rotate to [[-1, 0, 0], [0, 1, 0], [0, 0, -1]]]
  movej(p[0.712138,0.000646,-0.059368,0,3.141593,0], a=0.523599, v=0.436332, r=0.005)  # [Transform: move to [712.138, 0.646, -59.368] mm and rotate to [[-1, 0, 0], [0, 1, 0], [0, 0, -1]]]
  movej(p[0.707368,0.001651,-0.056615,0,3.141593,0], a=0.523599, v=0.436332, r=0.005)  # [Transform: move to [707.368, 1.651, -56.615] mm and rotate to [[-1, 0, 0], [0, 1, 0], [0, 0, -1]]]
  movej(p[0.702777,-0.001465,-0.057007,0,3.141593,0], a=0.523599, v=0.436332, r=0.005)  # [Transform: move to [702.777, -1.465, -57.007] mm and rotate to [[-1, 0, 0], [0, 1, 0], [0, 0, -1]]]
  movej(p[0.699384,0.001264,-0.056452,0,3.141593,0], a=0.523599, v=0.436332, r=0.005)  # [Transform: move to [699.384, 1.264, -56.452] mm and rotate to [[-1, 0, 0], [0, 1, 0], [0, 0, -1]]]
  movej(p[0.693387,-0.001309,-0.057214,0,3.141593,0], a=0.523599, v=0.436332, r=0.005)  # [Transform: move to [693.387, -1.309, -57.214] mm and rotate to [[-1, 0, 0], [0, 1, 0], [0, 0, -1]]]
  movej(p[0.688369,-0.002977,-0.056978,0,3.141593,0], a=0.523599, v=0.436332, r=0.005)  # [Transform: move to [688.369, -2.977, -56.978] mm and rotate to [[-1, 0, 0], [0, 1, 0], [0, 0, -1]]]
  movej(p[0.688337,0.001794,-0.05878,0,3.141593,0], a=0.523599, v=0.436332, r=0.005)  # [Transform: move to [688.337, 1.794, -58.78] mm and rotate to [[-1, 0, 0], [0, 1, 0], [0, 0, -1]]]
  movej(p[0.682008,0.002296,-0.059186,0,3.141593,0], a=0.523599, v=0.436332, r=0.005)  # [Transform: move to [682.008, 2.296, -59.186] mm and rotate to [[-1, 0, 0], [0, 1, 0], [0, 0, -1]]]
  movej(p[0.6752,0.007921,-0.059076,0,3.141593,0], a=0.523599, v=0.436332, r=0.005)  # [Transform: move to [675.2, 7.921, -59.076] mm and rotate to [[-1, 0, 0], [0, 1, 0], [0, 0, -1]]]
  movej(p[0.67289,0.013639,-0.057041,0,3.141593,0], a=0.523599, v=0.436332, r=0.005)  # [Transform: move to [672.89, 13.639, -57.041] mm and rotate to [[-1, 0, 0], [0, 1, 0], [0, 0, -1]]]
  movej(p[0.668132,0.010822,-0.056498,0,3.141593,0], a=0.523599, v=0.436332, r=0.005)  # [Transform: move to [668.132, 10.822, -56.498] mm and rotate to [[-1, 0, 0], [0, 1, 0], [0, 0, -1]]]
  movej(p[0.660659,0.010631,-0.056216,0,3.141593,0], a=0.523599, v=0.436332, r=0.005)  # [Transform: move to [660.659, 10.631, -56.216] mm and rotate to [[-1, 0, 0], [0, 1, 0], [0, 0, -1]]]
  movej(p[0.654332,0.013001,-0.059259,0,3.141593,0], a=0.523599, v=0.436332, r=0.005)  # [Transform: move to [654.332, 13.001, -59.259] mm and rotate to [[-1, 0, 0], [0, 1, 0], [0, 0, -1]]]
  movej(p[0.652865,0.008398,-0.056125,0,3.141593,0], a=0.523599, v=0.436332, r=0.005)  # [Transform: move to [652.865, 8.398, -56.125] mm and rotate to [[-1, 0, 0], [0, 1, 0], [0, 0, -1]]]
  movej(p[0.649912,0.003958,-0.057404,0,3.141593,0], a=0.523599, v=0.436332, r=0.005)  # [Transform: move to [649.912, 3.958, -57.404] mm and rotate to [[-1, 0, 0], [0, 1, 0], [0, 0, -1]]]
  movej(p[0.650954,0.000415,-0.059589,0,3.141593,0], a=0.523599, v=0.436332, r=0.005)  # [Transform: move to [650.954, 0.415, -59.589] mm and rotate to [[-1, 0, 0], [0, 1, 0], [0, 0, -1]]]
  movej(p[0.650529,-0.004918,-0.05803,0,3.141593,0], a=0.523599, v=0.436332, r=0.005)  # [Transform: move to [650.529, -4.918, -58.03] mm and rotate to [[-1, 0, 0], [0, 1, 0], [0, 0, -1]]]
  movej(p[0.645697,-0.001843,-0.058252,0,3.141593,0], a=0.523599, v=0.436332, r=0.005)  # [Transform: move to [645.697, -1.843, -58.252] mm and rotate to [[-1, 0, 0], [0, 1, 0], [0, 0, -1]]]
  movej(p[0.642551,-0.003519,-0.056631,0,3.141593,0], a=0.523599, v=0.436332, r=0.005)  # [Transform: move to [642.551, -3.519, -56.631] mm and rotate to [[-1, 0, 0], [0, 1, 0], [0, 0, -1]]]
  movej(p[0.640587,-0.008413,-0.057904,0,3.141593,0], a=0.523599, v=0.436332, r=0.005)  # [Transform: move to [640.587, -8.413, -57.904] mm and rotate to [[-1, 0, 0], [0, 1, 0], [0, 0, -1]]]
  movej(p[0.635744,-0.005675,-0.057028,0,3.141593,0], a=0.523599, v=0.436332, r=0.005)  # [Transform: move to [635.744, -5.675, -57.028] mm and rotate to [[-1, 0, 0], [0, 1, 0], [0, 0, -1]]]
  movej(p[0.63792,-0.000658,-0.05983,0,3.141593,0], a=0.523599, v=0.436332, r=0.005)  # [Transform: move to [637.92, -0.658, -59.83] mm and rotate to [[-1, 0, 0], [0, 1, 0], [0, 0, -1]]]
  movej(p[0.630819,0.002883,-0.059699,0,3.141593,0], a=0.523599, v=0.436332, r=0.005)  # [Transform: move to [630.819, 2.883, -59.699] mm and rotate to [[-1, 0, 0], [0, 1, 0], [0, 0, -1]]]
  movej(p[0.629551,-0.001183,-0.057875,0,3.141593,0], a=0.523599, v=0.436332, r=0.005)  # [Transform: move to [629.551, -1.183, -57.875] mm and rotate to [[-1, 0, 0], [0, 1, 0], [0, 0, -1]]]
  movej(p[0.625586,0.00653,-0.056163,0,3.141593,0], a=0.523599, v=0.436332, r=0.005)  # [Transform: move to [625.586, 6.53, -56.163] mm and rotate to [[-1, 0, 0], [0, 1, 0], [0, 0, -1]]]
  movej(p[0.623463,0.011569,-0.057206,0,3.141593,0], a=0.523599, v=0.436332, r=0.005)  # [Transform: move to [623.463, 11.569, -57.206] mm and rotate to [[-1, 0, 0], [0, 1, 0], [0, 0, -1]]]
  movej(p[0.620737,0.013712,-0.059104,0,3.141593,0], a=0.523599, v=0.436332, r=0.005)  # [Transform: move to [620.737, 13.712, -59.104] mm and rotate to [[-1, 0, 0], [0, 1, 0], [0, 0, -1]]]
  movej(p[0.619868,0.017795,-0.057061,0,3.141593,0], a=0.523599, v=0.436332, r=0.005)  # [Transform: move to [619.868, 17.795, -57.061] mm and rotate to [[-1, 0, 0], [0, 1, 0], [0, 0, -1]]]
  movej(p[0.618815,0.020957,-0.056461,0,3.141593,0], a=0.523599, v=0.436332, r=0.005)  # [Transform: move to [618.815, 20.957, -56.461] mm and rotate to [[-1, 0, 0], [0, 1, 0], [0, 0, -1]]]
  movej(p[0.615701,0.02298,-0.059394,0,3.141593,0], a=0.523599, v=0.436332, r=0.005)  # [Transform: move to [615.701, 22.98, -59.394] mm and rotate to [[-1, 0, 0], [0, 1, 0], [0, 0, -1]]]
  movej(p[0.617302,0.027988,-0.056499,0,3.141593,0], a=0.523599, v=0.436332, r=0.005)  # [Transform: move to [617.302, 27.988, -56.499] mm and rotate to [[-1, 0, 0], [0, 1, 0], [0, 0, -1]]]
  movej(p[0.61774,0.037301,-0.056227,0,3.141593,0], a=0.523599, v=0.436332, r=0.005)  # [Transform: move to [617.74, 37.301, -56.227] mm and rotate to [[-1, 0, 0], [0, 1, 0], [0, 0, -1]]]
  movej(p[0.620543,0.042258,-0.057593,0,3.141593,0], a=0.523599, v=0.436332, r=0.005)  # [Transform: move to [620.543, 42.258, -57.593] mm and rotate to [[-1, 0, 0], [0, 1, 0], [0, 0, -1]]]
  movej(p[0.624682,0.047937,-0.058552,0,3.141593,0], a=0.523599, v=0.436332, r=0.005)  # [Transform: move to [624.682, 47.937, -58.552] mm and rotate to [[-1, 0, 0], [0, 1, 0], [0, 0, -1]]]
  movej(p[0.626705,0.050824,-0.059269,0,3.141593,0], a=0.523599, v=0.436332, r=0.005)  # [Transform: move to [626.705, 50.824, -59.269] mm and rotate to [[-1, 0, 0], [0, 1, 0], [0, 0, -1]]]
  movej(p[0.627901,0.05671,-0.058831,0,3.141593,0], a=0.523599, v=0.436332, r=0.005)  # [Transform: move to [627.901, 56.71, -58.831] mm and rotate to [[-1, 0, 0], [0, 1, 0], [0, 0, -1]]]
  movej(p[0.631054,0.055975,-0.059882,0,3.141593,0], a=0.523599, v=0.436332, r=0.005)  # [Transform: move to [631.054, 55.975, -59.882] mm and rotate to [[-1, 0, 0], [0, 1, 0], [0, 0, -1]]]
  movej(p[0.627394,0.063172,-0.057759,0,3.141593,0], a=0.523599, v=0.436332, r=0.005)  # [Transform: move to [627.394, 63.172, -57.759] mm and rotate to [[-1, 0, 0], [0, 1, 0], [0, 0, -1]]]
  movej(p[0.627029,0.066987,-0.05928,0,3.141593,0], a=0.523599, v=0.436332, r=0.005)  # [Transform: move to [627.029, 66.987, -59.28] mm and rotate to [[-1, 0, 0], [0, 1, 0], [0, 0, -1]]]
  movej(p[0.631446,0.069451,-0.05816,0,3.141593,0], a=0.523599, v=0.436332, r=0.005)  # [Transform: move to [631.446, 69.451, -58.16] mm and rotate to [[-1, 0, 0], [0, 1, 0], [0, 0, -1]]]
  movej(p[0.63492,0.071233,-0.058858,0,3.141593,0], a=0.523599, v=0.436332, r=0.005)  # [Transform: move to [634.92, 71.233, -58.858] mm and rotate to [[-1, 0, 0], [0, 1, 0], [0, 0, -1]]]
  movej(p[0.633831,0.075367,-0.056578,0,3.141593,0], a=0.523599, v=0.436332, r=0.005)  # [Transform: move to [633.831, 75.367, -56.578] mm and rotate to [[-1, 0, 0], [0, 1, 0], [0, 0, -1]]]
  movej(p[0.636837,0.076369,-0.056333,0,3.141593,0], a=0.523599, v=0.436332, r=0.005)  # [Transform: move to [636.837, 76.369, -56.333] mm and rotate to [[-1, 0, 0], [0, 1, 0], [0, 0, -1]]]
  movej(p[0.639882,0.077295,-0.05978,0,3.141593,0], a=0.523599, v=0.436332, r=0.005)  # [Transform: move to [639.882, 77.295, -59.78] mm and rotate to [[-1, 0, 0], [0, 1, 0], [0, 0, -1]]]
  movej(p[0.644057,0.078738,-0.057495,0,3.141593,0], a=0.523599, v=0.436332, r=0.005)  # [Transform: move to [644.057, 78.738, -57.495] mm and rotate to [[-1, 0, 0], [0, 1, 0], [0, 0, -1]]]
  movej(p[0.650833,0.07796,-0.056443,0,3.141593,0], a=0.523599, v=0.436332, r=0.005)  # [Transform: move to [650.833, 77.96, -56.443] mm and rotate to [[-1, 0, 0], [0, 1, 0], [0, 0, -1]]]
  movej(p[0.651477,0.08165,-0.05687,0,3.141593,0], a=0.523599, v=0.436332, r=0.005)  # [Transform: move to [651.477, 81.65, -56.87] mm and rotate to [[-1, 0, 0], [0, 1, 0], [0, 0, -1]]]
  movej(p[0.656203,0.077344,-0.057045,0,3.141593,0], a=0.523599, v=0.436332, r=0.005)  # [Transform: move to [656.203, 77.344, -57.045] mm and rotate to [[-1, 0, 0], [0, 1, 0], [0, 0, -1]]]
  movej(p[0.660759,0.069697,-0.059303,0,3.141593,0], a=0.523599, v=0.436332, r=0.005)  # [Transform: move to [660.759, 69.697, -59.303] mm and rotate to [[-1, 0, 0], [0, 1, 0], [0, 0, -1]]]
  movej(p[0.666685,0.070735,-0.059327,0,3.141593,0], a=0.523599, v=0.436332, r=0.005)  # [Transform: move to [666.685, 70.735, -59.327] mm and rotate to [[-1, 0, 0], [0, 1, 0], [0, 0, -1]]]
  movej(p[0.671331,0.069865,-0.058794,0,3.141593,0], a=0.523599, v=0.436332, r=0.005)  # [Transform: move to [671.331, 69.865, -58.794] mm and rotate to [[-1, 0, 0], [0, 1, 0], [0, 0, -1]]]
  movej(p[0.673063,0.06634,-0.058989,0,3.141593,0], a=0.523599, v=0.436332, r=0.005)  # [Transform: move to [673.063, 66.34, -58.989] mm and rotate to [[-1, 0, 0], [0, 1, 0], [0, 0, -1]]]
  movej(p[0.669317,0.065796,-0.058682,0,3.141593,0], a=0.523599, v=0.436332, r=0.005)  # [Transform: move to [669.317, 65.796, -58.682] mm and rotate to [[-1, 0, 0], [0, 1, 0], [0, 0, -1]]]
  movej(p[0.66635,0.064376,-0.056058,0,3.141593,0], a=0.523599, v=0.436332, r=0.005)  # [Transform: move to [666.35, 64.376, -56.058] mm and rotate to [[-1, 0, 0], [0, 1, 0], [0, 0, -1]]]
  movej(p[0.66934,0.061808,-0.058517,0,3.141593,0], a=0.523599, v=0.436332, r=0.005)  # [Transform: move to [669.34, 61.808, -58.517] mm and rotate to [[-1, 0, 0], [0, 1, 0], [0, 0, -1]]]
  movej(p[0.666662,0.05748,-0.059537,0,3.141593,0], a=0.523599, v=0.436332, r=0.005)  # [Transform: move to [666.662, 57.48, -59.537] mm and rotate to [[-1, 0, 0], [0, 1, 0], [0, 0, -1]]]
  movej(p[0.663175,0.059764,-0.056917,0,3.141593,0], a=0.523599, v=0.436332, r=0.005)  # [Transform: move to [663.175, 59.764, -56.917] mm and rotate to [[-1, 0, 0], [0, 1, 0], [0, 0, -1]]]
  movej(p[0.659968,0.05268,-0.059132,0,3.141593,0], a=0.523599, v=0.436332, r=0.005)  # [Transform: move to [659.968, 52.68, -59.132] mm and rotate to [[-1, 0, 0], [0, 1, 0], [0, 0, -1]]]
  movej(p[0.66767,0.05233,-0.056289,0,3.141593,0], a=0.523599, v=0.436332, r=0.005)  # [Transform: move to [667.67, 52.33, -56.289] mm and rotate to [[-1, 0, 0], [0, 1, 0], [0, 0, -1]]]
  movej(p[0.666953,0.046174,-0.056009,0,3.141593,0], a=0.523599, v=0.436332, r=0.005)  # [Transform: move to [666.953, 46.174, -56.009] mm and rotate to [[-1, 0, 0], [0, 1, 0], [0, 0, -1]]]
  movej(p[0.668791,0.042931,-0.057874,0,3.141593,0], a=0.523599, v=0.436332, r=0.005)  # [Transform: move to [668.791, 42.931, -57.874] mm and rotate to [[-1, 0, 0], [0, 1, 0], [0, 0, -1]]]
  movej(p[0.672381,0.04026,-0.057718,0,3.141593,0], a=0.523599, v=0.436332, r=0.005)  # [Transform: move to [672.381, 40.26, -57.718] mm and rotate to [[-1, 0, 0], [0, 1, 0], [0, 0, -1]]]
  movej(p[0.671869,0.036596,-0.058725,0,3.141593,0], a=0.523599, v=0.436332, r=0.005)  # [Transform: move to [671.869, 36.596, -58.725] mm and rotate to [[-1, 0, 0], [0, 1, 0], [0, 0, -1]]]
  movej(p[0.672612,0.031814,-0.059682,0,3.141593,0], a=0.523599, v=0.436332, r=0.005)  # [Transform: move to [672.612, 31.814, -59.682] mm and rotate to [[-1, 0, 0], [0, 1, 0], [0, 0, -1]]]
  movej(p[0.672775,0.027929,-0.056542,0,3.141593,0], a=0.523599, v=0.436332, r=0.005)  # [Transform: move to [672.775, 27.929, -56.542] mm and rotate to [[-1, 0, 0], [0, 1, 0], [0, 0, -1]]]
  movej(p[0.675765,0.025317,-0.056271,0,3.141593,0], a=0.523599, v=0.436332, r=0.005)  # [Transform: move to [675.765, 25.317, -56.271] mm and rotate to [[-1, 0, 0], [0, 1, 0], [0, 0, -1]]]
  movej(p[0.666977,0.037816,-0.058623,0,3.141593,0], a=0.523599, v=0.436332, r=0.005)  # [Transform: move to [666.977, 37.816, -58.623] mm and rotate to [[-1, 0, 0], [0, 1, 0], [0, 0, -1]]]
  movej(p[0.659151,0.038131,-0.056707,0,3.141593,0], a=0.523599, v=0.436332, r=0.005)  # [Transform: move to [659.151, 38.131, -56.707] mm and rotate to [[-1, 0, 0], [0, 1, 0], [0, 0, -1]]]
  movej(p[0.655078,0.035846,-0.056856,0,3.141593,0], a=0.523599, v=0.436332, r=0.005)  # [Transform: move to [655.078, 35.846, -56.856] mm and rotate to [[-1, 0, 0], [0, 1, 0], [0, 0, -1]]]
  movej(p[0.655797,0.030925,-0.058573,0,3.141593,0], a=0.523599, v=0.436332, r=0.005)  # [Transform: move to [655.797, 30.925, -58.573] mm and rotate to [[-1, 0, 0], [0, 1, 0], [0, 0, -1]]]
  movej(p[0.654565,0.027899,-0.059706,0,3.141593,0], a=0.523599, v=0.436332, r=0.005)  # [Transform: move to [654.565, 27.899, -59.706] mm and rotate to [[-1, 0, 0], [0, 1, 0], [0, 0, -1]]]
  movej(p[0.672747,0.073899,-0.056271,0,3.141593,0], a=0.523599, v=0.436332, r=0.005)  # [Transform: move to [672.747, 73.899, -56.271] mm and rotate to [[-1, 0, 0], [0, 1, 0], [0, 0, -1]]]
  movej(p[0.677074,0.07786,-0.058972,0,3.141593,0], a=0.523599, v=0.436332, r=0.005)  # [Transform: move to [677.074, 77.86, -58.972] mm and rotate to [[-1, 0, 0], [0, 1, 0], [0, 0, -1]]]
  movej(p[0.678333,0.081443,-0.058471,0,3.141593,0], a=0.523599, v=0.436332, r=0.005)  # [Transform: move to [678.333, 81.443, -58.471] mm and rotate to [[-1, 0, 0], [0, 1, 0], [0, 0, -1]]]
  movej(p[0.681129,0.079293,-0.059046,0,3.141593,0], a=0.523599, v=0.436332, r=0.005)  # [Transform: move to [681.129, 79.293, -59.046] mm and rotate to [[-1, 0, 0], [0, 1, 0], [0, 0, -1]]]
  movej(p[0.689696,0.081185,-0.05645,0,3.141593,0], a=0.523599, v=0.436332, r=0.005)  # [Transform: move to [689.696, 81.185, -56.45] mm and rotate to [[-1, 0, 0], [0, 1, 0], [0, 0, -1]]]
  movej(p[0.698938,0.082275,-0.059498,0,3.141593,0], a=0.523599, v=0.436332, r=0.005)  # [Transform: move to [698.938, 82.275, -59.498] mm and rotate to [[-1, 0, 0], [0, 1, 0], [0, 0, -1]]]
  movej(p[0.721858,0.011333,-0.059919,0,3.141593,0], a=0.523599, v=0.436332, r=0.005)  # [Transform: move to [721.858, 11.333, -59.919] mm and rotate to [[-1, 0, 0], [0, 1, 0], [0, 0, -1]]]
  movej(p[0.727472,0.008865,-0.056379,0,3.141593,0], a=0.523599, v=0.436332, r=0.005)  # [Transform: move to [727.472, 8.865, -56.379] mm and rotate to [[-1, 0, 0], [0, 1, 0], [0, 0, -1]]]
  movej(p[0.732055,0.008463,-0.05972,0,3.141593,0], a=0.523599, v=0.436332, r=0.005)  # [Transform: move to [732.055, 8.463, -59.72] mm and rotate to [[-1, 0, 0], [0, 1, 0], [0, 0, -1]]]
  movej(p[0.737288,0.008559,-0.056336,0,3.141593,0], a=0.523599, v=0.436332, r=0.005)  # [Transform: move to [737.288, 8.559, -56.336] mm and rotate to [[-1, 0, 0], [0, 1, 0], [0, 0, -1]]]
  movej(p[0.742316,0.003519,-0.05806,0,3.141593,0], a=0.523599, v=0.436332, r=0.005)  # [Transform: move to [742.316, 3.519, -58.06] mm and rotate to [[-1, 0, 0], [0, 1, 0], [0, 0, -1]]]
  movej(p[0.744538,0.006652,-0.057758,0,3.141593,0], a=0.523599, v=0.436332, r=0.005)  # [Transform: move to [744.538, 6.652, -57.758] mm and rotate to [[-1, 0, 0], [0, 1, 0], [0, 0, -1]]]
  movej(p[0.747739,0.000971,-0.057133,0,3.141593,0], a=0.523599, v=0.436332, r=0.005)  # [Transform: move to [747.739, 0.971, -57.133] mm and rotate to [[-1, 0, 0], [0, 1, 0], [0, 0, -1]]]
  movej(p[0.750898,0.001958,-0.0566,0,3.141593,0], a=0.523599, v=0.436332, r=0.005)  # [Transform: move to [750.898, 1.958, -56.6] mm and rotate to [[-1, 0, 0], [0, 1, 0], [0, 0, -1]]]
  movej(p[0.751724,-0.00214,-0.057511,0,3.141593,0], a=0.523599, v=0.436332, r=0.005)  # [Transform: move to [751.724, -2.14, -57.511] mm and rotate to [[-1, 0, 0], [0, 1, 0], [0, 0, -1]]]
  movej(p[0.752996,-0.005467,-0.057545,0,3.141593,0], a=0.523599, v=0.436332, r=0.005)  # [Transform: move to [752.996, -5.467, -57.545] mm and rotate to [[-1, 0, 0], [0, 1, 0], [0, 0, -1]]]
